LUT/LumixLab/Deep Blue.cube
TITLE "Generated by Resolve"
#LUMIXPHOTOSTYLE NAT
LUT_3D_SIZE 5
0.000701915 0 0.000701915
0.133684 0.0135195 0.00140383
0.295552 0.04477 0.00143435
0.462974 0.0673533 0.000701915
0.633906 0.103731 0.0028687
0.0327153 0.132799 0.0534676
0.211627 0.168444 0.0326848
0.444907 0.204822 0.00607309
0.653681 0.22887 0.0033875
0.839506 0.281605 0.0333562
0.0812085 0.385611 0.0759899
0.2636 0.442496 0.0808728
0.502312 0.469383 0.0454108
0.714229 0.495201 0.0289921
0.925841 0.504021 0.030396
0.157565 0.662135 0.100893
0.268086 0.719814 0.132204
0.520562 0.730007 0.0852979
0.740597 0.741909 0.0548714
0.958587 0.759396 0.0466926
0.106508 0.918425 0.119173
0.26009 0.939544 0.204501
0.515557 0.95761 0.13785
0.749783 0.974212 0.0966506
0.978943 0.989136 0.0996109
0.00210575 0.0163577 0.11426
0.100923 0.0319829 0.114992
0.309773 0.0445563 0.0959182
0.505821 0.0643015 0.109545
0.694514 0.121309 0.147662
0.0156558 0.1346 0.211566
0.142504 0.175799 0.217639
0.434928 0.217884 0.187823
0.654353 0.249317 0.20061
0.838437 0.304555 0.240467
0.0435492 0.392905 0.285298
0.20885 0.46746 0.303883
0.495659 0.495384 0.2701
0.721035 0.504021 0.260334
0.929564 0.512505 0.265034
0.0831311 0.654688 0.293172
0.199023 0.725734 0.337057
0.504173 0.743252 0.288167
0.740261 0.754818 0.261616
0.963775 0.763851 0.268818
0.0726329 0.923705 0.315602
0.253162 0.942565 0.399466
0.512261 0.964477 0.344625
0.750515 0.982055 0.327962
0.979736 0.99469 0.346181
0 0.0517891 0.238132
0.0488594 0.0751049 0.290486
0.260884 0.0877394 0.2607
0.484398 0.130159 0.270771
0.652338 0.206516 0.31603
0 0.175341 0.35848
0.0932784 0.227253 0.409445
0.368032 0.262409 0.406485
0.622583 0.310475 0.413993
0.789364 0.385519 0.457938
0.0849317 0.398245 0.487816
0.204852 0.49395 0.558679
0.466636 0.533684 0.557275
0.709773 0.530541 0.519677
0.900786 0.548455 0.519707
0.101198 0.670741 0.578332
0.182635 0.751369 0.637263
0.487785 0.755184 0.569085
0.737209 0.76495 0.558587
0.963012 0.766384 0.526909
0.0722362 0.924132 0.559564
0.284382 0.949706 0.628168
0.514183 0.970947 0.585077
0.751339 0.987457 0.577844
0.981598 0.996216 0.598108
0 0.0835279 0.328374
0.024506 0.132815 0.440558
0.145571 0.143069 0.428092
0.431785 0.203403 0.434043
0.630793 0.305364 0.503105
0.000701915 0.232471 0.495567
0.0689555 0.29546 0.562829
0.25301 0.323934 0.588434
0.567468 0.395377 0.606287
0.744656 0.487449 0.649836
0.112123 0.442649 0.611353
0.241413 0.553704 0.708125
0.443381 0.584131 0.736843
0.665705 0.614588 0.74432
0.841031 0.643793 0.744411
0.257786 0.699855 0.764157
0.347341 0.773983 0.829099
0.525597 0.779934 0.821469
0.730343 0.797757 0.823453
0.935821 0.794766 0.796109
0.1402 0.931182 0.801846
0.352163 0.951324 0.834348
0.548211 0.97113 0.825162
0.763577 0.988067 0.818387
0.987793 0.997314 0.826291
0 0.117769 0.408972
0.024506 0.209201 0.578058
0.0682383 0.19968 0.560693
0.335836 0.273014 0.588586
0.609064 0.397681 0.658412
0.00210575 0.288655 0.610681
0.0667887 0.377066 0.675898
0.172503 0.39202 0.702541
0.457877 0.467552 0.736934
0.70959 0.568292 0.779355
0.146685 0.515862 0.745754
0.280262 0.613825 0.803952
0.438193 0.638758 0.840391
0.60293 0.667994 0.862089
0.798672 0.698817 0.878386
0.316655 0.728298 0.862638
0.43505 0.779019 0.898222
0.566674 0.79498 0.920409
0.723171 0.815549 0.946532
0.910582 0.831571 0.96527
0.273014 0.929412 0.966308
0.44564 0.947478 0.976379
0.606806 0.963653 0.984314
0.791043 0.983978 0.993774
1 0.999939 1
