LUT/LumixLab/Deep Blue.cube
TITLE "Generated by Resolve"
#LUMIXPHOTOSTYLE NAT
LUT_3D_SIZE 9
0.000701915 0 0.000701915
0.0582742 0.00283818 0.000701915
0.133684 0.0135195 0.00140383
0.21529 0.0291447 0.00143435
0.295552 0.04477 0.00143435
0.377493 0.0587167 0.00143435
0.462974 0.0673533 0.000701915
0.550439 0.0747692 0.000701915
0.633906 0.103731 0.0028687
0.0135195 0.0519417 0.0263066
0.0831464 0.0617838 0.0198978
0.181415 0.074876 0.00637827
0.28365 0.0878157 0.00283818
0.387564 0.101274 0.00140383
0.487572 0.111772 0.00137331
0.584131 0.122362 0.000701915
0.671901 0.151507 0.00427253
0.75906 0.187518 0.0263066
0.0327153 0.132799 0.0534676
0.0991073 0.150011 0.0534676
0.211627 0.168444 0.0326848
0.334401 0.192615 0.0110781
0.444907 0.204822 0.00607309
0.550347 0.215198 0.00402838
0.653681 0.22887 0.0033875
0.751858 0.25124 0.00485237
0.839506 0.281605 0.0333562
0.0517891 0.249531 0.0682689
0.108873 0.281941 0.0792554
0.237507 0.295583 0.0610361
0.364553 0.317311 0.0376287
0.480461 0.338247 0.0189822
0.588647 0.350942 0.013611
0.693751 0.357321 0.0111086
0.795438 0.368124 0.0134585
0.890929 0.384573 0.0271916
0.0812085 0.385611 0.0759899
0.112795 0.433402 0.0989395
0.2636 0.442496 0.0808728
0.3897 0.457694 0.0630198
0.502312 0.469383 0.0454108
0.606897 0.483665 0.0343328
0.714229 0.495201 0.0289921
0.822354 0.499382 0.0285649
0.925841 0.504021 0.030396
0.123934 0.527642 0.0835279
0.155642 0.572442 0.109194
0.280934 0.583947 0.0984512
0.405905 0.595605 0.0830091
0.517998 0.604639 0.0674144
0.623438 0.610498 0.0546883
0.724636 0.621454 0.0472114
0.834745 0.631556 0.0426337
0.948974 0.635981 0.040589
0.157565 0.662135 0.100893
0.183108 0.701778 0.130831
0.268086 0.719814 0.132204
0.407706 0.721157 0.102785
0.520562 0.730007 0.0852979
0.63006 0.736477 0.0684825
0.740597 0.741909 0.0548714
0.847471 0.751675 0.0485847
0.958587 0.759396 0.0466926
0.142245 0.791775 0.111849
0.178378 0.822629 0.145602
0.216281 0.852872 0.177981
0.393912 0.841062 0.126192
0.515465 0.847135 0.103243
0.630549 0.854032 0.0846571
0.746792 0.859556 0.0669871
0.863157 0.865232 0.0537728
0.969787 0.8757 0.0529183
0.106508 0.918425 0.119173
0.175799 0.933227 0.158541
0.26009 0.939544 0.204501
0.392782 0.948363 0.169924
0.515557 0.95761 0.13785
0.632349 0.966491 0.11545
0.749783 0.974212 0.0966506
0.867979 0.980896 0.0838941
0.978943 0.989136 0.0996109
0 0.00637827 0.0532845
0.0449531 0.0113832 0.0558175
0.123796 0.0170596 0.0456855
0.222461 0.0227665 0.0314641
0.323568 0.0239872 0.0251164
0.420584 0.0281071 0.0263371
0.515343 0.0413214 0.0336156
0.61062 0.0664073 0.0442664
0.709133 0.102815 0.0634928
0.0106508 0.0558175 0.0949874
0.0606241 0.0651408 0.093431
0.156268 0.0784161 0.080705
0.277729 0.0894636 0.065507
0.392386 0.098436 0.0583963
0.497124 0.109911 0.0613565
0.595636 0.129229 0.0710002
0.690333 0.158007 0.0882734
0.781888 0.1953 0.111589
0.0213321 0.13518 0.128344
0.0767987 0.158038 0.13463
0.190845 0.177417 0.119829
0.328817 0.203784 0.10634
0.447745 0.210468 0.0918135
0.556054 0.220142 0.0885481
0.658076 0.235859 0.0965133
0.754391 0.259541 0.11284
0.845029 0.289296 0.134508
0.0341497 0.253437 0.150103
0.0819867 0.291341 0.169757
0.216327 0.310811 0.1505
0.357473 0.33135 0.132128
0.481102 0.349996 0.123217
0.593103 0.357534 0.118761
0.699031 0.362966 0.118944
0.799741 0.374289 0.12697
0.89395 0.391348 0.141436
0.0540169 0.386404 0.160052
0.0832532 0.436881 0.194476
0.238605 0.454246 0.170886
0.379812 0.471977 0.153735
0.501457 0.481743 0.139055
0.609339 0.491997 0.136919
0.718563 0.49987 0.137804
0.826871 0.502953 0.140459
0.929595 0.507988 0.145281
0.0868849 0.523796 0.163073
0.117067 0.57052 0.19704
0.25182 0.589654 0.182788
0.393362 0.6047 0.167926
0.513268 0.614588 0.152148
0.623804 0.61944 0.140551
0.728176 0.626947 0.14226
0.8392 0.634607 0.145892
0.952667 0.637934 0.14934
0.124758 0.660151 0.176196
0.149966 0.700862 0.211353
0.239704 0.72253 0.21236
0.395377 0.727108 0.18468
0.515129 0.737301 0.168292
0.628779 0.744137 0.151354
0.742275 0.748745 0.138933
0.850828 0.75613 0.142229
0.962188 0.762264 0.149004
0.123171 0.794461 0.194476
0.158114 0.825559 0.230365
0.19736 0.856321 0.26183
0.385428 0.846647 0.213581
0.511711 0.853513 0.193866
0.62948 0.860838 0.176287
0.747341 0.866514 0.157641
0.864897 0.871702 0.144884
0.972107 0.880217 0.152087
0.0949721 0.923217 0.209857
0.16875 0.934722 0.249012
0.25655 0.940642 0.293263
0.391867 0.950622 0.262623
0.516686 0.961151 0.236439
0.634302 0.97052 0.220203
0.751705 0.978302 0.207233
0.869261 0.984894 0.201404
0.979461 0.992035 0.221271
0.00210575 0.0163577 0.11426
0.0357366 0.0256046 0.129778
0.100923 0.0319829 0.114992
0.202289 0.0391546 0.102113
0.309773 0.0445563 0.0959182
0.410056 0.0513924 0.0992142
0.505821 0.0643015 0.109545
0.59942 0.0877394 0.124926
0.694514 0.121309 0.147662
0.00714122 0.0688945 0.168322
0.0421149 0.0804913 0.174273
0.12105 0.0888533 0.159869
0.250782 0.102464 0.14345
0.377279 0.113634 0.135027
0.487816 0.127245 0.142687
0.587366 0.147051 0.158556
0.681697 0.175525 0.179889
0.771969 0.212146 0.206622
0.0156558 0.1346 0.211566
0.0526131 0.159716 0.230579
0.142504 0.175799 0.217639
0.294484 0.201526 0.199664
0.434928 0.217884 0.187823
0.551232 0.231312 0.189441
0.654353 0.249317 0.20061
0.749599 0.273976 0.218402
0.838437 0.304555 0.240467
0.0291447 0.254719 0.25655
0.0648661 0.29958 0.291981
0.184009 0.322835 0.274678
0.337728 0.343252 0.259968
0.476066 0.361807 0.248127
0.592889 0.364584 0.239063
0.699702 0.370626 0.237324
0.799161 0.383474 0.243763
0.891203 0.401877 0.256184
0.0435492 0.392905 0.285298
0.0756237 0.446708 0.328878
0.20885 0.46746 0.303883
0.361685 0.487236 0.286549
0.495659 0.495384 0.2701
0.609155 0.500572 0.261921
0.721035 0.504021 0.260334
0.828458 0.506249 0.261067
0.929564 0.512505 0.265034
0.061677 0.525933 0.293751
0.0942092 0.576226 0.33434
0.218769 0.598505 0.317494
0.372885 0.614374 0.294423
0.503716 0.624628 0.2813
0.620783 0.628382 0.268147
0.729366 0.631922 0.264759
0.841489 0.636683 0.266621
0.95407 0.638636 0.2701
0.0831311 0.654688 0.293172
0.111635 0.69894 0.332387
0.199023 0.725734 0.337057
0.373098 0.732052 0.299947
0.504173 0.743252 0.288167
0.623316 0.750607 0.274311
0.740261 0.754818 0.261616
0.851591 0.75964 0.26244
0.963775 0.763851 0.268818
0.0876173 0.791012 0.301778
0.12668 0.823301 0.339925
0.173678 0.855772 0.370962
0.365469 0.850095 0.321218
0.501915 0.857847 0.306752
0.624018 0.865843 0.294575
0.743984 0.872038 0.279164
0.863615 0.877073 0.266224
0.972961 0.883268 0.270832
0.0726329 0.923705 0.315602
0.154253 0.934203 0.355245
0.253162 0.942565 0.399466
0.383932 0.953674 0.366598
0.512261 0.964477 0.344625
0.632074 0.974029 0.334279
0.750515 0.982055 0.327962
0.868772 0.988617 0.327901
0.979736 0.99469 0.346181
0.0028687 0.0334173 0.179721
0.0193484 0.0501106 0.219348
0.0757763 0.052369 0.200916
0.173022 0.056672 0.182788
0.29482 0.066743 0.174945
0.401358 0.0785534 0.174945
0.494194 0.0964065 0.183673
0.58352 0.121614 0.20235
0.672663 0.15552 0.230304
0 0.0878157 0.246693
0.0216983 0.104509 0.264546
0.0912337 0.110216 0.256672
0.210864 0.119249 0.239643
0.356649 0.135546 0.229847
0.474937 0.153124 0.233143
0.573449 0.177264 0.247395
0.66424 0.209033 0.272358
0.751095 0.246723 0.303426
0.00567636 0.151812 0.286152
0.0350958 0.183795 0.317922
0.111254 0.199908 0.318318
0.245075 0.218402 0.307546
0.40798 0.237507 0.292683
0.535515 0.254444 0.291066
0.639826 0.276509 0.304707
0.732662 0.30428 0.32668
0.818509 0.336141 0.351186
0.0326848 0.251606 0.343618
0.0637369 0.305806 0.391531
0.148821 0.326955 0.393576
0.286793 0.354025 0.389334
0.453635 0.369223 0.368032
0.58291 0.376547 0.355947
0.691463 0.387625 0.357534
0.788266 0.404166 0.365866
0.876524 0.424826 0.378286
0.0561837 0.396994 0.405997
0.0904097 0.452628 0.451865
0.190692 0.477256 0.449393
0.337209 0.499992 0.43621
0.487511 0.508721 0.420249
0.608545 0.507591 0.396475
0.720516 0.508324 0.389639
0.824552 0.513085 0.388571
0.922484 0.52224 0.391775
0.0696117 0.537102 0.438651
0.103182 0.587366 0.47808
0.202838 0.610651 0.472831
0.353475 0.623926 0.441093
0.496025 0.633509 0.429862
0.619013 0.635767 0.416251
0.729152 0.636072 0.401572
0.841917 0.638575 0.396201
0.952544 0.639643 0.397421
0.0768139 0.661463 0.440391
0.10898 0.706325 0.477256
0.180499 0.736873 0.489433
0.356039 0.739376 0.442741
0.493645 0.74902 0.42327
0.617578 0.75613 0.415641
0.736782 0.76022 0.40734
0.850462 0.762966 0.39968
0.964172 0.765133 0.397269
0.0713512 0.790066 0.431235
0.116732 0.824765 0.469047
0.172107 0.858396 0.498772
0.3514 0.854887 0.451987
0.490898 0.862211 0.430411
0.617639 0.870268 0.424063
0.739437 0.87689 0.416068
0.860777 0.881865 0.407126
0.972869 0.885924 0.40264
0.0621653 0.92105 0.431662
0.15172 0.935424 0.473655
0.263203 0.94641 0.513512
0.38674 0.957183 0.487297
0.508049 0.967956 0.459556
0.629572 0.977386 0.453025
0.749142 0.985351 0.451408
0.86807 0.991821 0.455344
0.980194 0.996521 0.470298
0 0.0517891 0.238132
0.0122683 0.0796216 0.310201
0.0488594 0.0751049 0.290486
0.13402 0.078584 0.275868
0.260884 0.0877394 0.2607
0.385 0.106294 0.26128
0.484398 0.130159 0.270771
0.57113 0.163577 0.288319
0.652338 0.206516 0.31603
0 0.110857 0.319478
0.0125734 0.136431 0.352285
0.0650339 0.137469 0.349294
0.166552 0.14461 0.341573
0.31783 0.157122 0.329305
0.454887 0.180163 0.331685
0.559991 0.210651 0.346365
0.64831 0.250874 0.369711
0.727138 0.297902 0.399619
0 0.175341 0.35848
0.0159609 0.21416 0.400107
0.0932784 0.227253 0.409445
0.203082 0.245563 0.413687
0.368032 0.262409 0.406485
0.513817 0.282582 0.403525
0.622583 0.310475 0.413993
0.711238 0.346609 0.433494
0.789364 0.385519 0.457938
0.0290837 0.266896 0.408621
0.0665751 0.321035 0.458946
0.143603 0.349386 0.478508
0.258473 0.378775 0.492241
0.421042 0.398489 0.489555
0.564141 0.407462 0.477928
0.673548 0.422904 0.47567
0.764462 0.445396 0.484215
0.845731 0.468833 0.49752
0.0849317 0.398245 0.487816
0.126268 0.460182 0.539147
0.204852 0.49395 0.558679
0.317922 0.519158 0.565637
0.466636 0.533684 0.557275
0.601617 0.531121 0.534417
0.709773 0.530541 0.519677
0.807279 0.538354 0.517113
0.900786 0.548455 0.519707
0.104555 0.544091 0.555596
0.1393 0.596124 0.596613
0.213642 0.624231 0.60708
0.340047 0.636072 0.591424
0.485222 0.645991 0.575799
0.617365 0.649256 0.564874
0.727687 0.643702 0.541405
0.837461 0.64239 0.529595
0.944274 0.645258 0.527276
0.101198 0.670741 0.578332
0.133898 0.714076 0.612696
0.182635 0.751369 0.637263
0.347219 0.746792 0.593652
0.487785 0.755184 0.569085
0.618524 0.761898 0.56582
0.737209 0.76495 0.558587
0.848814 0.765011 0.540551
0.963012 0.766384 0.526909
0.0861219 0.79556 0.568902
0.135241 0.829831 0.603387
0.194903 0.862547 0.629786
0.352468 0.860441 0.593652
0.488609 0.866545 0.567437
0.616114 0.87393 0.559991
0.737789 0.880308 0.555718
0.858488 0.884916 0.549676
0.971893 0.887602 0.536156
0.0722362 0.924132 0.559564
0.169177 0.939391 0.596918
0.284382 0.949706 0.628168
0.400381 0.960143 0.612055
0.514183 0.970947 0.585077
0.632044 0.97998 0.576928
0.751339 0.987457 0.577844
0.870085 0.993133 0.583703
0.981598 0.996216 0.598108
0 0.0677806 0.285466
0.0122683 0.109194 0.386648
0.024506 0.102815 0.369436
0.0906691 0.104402 0.361288
0.209735 0.114382 0.350545
0.349416 0.133486 0.344259
0.463951 0.16556 0.356283
0.556756 0.206943 0.378927
0.641718 0.25565 0.410452
0 0.13463 0.384024
0.0122683 0.167529 0.426719
0.040589 0.168566 0.42916
0.121904 0.173144 0.430228
0.261952 0.187304 0.425986
0.418601 0.210285 0.424491
0.538415 0.248463 0.44036
0.6318 0.296407 0.467277
0.710872 0.348684 0.497124
0 0.203571 0.429801
0.0147402 0.242084 0.469932
0.0798199 0.259449 0.491081
0.167956 0.274647 0.503838
0.315145 0.293935 0.507561
0.47808 0.316213 0.507012
0.59939 0.349203 0.516991
0.691554 0.390646 0.536675
0.766934 0.43444 0.558831
0.0241703 0.291096 0.475486
0.0693828 0.345235 0.527764
0.144701 0.378805 0.558282
0.245167 0.406302 0.580926
0.385122 0.427176 0.5906
0.534173 0.443687 0.589532
0.651118 0.463218 0.589014
0.741848 0.490013 0.595026
0.815549 0.520073 0.605859
0.10013 0.414389 0.546868
0.148913 0.47895 0.602579
0.227497 0.520073 0.634821
0.329091 0.542779 0.650385
0.450584 0.558129 0.657252
0.58053 0.567803 0.654261
0.691463 0.576837 0.64715
0.782498 0.588495 0.640772
0.865476 0.599634 0.640894
0.172152 0.558434 0.636378
0.215564 0.614618 0.682673
0.277516 0.651423 0.709529
0.37554 0.659632 0.707668
0.485252 0.670832 0.707942
0.60885 0.679835 0.703792
0.720333 0.68014 0.689632
0.819791 0.673518 0.668635
0.917998 0.67306 0.659358
0.158541 0.680842 0.688136
0.195148 0.723507 0.723751
0.241871 0.760403 0.750179
0.364584 0.75787 0.727779
0.488029 0.765316 0.715145
0.615228 0.77258 0.707088
0.735531 0.776944 0.703304
0.844663 0.773037 0.680659
0.956176 0.770169 0.661585
0.122896 0.801389 0.694697
0.176379 0.833738 0.726711
0.236652 0.864897 0.750912
0.36434 0.86511 0.728603
0.4934 0.869993 0.70901
0.616999 0.877348 0.696864
0.739773 0.883299 0.69659
0.857908 0.887297 0.690547
0.970092 0.888334 0.672114
0.0972915 0.928588 0.686305
0.198444 0.942199 0.714961
0.31249 0.951171 0.737667
0.420371 0.961425 0.731991
0.527581 0.972076 0.711116
0.638972 0.98117 0.70132
0.757717 0.988006 0.704646
0.874327 0.993347 0.709102
0.983948 0.996124 0.720027
0 0.0835279 0.328374
0.0122683 0.132799 0.446097
0.024506 0.132815 0.440558
0.0538338 0.133547 0.432609
0.145571 0.143069 0.428092
0.296468 0.167849 0.425498
0.431785 0.203403 0.434043
0.536492 0.25388 0.462791
0.630793 0.305364 0.503105
0 0.158068 0.441215
0.0122683 0.195026 0.490379
0.0267338 0.202045 0.496086
0.085832 0.205188 0.502739
0.192401 0.217762 0.505089
0.364065 0.24889 0.509544
0.507134 0.292866 0.524498
0.610071 0.348592 0.554681
0.692012 0.404654 0.586938
0.000701915 0.232471 0.495567
0.0125429 0.272725 0.534539
0.0689555 0.29546 0.562829
0.142321 0.307393 0.578668
0.25301 0.323934 0.588434
0.42443 0.354818 0.594751
0.567468 0.395377 0.606287
0.66772 0.442069 0.627405
0.744656 0.487449 0.649836
0.0234379 0.322072 0.544335
0.0749371 0.376547 0.594903
0.145281 0.416037 0.6336
0.235584 0.439109 0.657496
0.347829 0.457298 0.672908
0.491417 0.477958 0.677852
0.620172 0.505669 0.681361
0.716274 0.537865 0.689906
0.790158 0.569299 0.700496
0.112123 0.442649 0.611353
0.166674 0.506661 0.666636
0.241413 0.553704 0.708125
0.343618 0.570367 0.723232
0.443381 0.584131 0.736843
0.555688 0.597528 0.743465
0.665705 0.614588 0.74432
0.758846 0.633051 0.74435
0.841031 0.643793 0.744411
0.210224 0.580499 0.691707
0.26421 0.635401 0.739101
0.316915 0.678553 0.778042
0.413687 0.680903 0.77731
0.499443 0.689937 0.784451
0.597894 0.701076 0.790982
0.702968 0.710903 0.791623
0.800412 0.717067 0.786404
0.889464 0.718044 0.77731
0.257786 0.699855 0.764157
0.3037 0.740047 0.800504
0.347341 0.773983 0.829099
0.438285 0.774838 0.822721
0.525597 0.779934 0.821469
0.62298 0.788907 0.823636
0.730343 0.797757 0.823453
0.835111 0.799832 0.814389
0.935821 0.794766 0.796109
0.189914 0.807889 0.796292
0.248371 0.837888 0.825528
0.309224 0.866392 0.849088
0.411185 0.870451 0.841154
0.51931 0.873289 0.8309
0.6271 0.880705 0.825925
0.740017 0.887999 0.822354
0.856291 0.893034 0.819272
0.966827 0.893156 0.803006
0.1402 0.931182 0.801846
0.242145 0.943236 0.820798
0.352163 0.951324 0.834348
0.452323 0.960723 0.836606
0.548211 0.97113 0.825162
0.651911 0.980346 0.81973
0.763577 0.988067 0.818387
0.879698 0.993713 0.822171
0.987793 0.997314 0.826291
0 0.101198 0.370123
0.0122683 0.151278 0.485496
0.024506 0.166873 0.509346
0.0368048 0.1626 0.498527
0.0968338 0.171237 0.495201
0.224262 0.198886 0.498741
0.392874 0.243168 0.512413
0.519768 0.297673 0.544549
0.61944 0.355169 0.586664
0 0.180835 0.492149
0.0122683 0.221881 0.548943
0.024506 0.240497 0.563714
0.0600748 0.240589 0.563165
0.135393 0.248005 0.566705
0.285115 0.283192 0.579126
0.463615 0.338491 0.597742
0.58529 0.400595 0.627253
0.67657 0.454978 0.663661
0.00140383 0.260487 0.5552
0.0122683 0.303914 0.596704
0.0602274 0.339193 0.629023
0.126574 0.344442 0.640558
0.202014 0.355032 0.651576
0.350057 0.38735 0.664393
0.522698 0.436484 0.677699
0.640833 0.489311 0.697444
0.722225 0.537743 0.721431
0.0313115 0.356252 0.611536
0.0865644 0.413138 0.659266
0.147112 0.465263 0.707271
0.231403 0.476829 0.722164
0.316365 0.48986 0.738003
0.438651 0.509026 0.747372
0.578698 0.540307 0.751919
0.687648 0.577813 0.759487
0.766629 0.612787 0.773068
0.12755 0.477684 0.678737
0.186053 0.54023 0.728267
0.249378 0.593957 0.777615
0.353658 0.601709 0.78616
0.437522 0.611658 0.799588
0.530236 0.624292 0.810208
0.634363 0.642725 0.81445
0.732937 0.663233 0.816434
0.818998 0.678614 0.823575
0.230945 0.605768 0.748379
0.289937 0.656611 0.791012
0.340749 0.697658 0.829953
0.434073 0.702144 0.834287
0.510002 0.708553 0.842283
0.591608 0.718471 0.853513
0.685115 0.729885 0.862211
0.780911 0.739651 0.864775
0.870512 0.745815 0.865904
0.302464 0.715419 0.81384
0.351675 0.752132 0.847593
0.39498 0.783658 0.877684
0.472404 0.787625 0.880278
0.547356 0.789944 0.881987
0.627924 0.797635 0.888457
0.721798 0.808103 0.895628
0.822202 0.816098 0.897978
0.91989 0.819333 0.896147
0.284794 0.816922 0.868223
0.343679 0.84329 0.893156
0.403189 0.867796 0.915068
0.482109 0.876188 0.917998
0.568139 0.875731 0.912322
0.652613 0.881865 0.913115
0.748257 0.891264 0.915679
0.854704 0.900572 0.916716
0.961669 0.905211 0.912871
0.202945 0.931914 0.896208
0.300801 0.942748 0.906859
0.400351 0.950896 0.913481
0.493523 0.959106 0.917815
0.578729 0.968231 0.915923
0.671717 0.977142 0.915557
0.775326 0.986236 0.915984
0.885649 0.994232 0.916075
0.992706 0.998779 0.917144
0 0.117769 0.408972
0.0122683 0.168933 0.518975
0.024506 0.209201 0.578058
0.0368048 0.193545 0.560067
0.0682383 0.19968 0.560693
0.161212 0.221653 0.5664
0.335836 0.273014 0.588586
0.496941 0.334813 0.618433
0.609064 0.397681 0.658412
0.000701915 0.202838 0.539025
0.0122683 0.247181 0.599847
0.024506 0.279347 0.618891
0.0495613 0.275929 0.623743
0.104082 0.281727 0.627161
0.206683 0.309499 0.6383
0.402274 0.370413 0.664546
0.562646 0.434348 0.693751
0.66717 0.490074 0.728267
0.00210575 0.288655 0.610681
0.0122683 0.331106 0.646113
0.0667887 0.377066 0.675898
0.123278 0.384573 0.689784
0.172503 0.39202 0.702541
0.27364 0.415732 0.718257
0.457877 0.467552 0.736934
0.610315 0.523735 0.753811
0.70959 0.568292 0.779355
0.0471962 0.391989 0.675532
0.106523 0.444602 0.711299
0.164233 0.497765 0.743557
0.237781 0.515435 0.767086
0.301839 0.525475 0.784573
0.391745 0.540581 0.798276
0.526116 0.568994 0.805905
0.653071 0.606775 0.810697
0.749447 0.637507 0.826658
0.146685 0.515862 0.745754
0.210163 0.567041 0.776486
0.280262 0.613825 0.803952
0.367391 0.629786 0.824979
0.438193 0.638758 0.840391
0.51281 0.650935 0.854063
0.60293 0.667994 0.862089
0.704524 0.684779 0.867765
0.798672 0.698817 0.878386
0.249958 0.631922 0.805234
0.316548 0.671168 0.829068
0.380056 0.705196 0.849546
0.455253 0.717983 0.8645
0.52163 0.724788 0.87805
0.591699 0.734462 0.894163
0.673365 0.745693 0.909056
0.763577 0.755215 0.918639
0.854612 0.761379 0.926421
0.316655 0.728298 0.862638
0.37792 0.755611 0.881376
0.43505 0.779019 0.898222
0.499535 0.790188 0.910033
0.566674 0.79498 0.920409
0.638911 0.803983 0.933043
0.723171 0.815549 0.946532
0.815366 0.825925 0.957244
0.910582 0.831571 0.96527
0.318975 0.822019 0.920439
0.390463 0.839323 0.933104
0.458152 0.854337 0.943847
0.5252 0.865629 0.952209
0.597711 0.870878 0.957916
0.673548 0.880034 0.965942
0.761379 0.891997 0.975158
0.858915 0.903777 0.983703
0.959594 0.912016 0.989868
0.273014 0.929412 0.966308
0.362356 0.938628 0.971771
0.44564 0.947478 0.976379
0.525597 0.956237 0.980621
0.606806 0.963653 0.984314
0.693904 0.972717 0.988769
0.791043 0.983978 0.993774
0.895811 0.994232 0.997681
1 0.999939 1
