LUT/LumixLab/Deep Blue.cube
TITLE "Generated by Resolve"
#LUMIXPHOTOSTYLE NAT
LUT_3D_SIZE 33
0.000701915 0 0.000701915
0.0128481 0.00106813 0.000701915
0.0260319 0.00177005 0.000701915
0.0409552 0.00231937 0.000701915
0.0582742 0.00283818 0.000701915
0.0773175 0.00390631 0.000183108
0.0962081 0.00604257 0.000366217
0.115007 0.00924697 0.000885023
0.133684 0.0135195 0.00140383
0.153552 0.0183108 0.00143435
0.17406 0.022034 0.00143435
0.194812 0.0254215 0.00143435
0.21529 0.0291447 0.00143435
0.234913 0.0334173 0.00143435
0.254719 0.0379339 0.00143435
0.274891 0.0419623 0.00143435
0.295552 0.04477 0.00143435
0.315572 0.0483711 0.00143435
0.336202 0.0517891 0.00143435
0.356954 0.0551766 0.00143435
0.377493 0.0587167 0.00143435
0.398733 0.0605783 0.000885023
0.420249 0.0624094 0.000701915
0.441764 0.0645457 0.000701915
0.462974 0.0673533 0.000701915
0.484398 0.0700389 0.000701915
0.505974 0.0728466 0.000701915
0.527916 0.0747692 0.000701915
0.550439 0.0747692 0.000701915
0.571496 0.0804456 0.000701915
0.59234 0.0874342 0.000701915
0.613123 0.0953384 0.00125124
0.633906 0.103731 0.0028687
0.00390631 0.0110781 0.0065919
0.016556 0.0121462 0.0065919
0.0311742 0.01355 0.00585946
0.0471046 0.0146181 0.00463874
0.0650492 0.0155032 0.00283818
0.0859236 0.0165713 0.00180056
0.105974 0.0190433 0.00158694
0.125933 0.0226139 0.00180056
0.145739 0.0272374 0.00195315
0.167987 0.0315099 0.00195315
0.189776 0.0348821 0.00195315
0.211719 0.0381323 0.00195315
0.233356 0.0420386 0.00195315
0.256062 0.0457465 0.00195315
0.277638 0.0494698 0.00158694
0.299306 0.053254 0.00143435
0.321187 0.0563668 0.00143435
0.342885 0.0597848 0.00143435
0.364355 0.0628977 0.00143435
0.386267 0.0656748 0.00143435
0.408148 0.0682383 0.00143435
0.430549 0.0702525 0.000885023
0.452247 0.0728161 0.000701915
0.474372 0.0748913 0.000701915
0.49662 0.0768749 0.000701915
0.519142 0.0793164 0.000701915
0.54139 0.0817884 0.000701915
0.56318 0.0858167 0.000701915
0.584756 0.0903792 0.000701915
0.605844 0.0985885 0.00125124
0.626932 0.106035 0.00302129
0.647898 0.114366 0.00515755
0.668833 0.123125 0.00817884
0.0071107 0.0231937 0.0131533
0.0197604 0.0249943 0.0135195
0.0355077 0.0263981 0.0120851
0.0529946 0.0281682 0.0103151
0.0720684 0.0296025 0.0074464
0.093492 0.0317235 0.00463874
0.115831 0.0337987 0.00354009
0.137194 0.0369421 0.00320439
0.158465 0.0411231 0.00283818
0.181933 0.0449989 0.00247196
0.205707 0.0487221 0.00213626
0.229053 0.0517128 0.00213626
0.252003 0.0555886 0.00213626
0.275868 0.0590982 0.00213626
0.299275 0.0624552 0.00180056
0.322377 0.0657969 0.00143435
0.345449 0.068986 0.00143435
0.368582 0.072282 0.00143435
0.391836 0.0748913 0.00143435
0.414496 0.0775158 0.00125124
0.437446 0.0795911 0.00106813
0.459968 0.0827649 0.000885023
0.483162 0.084535 0.000701915
0.505562 0.0870375 0.000701915
0.528603 0.0886244 0.000701915
0.551186 0.0917372 0.000701915
0.573159 0.0972763 0.000701915
0.595499 0.101518 0.000885023
0.6168 0.108812 0.00106813
0.638193 0.117113 0.0033875
0.659434 0.125902 0.00637827
0.680644 0.134569 0.0099794
0.701762 0.143664 0.0142214
0.0103151 0.0367132 0.0198978
0.0226291 0.0391241 0.0209659
0.0388952 0.0409552 0.019379
0.0576638 0.0428931 0.0166934
0.0783856 0.0450294 0.0135195
0.100725 0.0480812 0.00939956
0.12398 0.0507362 0.0065919
0.147753 0.0536049 0.00534066
0.170733 0.0565347 0.00427253
0.195178 0.0600748 0.00354009
0.219898 0.0636759 0.00283818
0.244923 0.0669413 0.00231937
0.269368 0.070573 0.00231937
0.294362 0.0740826 0.00210575
0.319112 0.0774701 0.00195315
0.343557 0.0805524 0.00140383
0.367727 0.0836347 0.00140383
0.392081 0.0866865 0.00140383
0.416373 0.0893416 0.00140383
0.44062 0.0916609 0.00140383
0.464271 0.0937819 0.000885023
0.487312 0.0973373 0.000701915
0.510872 0.0998093 0.000701915
0.534585 0.101793 0.000701915
0.557992 0.103441 0.000701915
0.580636 0.107805 0.000701915
0.602701 0.113756 0.000701915
0.624308 0.121324 0.00158694
0.646006 0.129381 0.00210575
0.667735 0.137804 0.00567636
0.68925 0.146624 0.0099794
0.710674 0.155871 0.0151064
0.732067 0.165179 0.0204471
0.0135195 0.0519417 0.0263066
0.0251164 0.0548257 0.0284733
0.0415808 0.057023 0.027039
0.0614176 0.0591592 0.0236515
0.0831464 0.0617838 0.0198978
0.106737 0.0655375 0.0151064
0.131304 0.0686198 0.011017
0.156329 0.0715496 0.00799573
0.181415 0.074876 0.00637827
0.206592 0.0780499 0.00534066
0.232044 0.08159 0.00427253
0.25771 0.0849775 0.0033875
0.28365 0.0878157 0.00283818
0.309804 0.0915694 0.00231937
0.335775 0.0951705 0.00210575
0.361685 0.0984665 0.00195315
0.387564 0.101274 0.00140383
0.412772 0.103929 0.00140383
0.437827 0.106523 0.00140383
0.462791 0.109117 0.00140383
0.487572 0.111772 0.00137331
0.511528 0.115038 0.000885023
0.535821 0.11751 0.000701915
0.560143 0.119738 0.000701915
0.584131 0.122362 0.000701915
0.606668 0.128496 0.000701915
0.628763 0.135363 0.000701915
0.650462 0.143053 0.00158694
0.671901 0.151507 0.00427253
0.693904 0.160021 0.00854505
0.715785 0.168841 0.0135195
0.737484 0.177996 0.019379
0.75906 0.187518 0.0263066
0.017792 0.0692607 0.0343023
0.0282902 0.0740215 0.0373236
0.0455177 0.0758831 0.0356756
0.0656901 0.0775311 0.0318303
0.0872663 0.0795453 0.0273747
0.111742 0.084062 0.0225834
0.13753 0.0883345 0.0170596
0.164141 0.0921492 0.0124514
0.19118 0.0961166 0.00906386
0.218433 0.0996262 0.00640879
0.244526 0.102953 0.00534066
0.270893 0.106401 0.00442512
0.297597 0.109483 0.00387579
0.3243 0.112993 0.00332647
0.350454 0.116747 0.00314336
0.376699 0.120073 0.00296025
0.403067 0.12282 0.00241093
0.429801 0.125597 0.00137331
0.455741 0.128374 0.00137331
0.481498 0.130877 0.00137331
0.507012 0.133227 0.00137331
0.53228 0.136431 0.000854505
0.556909 0.139422 0.000701915
0.581445 0.142443 0.000701915
0.605524 0.146105 0.000701915
0.628687 0.1523 0.000701915
0.651087 0.159258 0.00103761
0.673182 0.166827 0.00228885
0.695003 0.175006 0.00527962
0.71664 0.183581 0.0101015
0.738582 0.192401 0.016144
0.760433 0.201373 0.0227665
0.782254 0.210559 0.0300603
0.0231327 0.088304 0.041474
0.0318608 0.094377 0.045655
0.0485084 0.0971847 0.0447089
0.0692607 0.0986191 0.0408331
0.0910506 0.100267 0.0360723
0.115679 0.103929 0.0314641
0.142748 0.109209 0.0256046
0.170611 0.114122 0.0195315
0.199268 0.118853 0.0145876
0.228107 0.123583 0.0104982
0.256306 0.128008 0.0081178
0.283406 0.131548 0.00686656
0.310811 0.134997 0.00595102
0.337881 0.13814 0.00469978
0.364797 0.141192 0.00381476
0.391226 0.144671 0.00378424
0.417929 0.147417 0.00344854
0.444358 0.150256 0.00274662
0.471 0.15288 0.00204471
0.497429 0.155566 0.0018616
0.523583 0.157763 0.00170901
0.549401 0.160998 0.0011902
0.574792 0.164416 0.0010071
0.599908 0.167681 0.000854505
0.624414 0.171801 0.000701915
0.64831 0.177569 0.000701915
0.671351 0.184131 0.00103761
0.69366 0.191669 0.00244144
0.715755 0.199634 0.0055848
0.737728 0.207843 0.0110781
0.759335 0.216205 0.017731
0.781186 0.225086 0.0248417
0.803098 0.233936 0.0323796
0.0284733 0.109392 0.0478523
0.0359503 0.116716 0.0528572
0.0510109 0.120623 0.053193
0.0725872 0.122271 0.0496529
0.0948348 0.123796 0.0450752
0.119738 0.126818 0.04065
0.146868 0.131243 0.0353094
0.176104 0.137285 0.0289616
0.205982 0.143023 0.0225834
0.236286 0.148852 0.0168154
0.26598 0.154284 0.0128481
0.295003 0.159258 0.0101625
0.32311 0.163104 0.00854505
0.350637 0.166491 0.0069276
0.37789 0.169329 0.00582895
0.405051 0.171954 0.00463874
0.431937 0.174792 0.00460822
0.458274 0.177661 0.0040589
0.484672 0.180255 0.00354009
0.511131 0.182879 0.0030518
0.537835 0.185199 0.002533
0.563928 0.188342 0.00204471
0.589654 0.191791 0.0018616
0.615259 0.195392 0.0018616
0.640589 0.19939 0.00134279
0.665187 0.204578 0.00137331
0.689082 0.21062 0.00103761
0.712337 0.217334 0.00225834
0.734554 0.225116 0.00540169
0.756832 0.232898 0.0113832
0.778683 0.240864 0.0181277
0.800198 0.249012 0.0258793
0.82208 0.257618 0.0334173
0.0327153 0.132799 0.0534676
0.0394903 0.141344 0.0588998
0.0535439 0.146319 0.0602121
0.0737774 0.148821 0.0581369
0.0991073 0.150011 0.0534676
0.124315 0.152697 0.0492256
0.151568 0.15639 0.0444038
0.180713 0.161547 0.0389105
0.211627 0.168444 0.0326848
0.243183 0.17528 0.0250858
0.274189 0.181659 0.0192874
0.304616 0.187457 0.0148013
0.334401 0.192615 0.0110781
0.362509 0.196796 0.00943008
0.390158 0.2 0.00854505
0.417533 0.202533 0.00766003
0.444907 0.204822 0.00607309
0.471275 0.20763 0.00555428
0.497642 0.210101 0.00503548
0.52401 0.212512 0.00451667
0.550347 0.215198 0.00402838
0.57641 0.218219 0.00350958
0.602258 0.221576 0.00335698
0.627955 0.225147 0.00335698
0.653681 0.22887 0.0033875
0.679042 0.233326 0.0033875
0.703731 0.238636 0.00238041
0.727962 0.244648 0.00222782
0.751858 0.25124 0.00485237
0.774319 0.258503 0.0111391
0.796384 0.26598 0.0178531
0.818112 0.273701 0.0252079
0.839506 0.281605 0.0333562
0.0369268 0.159442 0.0577707
0.0424811 0.169665 0.0638743
0.0550546 0.176043 0.0665904
0.0753338 0.179095 0.0652781
0.102342 0.180011 0.0607309
0.129595 0.182635 0.0562448
0.157214 0.185748 0.0518502
0.186603 0.190112 0.0466926
0.217578 0.196033 0.040589
0.249744 0.203845 0.0338445
0.281514 0.210834 0.0266423
0.312673 0.217151 0.0209049
0.34313 0.222797 0.016144
0.372641 0.228046 0.0124514
0.40087 0.232288 0.0108339
0.428611 0.235554 0.00961318
0.456016 0.238148 0.00802625
0.482994 0.240192 0.00750744
0.5093 0.242603 0.00665293
0.535637 0.244709 0.00598154
0.562005 0.246906 0.00546273
0.587762 0.249928 0.00497444
0.613642 0.252949 0.00482185
0.639429 0.256184 0.00463874
0.665187 0.259602 0.00436408
0.690578 0.263539 0.00540169
0.715633 0.268177 0.005066
0.740108 0.273487 0.00491341
0.764218 0.279347 0.00686656
0.78793 0.285298 0.0110781
0.811002 0.291981 0.0170596
0.833494 0.298878 0.023682
0.855467 0.30602 0.0310674
0.0415656 0.187976 0.0616464
0.0472419 0.198627 0.0677501
0.0567941 0.207568 0.0720836
0.0768597 0.211414 0.0717174
0.10515 0.212268 0.0674754
0.133898 0.214771 0.0632944
0.163256 0.218036 0.0583505
0.192859 0.221698 0.0535592
0.223987 0.226795 0.0476997
0.256031 0.233173 0.0415045
0.288197 0.240772 0.0349432
0.319844 0.247669 0.0281682
0.35082 0.253834 0.0224918
0.380697 0.259388 0.0177615
0.409812 0.264424 0.0144656
0.437888 0.268757 0.0128481
0.465354 0.272084 0.0112917
0.492576 0.274739 0.010071
0.519493 0.276661 0.00891127
0.5458 0.278676 0.00805676
0.572137 0.280568 0.00756847
0.598138 0.282887 0.00674449
0.624048 0.285359 0.0065919
0.649866 0.288197 0.0065919
0.675746 0.291249 0.00631724
0.701198 0.294697 0.00701915
0.726497 0.298451 0.00738537
0.751278 0.303029 0.0074464
0.775631 0.308125 0.00885023
0.799466 0.313436 0.0123598
0.823026 0.318898 0.0173037
0.84625 0.324971 0.0231937
0.868803 0.331319 0.0298772
0.04654 0.218097 0.0651255
0.0526131 0.229084 0.0711376
0.0604257 0.239399 0.0762646
0.0781415 0.24535 0.0774243
0.107378 0.246387 0.07364
0.137987 0.248585 0.0695201
0.168505 0.251942 0.0650034
0.199451 0.255848 0.0599069
0.23064 0.260182 0.0543832
0.262654 0.26537 0.0485542
0.294697 0.271534 0.0425422
0.326528 0.278706 0.0361639
0.357839 0.285451 0.0297856
0.3879 0.291249 0.0242008
0.417166 0.296529 0.0196841
0.445792 0.30135 0.0167239
0.473411 0.305715 0.0151675
0.500694 0.309133 0.0134585
0.527794 0.311849 0.0119326
0.55465 0.31371 0.0107729
0.580957 0.31545 0.0102541
0.607233 0.31722 0.009308
0.633295 0.319173 0.00885023
0.659358 0.321248 0.00869764
0.685267 0.323781 0.00872816
0.710903 0.32665 0.00927749
0.736294 0.329854 0.00967422
0.76144 0.333394 0.00991836
0.786038 0.337697 0.0109865
0.810086 0.342245 0.0138247
0.833799 0.347036 0.0179141
0.857237 0.35198 0.0228885
0.880339 0.357504 0.0288701
0.0517891 0.249531 0.0682689
0.0585031 0.260853 0.0740673
0.0648203 0.272389 0.0799268
0.0788739 0.280598 0.0827039
0.108873 0.281941 0.0792554
0.141772 0.283619 0.0749218
0.173846 0.286885 0.0706188
0.205554 0.291066 0.0660716
0.237507 0.295583 0.0610361
0.269581 0.300008 0.0553292
0.301595 0.305074 0.0495918
0.333333 0.310842 0.0437629
0.364553 0.317311 0.0376287
0.394583 0.323293 0.0314031
0.42388 0.328756 0.0259098
0.452476 0.3337 0.0215763
0.480461 0.338247 0.0189822
0.507683 0.34258 0.016968
0.534844 0.346212 0.0152895
0.561822 0.34902 0.0140993
0.588647 0.350942 0.013611
0.615167 0.352255 0.0126345
0.641474 0.353811 0.0119936
0.667628 0.35552 0.0115663
0.693751 0.357321 0.0111086
0.7196 0.359426 0.0116884
0.745144 0.36199 0.0122377
0.770443 0.36492 0.0128481
0.795438 0.368124 0.0134585
0.81976 0.372 0.0155947
0.843748 0.375998 0.0188602
0.86743 0.380209 0.0228275
0.890929 0.384573 0.0271916
0.0581064 0.282521 0.0702525
0.0644541 0.294179 0.0762036
0.0707713 0.30605 0.0824903
0.0827802 0.315694 0.0865797
0.108629 0.319631 0.0852064
0.146136 0.320211 0.0801404
0.179461 0.323415 0.0758679
0.212024 0.327565 0.0714427
0.244343 0.331991 0.0665904
0.276631 0.336477 0.0616464
0.308583 0.340719 0.0560616
0.340169 0.345418 0.0505074
0.371206 0.350545 0.0448005
0.4009 0.3561 0.038941
0.429953 0.361471 0.0335699
0.458335 0.366415 0.028687
0.486168 0.371023 0.0247501
0.513573 0.375082 0.0217288
0.540551 0.379141 0.0196841
0.567498 0.382712 0.0181888
0.594324 0.385733 0.0173648
0.621241 0.387747 0.0164187
0.648005 0.388937 0.0155032
0.674495 0.39028 0.0150454
0.700771 0.391684 0.0149844
0.726925 0.39321 0.0145571
0.752743 0.395102 0.0148318
0.778225 0.397391 0.0155947
0.803464 0.399985 0.016907
0.828336 0.402579 0.0175784
0.852628 0.405905 0.0197757
0.876616 0.409384 0.0230716
0.900359 0.413016 0.0271
0.0651255 0.316304 0.0724193
0.0718395 0.328084 0.0780346
0.0788281 0.339986 0.0839246
0.0869764 0.351553 0.0898146
0.106859 0.358511 0.0910964
0.14876 0.357687 0.0852369
0.18468 0.360281 0.0806592
0.218189 0.36437 0.0762951
0.251026 0.368704 0.0716564
0.283406 0.37319 0.0671092
0.315297 0.377371 0.0620127
0.346822 0.381277 0.056672
0.377737 0.385428 0.0513619
0.407279 0.38967 0.0458991
0.435904 0.394339 0.0410773
0.464012 0.399191 0.0363775
0.491569 0.403769 0.0319524
0.518608 0.407828 0.0283818
0.545495 0.411582 0.025391
0.57229 0.415396 0.0235599
0.599054 0.418997 0.0224002
0.625879 0.421866 0.021149
0.652918 0.424033 0.0202335
0.679866 0.425284 0.0193484
0.706447 0.426596 0.0191043
0.73312 0.427604 0.0190738
0.759365 0.428885 0.0187076
0.785183 0.430472 0.0190127
0.810697 0.432425 0.0203555
0.835874 0.434501 0.0210574
0.860716 0.436637 0.0220951
0.885069 0.439475 0.0243839
0.909087 0.442435 0.0277104
0.0728161 0.350698 0.0744335
0.0799573 0.3626 0.0799573
0.0874037 0.374533 0.0856641
0.0949416 0.386526 0.0915236
0.107073 0.396994 0.0959487
0.149767 0.39617 0.0903029
0.189227 0.397574 0.0851453
0.223987 0.401328 0.0808728
0.257465 0.40557 0.0763561
0.289998 0.409934 0.0720531
0.321859 0.414115 0.0673838
0.353109 0.417868 0.0624094
0.383963 0.421317 0.0574044
0.413413 0.424674 0.0522774
0.442039 0.428153 0.0476387
0.469688 0.43209 0.0433967
0.496849 0.436576 0.0393072
0.523522 0.440513 0.0357366
0.550042 0.444236 0.0324102
0.576501 0.447776 0.0296941
0.603143 0.451408 0.0281987
0.629847 0.454643 0.0266728
0.656764 0.457511 0.0254215
0.683833 0.459892 0.024567
0.710903 0.461295 0.0237125
0.738003 0.462394 0.0237125
0.764736 0.463279 0.0235599
0.791135 0.464256 0.0234379
0.817014 0.465537 0.0241093
0.842618 0.467002 0.0246891
0.867918 0.468681 0.0256352
0.893095 0.47042 0.0265202
0.917479 0.472801 0.0288701
0.0812085 0.385611 0.0759899
0.0888075 0.397604 0.0816358
0.0967117 0.409476 0.0873426
0.104784 0.421408 0.0931106
0.112795 0.433402 0.0989395
0.152758 0.433951 0.0944533
0.192126 0.435599 0.0896315
0.229541 0.438407 0.0849317
0.2636 0.442496 0.0808728
0.296254 0.446555 0.0766918
0.328115 0.450584 0.0722667
0.359274 0.454368 0.0676585
0.3897 0.457694 0.0630198
0.41912 0.460502 0.0581674
0.447745 0.463157 0.0537118
0.475517 0.466026 0.0495003
0.502312 0.469383 0.0454108
0.528527 0.473106 0.0424201
0.554681 0.476768 0.0393988
0.580774 0.480278 0.0365911
0.606897 0.483665 0.0343328
0.633387 0.48687 0.0324712
0.660121 0.489952 0.0309758
0.687037 0.49279 0.0298161
0.714229 0.495201 0.0289921
0.741665 0.496818 0.028687
0.768826 0.497887 0.0284123
0.795712 0.49865 0.0283207
0.822354 0.499382 0.0285649
0.848478 0.500206 0.0288396
0.874266 0.501396 0.0294499
0.900023 0.502739 0.0300908
0.925841 0.504021 0.030396
0.0912795 0.421073 0.0772412
0.0992752 0.433005 0.0833143
0.107378 0.444907 0.0891432
0.115496 0.456687 0.0949111
0.123445 0.468467 0.100649
0.149828 0.47396 0.100618
0.194324 0.473533 0.0942702
0.234607 0.475059 0.0889601
0.269368 0.47866 0.0851759
0.302022 0.482444 0.0813916
0.333516 0.48632 0.0773022
0.364431 0.490013 0.0729686
0.394797 0.493309 0.068452
0.423819 0.496147 0.064271
0.452598 0.498466 0.0596017
0.480552 0.500725 0.0554208
0.507591 0.503197 0.0515755
0.533684 0.505791 0.0477913
0.55935 0.509117 0.0451972
0.584985 0.512383 0.0427253
0.610681 0.515618 0.04065
0.63653 0.518791 0.0386664
0.662989 0.521843 0.0370184
0.689723 0.524773 0.0356756
0.716762 0.527459 0.034638
0.744045 0.530022 0.0339666
0.771603 0.531731 0.0334173
0.798978 0.53286 0.033051
0.826169 0.533654 0.0330205
0.853605 0.534173 0.0333562
0.880247 0.534752 0.0333562
0.906584 0.535607 0.0335088
0.932799 0.536553 0.0335088
0.10193 0.456718 0.0788281
0.110063 0.468406 0.0849928
0.118196 0.480186 0.0908522
0.126452 0.491905 0.0968948
0.134386 0.503502 0.102785
0.15404 0.51104 0.105043
0.194934 0.511315 0.0996719
0.238483 0.511437 0.0932326
0.274281 0.514336 0.0891737
0.306996 0.517723 0.0855116
0.33846 0.521324 0.0816358
0.369009 0.524895 0.0776074
0.399191 0.528161 0.0733654
0.428122 0.530938 0.0693065
0.456535 0.533349 0.0652171
0.484611 0.535302 0.0608835
0.511894 0.537194 0.0571603
0.538415 0.539147 0.0533761
0.564263 0.541375 0.049958
0.589471 0.544366 0.0476387
0.61474 0.547326 0.045594
0.640162 0.550378 0.043946
0.665949 0.553368 0.0421149
0.692378 0.556329 0.0407416
0.719112 0.559106 0.0396735
0.746273 0.561761 0.038819
0.773892 0.564324 0.0379339
0.801755 0.566094 0.0372015
0.829557 0.567315 0.0367132
0.857572 0.568078 0.0367742
0.885191 0.568475 0.0371405
0.912261 0.568841 0.0368658
0.938994 0.569482 0.0365606
0.112886 0.492271 0.0809033
0.12105 0.503838 0.0871595
0.129137 0.515312 0.0933242
0.137194 0.526787 0.0992752
0.145281 0.538293 0.105562
0.159747 0.547326 0.109621
0.194995 0.549096 0.105898
0.240986 0.547387 0.0982376
0.278187 0.549493 0.0934462
0.311147 0.552483 0.0896315
0.342672 0.555718 0.0858167
0.373068 0.559045 0.0820325
0.402884 0.56228 0.0780652
0.431693 0.564996 0.0742504
0.459983 0.567407 0.0703136
0.487907 0.569451 0.0661326
0.515282 0.57113 0.0623789
0.542107 0.572686 0.0586252
0.568475 0.574334 0.0551766
0.594141 0.576257 0.0521553
0.619043 0.578912 0.049958
0.64419 0.58175 0.0482185
0.66949 0.584649 0.0466316
0.695277 0.587579 0.044892
0.721614 0.590417 0.0439155
0.748592 0.593072 0.0428473
0.776059 0.595636 0.0417792
0.804013 0.598108 0.0408331
0.832425 0.600031 0.0398566
0.860868 0.601251 0.0393683
0.889067 0.602075 0.0394293
0.917021 0.60238 0.0396429
0.944427 0.602655 0.0390936
0.123934 0.527642 0.0835279
0.131991 0.539055 0.0897841
0.139849 0.550256 0.0962234
0.147692 0.561395 0.102724
0.155642 0.572442 0.109194
0.166522 0.582483 0.114504
0.197742 0.585229 0.11191
0.239216 0.584436 0.105287
0.280934 0.583947 0.0984512
0.314229 0.586572 0.0942092
0.346029 0.589471 0.0902724
0.376455 0.592493 0.0865797
0.405905 0.595605 0.0830091
0.434653 0.598321 0.079469
0.462791 0.600732 0.0757763
0.490501 0.602838 0.0717784
0.517998 0.604639 0.0674144
0.544945 0.606043 0.0638437
0.571649 0.607355 0.0604562
0.597864 0.608789 0.0573739
0.623438 0.610498 0.0546883
0.648493 0.61294 0.0523384
0.673518 0.615656 0.0504463
0.698787 0.618524 0.0488289
0.724636 0.621454 0.0472114
0.751431 0.624231 0.0459297
0.778683 0.626825 0.0446784
0.806485 0.629236 0.0435187
0.834745 0.631556 0.0426337
0.863462 0.633417 0.0412604
0.892119 0.634821 0.0407416
0.920623 0.635706 0.0406806
0.948974 0.635981 0.040589
0.134218 0.562219 0.087129
0.141924 0.573205 0.0936294
0.14963 0.584253 0.100313
0.157229 0.595148 0.107057
0.164874 0.605951 0.113741
0.17023 0.617395 0.121828
0.195819 0.621485 0.120668
0.236286 0.620447 0.113741
0.281605 0.618036 0.10486
0.315999 0.619623 0.0999161
0.347921 0.622126 0.0957656
0.37847 0.624933 0.0919203
0.40798 0.627832 0.0882887
0.436576 0.630457 0.0844129
0.464714 0.632959 0.0808118
0.492393 0.635096 0.0769665
0.519768 0.636927 0.072755
0.546838 0.638453 0.0691539
0.573663 0.639796 0.0657054
0.600305 0.641077 0.0621653
0.62652 0.642512 0.0585641
0.652491 0.644129 0.0557259
0.67776 0.64651 0.053193
0.703029 0.649134 0.0511482
0.728573 0.651972 0.0493172
0.754849 0.65478 0.0477302
0.781765 0.657496 0.046479
0.809262 0.659998 0.0453498
0.837247 0.662379 0.0444953
0.865751 0.664454 0.0431525
0.894621 0.666224 0.0420844
0.9234 0.667597 0.0417182
0.952117 0.668421 0.0416571
0.143496 0.596185 0.09131
0.150958 0.606928 0.098024
0.158114 0.617487 0.104982
0.165408 0.628138 0.112062
0.172671 0.638697 0.119081
0.178408 0.6495 0.12723
0.194049 0.65655 0.130526
0.232258 0.655726 0.123507
0.279927 0.651942 0.112795
0.31606 0.65243 0.106691
0.348775 0.654108 0.101747
0.379507 0.65658 0.0975967
0.409171 0.659297 0.0938125
0.437766 0.661891 0.0897231
0.465782 0.664332 0.0856336
0.493492 0.66659 0.0818189
0.520867 0.668544 0.0776684
0.547936 0.670222 0.07364
0.574975 0.671656 0.0697337
0.601801 0.672969 0.0661936
0.628504 0.67425 0.0621958
0.655177 0.675654 0.0590219
0.681605 0.677272 0.0557259
0.707179 0.679561 0.0531319
0.732784 0.682185 0.0509651
0.758907 0.684932 0.049134
0.785306 0.687709 0.0480659
0.812436 0.690272 0.0468147
0.840177 0.692683 0.0458381
0.868315 0.69485 0.0450752
0.896727 0.696651 0.0443427
0.925658 0.698299 0.0433661
0.954559 0.699519 0.0430304
0.1514 0.629511 0.0959182
0.158541 0.639948 0.102937
0.165377 0.650172 0.11017
0.17203 0.660395 0.117464
0.178805 0.670588 0.12488
0.184909 0.680934 0.132906
0.194873 0.689601 0.13901
0.226734 0.690517 0.13434
0.275532 0.685756 0.122011
0.313924 0.685084 0.114137
0.347951 0.68603 0.108125
0.379294 0.687831 0.102968
0.409171 0.690303 0.0988479
0.437858 0.692775 0.0945449
0.465995 0.695186 0.0903334
0.493736 0.697414 0.0861219
0.521141 0.699519 0.0819104
0.548333 0.70132 0.0776989
0.575494 0.702907 0.0734264
0.602625 0.704311 0.069398
0.629602 0.705653 0.0655528
0.656855 0.706905 0.0619821
0.683986 0.708278 0.0585641
0.710933 0.709895 0.0552682
0.736934 0.712123 0.0526436
0.76318 0.714687 0.0504768
0.789548 0.717372 0.049134
0.816129 0.720027 0.0483101
0.843565 0.722499 0.0470283
0.871305 0.724697 0.0466011
0.89929 0.726619 0.0461433
0.927672 0.728298 0.045655
0.956634 0.729732 0.0447089
0.157565 0.662135 0.100893
0.164218 0.672206 0.108217
0.170657 0.682124 0.115724
0.176913 0.691951 0.123293
0.183108 0.701778 0.130831
0.189517 0.711635 0.138521
0.19379 0.722042 0.14725
0.213947 0.726802 0.148074
0.268086 0.719814 0.132204
0.309255 0.717769 0.121981
0.345144 0.717861 0.114351
0.377371 0.719234 0.108248
0.407706 0.721157 0.102785
0.436576 0.723476 0.0982681
0.464927 0.725704 0.093904
0.492882 0.727932 0.0896315
0.520562 0.730007 0.0852979
0.547936 0.731899 0.081178
0.575311 0.733577 0.0768139
0.602686 0.735103 0.0725109
0.63006 0.736477 0.0684825
0.657801 0.737789 0.0645762
0.685512 0.73901 0.0610056
0.713161 0.740322 0.0577707
0.740597 0.741909 0.0548714
0.767391 0.744137 0.0522164
0.794034 0.746578 0.0505074
0.820676 0.749142 0.0494087
0.847471 0.751675 0.0485847
0.874693 0.753933 0.048127
0.902281 0.755947 0.0476387
0.930205 0.757748 0.0471809
0.958587 0.759396 0.0466926
0.156924 0.695308 0.103944
0.16379 0.704707 0.111238
0.170321 0.714199 0.118593
0.176761 0.723568 0.126192
0.183261 0.732906 0.133944
0.190188 0.742092 0.141909
0.195529 0.751736 0.150332
0.211017 0.7579 0.153658
0.254749 0.754452 0.143008
0.303273 0.749783 0.128206
0.3402 0.749172 0.119448
0.373373 0.750057 0.112703
0.40444 0.751614 0.106905
0.434165 0.753475 0.10193
0.462882 0.755642 0.0975052
0.491173 0.757778 0.0930495
0.519188 0.759793 0.0885023
0.547051 0.761654 0.0842298
0.574701 0.763424 0.0801404
0.602441 0.765042 0.0758679
0.630182 0.766476 0.0717174
0.658381 0.767819 0.0679332
0.686549 0.769009 0.0642405
