LUT/LumixLab/Film impression.cube
TITLE "Generated by Resolve"
LUT_3D_SIZE 9
#LUMIXPHOTOSTYLE LCLASN
0.00784314 0.00784314 0.0117647
0.10312 0.00784314 0
0.192401 0.00784314 0
0.265538 0.0117647 0.00392157
0.348165 0.0117647 0.00392157
0.467948 0.0209049 0
0.61471 0.0352941 0
0.761944 0.0591135 0
0.881758 0.078233 0.00764477
0.0156863 0.073228 0.0156863
0.059144 0.0654765 0.0106661
0.162356 0.0542611 0
0.257969 0.0614939 0.00233463
0.346685 0.0615244 0.00392157
0.468071 0.0694896 0
0.615076 0.0851453 0
0.758389 0.112474 0
0.889754 0.12488 0.00775158
0.0302434 0.161303 0.0459297
0.0737469 0.158114 0.0424964
0.128756 0.152651 0.0235294
0.241199 0.14287 0.00784314
0.345251 0.132387 0.00395209
0.469413 0.123186 0
0.619058 0.135256 0
0.766186 0.15996 0
0.89369 0.17821 0.00787366
0.0352941 0.25008 0.0830549
0.0850538 0.254139 0.0831464
0.146258 0.256779 0.0830549
0.228916 0.248524 0.0385748
0.34461 0.24625 0.0180362
0.469413 0.247623 0.00935378
0.627665 0.256031 0.00183108
0.778225 0.247166 0.00392157
0.899657 0.248234 0.00784314
0.0567178 0.350561 0.133059
0.106401 0.358358 0.140871
0.155154 0.362325 0.140902
0.245747 0.368139 0.132586
0.338888 0.36144 0.0831311
0.472679 0.358984 0.0571756
0.625742 0.368139 0.0420386
0.789883 0.375982 0.0231174
0.917098 0.376013 0.0233768
0.0705882 0.439338 0.179171
0.120256 0.447135 0.186755
0.163577 0.455024 0.190936
0.266621 0.487251 0.210575
0.351873 0.487739 0.18201
0.468956 0.479835 0.11986
0.635065 0.480507 0.0915541
0.792706 0.495521 0.0873884
0.917037 0.495689 0.0812695
0.0705882 0.521859 0.224369
0.112596 0.532219 0.229099
0.156374 0.548531 0.237003
0.251637 0.579843 0.258137
0.381292 0.613413 0.267781
0.480812 0.615976 0.220249
0.628489 0.612131 0.154482
0.789685 0.619364 0.135317
0.928862 0.635584 0.150683
0.0826886 0.660502 0.270924
0.124849 0.672297 0.278782
0.166476 0.680232 0.286931
0.258061 0.708461 0.313085
0.43711 0.756146 0.357733
0.527932 0.762387 0.323659
0.66688 0.774456 0.262898
0.809873 0.783032 0.204898
0.92932 0.786542 0.201099
0.128496 0.841856 0.324941
0.178332 0.849271 0.340017
0.258717 0.8607 0.365728
0.416571 0.887526 0.419577
0.569268 0.910796 0.456519
0.654246 0.926116 0.438621
0.75613 0.949279 0.411261
0.860121 0.960388 0.366979
0.93698 0.964294 0.301549
0.0267338 0.0110475 0.0880293
0.0971389 0.0123293 0.0770886
0.192935 0.00784314 0.0568856
0.267247 0.0117647 0.0502785
0.350378 0.0117647 0.050309
0.469108 0.0196078 0.0495766
0.62211 0.0360571 0.0495766
0.762005 0.0591287 0.0496071
0.889403 0.0784314 0.0541848
0.0122988 0.0653086 0.0698558
0.0651713 0.0616007 0.0654459
0.165698 0.0542763 0.0497292
0.258213 0.0615244 0.05037
0.348592 0.0615549 0.0503853
0.46949 0.0710765 0.0496986
0.619058 0.085893 0.0497597
0.759579 0.112505 0.0497597
0.889647 0.128038 0.0542763
0.0196078 0.153506 0.0843671
0.069398 0.154131 0.0872969
0.138628 0.151019 0.0685435
0.245106 0.141955 0.0580606
0.348928 0.132448 0.0539559
0.472053 0.123217 0.0497292
0.621973 0.135912 0.0497597
0.766354 0.159991 0.0497902
0.893507 0.178119 0.0542763
0.027451 0.238987 0.119341
0.0741894 0.245624 0.122759
0.148409 0.254307 0.128008
0.232898 0.247288 0.0845197
0.34548 0.244663 0.066804
0.472053 0.248798 0.0593576
0.627741 0.254597 0.0501259
0.778271 0.247013 0.0507057
0.901289 0.244541 0.0575418
0.0488899 0.33521 0.167773
0.0955978 0.34612 0.17557
0.147097 0.352255 0.179461
0.245792 0.371069 0.182406
0.340429 0.359472 0.130251
0.472221 0.357046 0.104753
0.629465 0.3682 0.0904707
0.789944 0.376043 0.0752575
0.917159 0.375982 0.0733349
0.0627451 0.423697 0.212497
0.108629 0.432029 0.217746
0.155413 0.443824 0.224262
0.256657 0.477195 0.245289
0.349172 0.486503 0.228092
0.471641 0.479896 0.168826
0.635142 0.482826 0.141497
0.789914 0.493919 0.134646
0.917082 0.498177 0.131258
0.0601511 0.509941 0.254536
0.10248 0.522133 0.25977
0.147311 0.533379 0.267613
0.241978 0.569024 0.289464
0.380972 0.613367 0.314137
0.480888 0.616053 0.267506
0.628901 0.612894 0.202121
0.793164 0.619303 0.188678
0.928893 0.638621 0.199527
0.0748302 0.653269 0.294713
0.113893 0.66067 0.30515
0.156054 0.668833 0.313558
0.24831 0.700694 0.342046
0.429389 0.748745 0.394049
0.526802 0.763928 0.369696
0.66424 0.774609 0.312413
0.810162 0.783185 0.251377
0.933104 0.786999 0.254292
0.120729 0.834119 0.347875
0.166232 0.841688 0.363043
0.2486 0.856748 0.392554
0.402518 0.881376 0.446403
0.56733 0.910903 0.50042
0.657862 0.92958 0.488243
0.758968 0.952239 0.461219
0.860319 0.964385 0.424491
0.933318 0.961135 0.351507
0.0497749 0.0196078 0.176761
0.116091 0.0196078 0.17293
0.182727 0.0156863 0.14931
0.27393 0.0105745 0.111788
0.370565 0.0135348 0.107469
0.502708 0.0243992 0.106096
0.649454 0.0399786 0.0995651
0.779004 0.0563058 0.0995956
0.89218 0.0717784 0.104692
0.0348058 0.0688792 0.15462
0.0884718 0.065507 0.151507
0.163455 0.0636759 0.134081
0.265095 0.0582132 0.108736
0.3682 0.06215 0.107713
0.497902 0.0742809 0.106996
0.649973 0.0903029 0.0997482
0.779431 0.108721 0.0997482
0.889693 0.122072 0.104753
0.00471504 0.142885 0.150729
0.0544594 0.142824 0.151354
0.147036 0.152102 0.15378
0.253483 0.143725 0.133867
0.36495 0.12607 0.116564
0.500206 0.124346 0.103853
0.648768 0.140276 0.0997482
0.779538 0.156802 0.0997482
0.897475 0.176013 0.104768
0.0184634 0.229328 0.173236
0.066392 0.235523 0.179294
0.14847 0.252979 0.188342
0.244007 0.253147 0.173846
0.358968 0.249348 0.144945
0.482841 0.246204 0.120745
0.637247 0.247456 0.103426
0.784176 0.238483 0.100984
0.901488 0.235554 0.10634
0.0444038 0.325444 0.21178
0.0903487 0.334356 0.21709
0.139391 0.341817 0.22295
0.253834 0.370489 0.238453
0.348226 0.363882 0.198474
0.481193 0.360296 0.156924
0.635172 0.3682 0.138598
0.793896 0.372 0.120073
0.921126 0.375982 0.120287
0.054902 0.411749 0.247181
0.101335 0.423209 0.257465
0.14699 0.433646 0.263691
0.252323 0.465126 0.285939
0.355612 0.490532 0.28455
0.477012 0.482933 0.229252
0.642435 0.486152 0.193423
0.800793 0.4916 0.185367
0.918532 0.495628 0.179065
0.0517891 0.494499 0.282017
0.09337 0.509697 0.290471
0.137407 0.520531 0.298451
0.233021 0.558328 0.326268
0.377356 0.607675 0.359213
0.487709 0.61912 0.326314
0.632731 0.616205 0.260655
0.797757 0.622385 0.238178
0.932601 0.635065 0.247379
0.0667735 0.641001 0.320745
0.105348 0.652888 0.329015
0.147204 0.660807 0.340475
0.237491 0.691585 0.37116
0.422187 0.745159 0.430808
0.535805 0.766552 0.423453
0.667506 0.775402 0.373953
0.810712 0.786847 0.318853
0.933165 0.788052 0.300511
0.094789 0.831495 0.370962
0.126757 0.834546 0.379873
0.214939 0.84918 0.415091
0.384268 0.878172 0.481239
0.559777 0.907057 0.54258
0.665583 0.930159 0.546273
0.766598 0.952941 0.525475
0.86743 0.967895 0.486366
0.939925 0.9682 0.420935
0.0728466 0.0257877 0.253819
0.120134 0.0260777 0.25153
0.181918 0.0235294 0.238132
0.258732 0.0255436 0.229374
0.371817 0.0156863 0.182101
0.505669 0.0247959 0.157412
0.661891 0.0470588 0.155215
0.80116 0.0612345 0.163119
0.909117 0.0704967 0.167498
0.0578622 0.0660563 0.232502
0.104189 0.066041 0.231357
0.170748 0.072343 0.22858
0.253071 0.075349 0.224948
0.371817 0.0646525 0.180941
0.508782 0.0752422 0.157595
0.66215 0.0969711 0.155306
0.801495 0.112535 0.164965
0.911711 0.118975 0.167773
0.0376135 0.145678 0.231006
0.0849165 0.146777 0.23444
0.157656 0.155566 0.23827
0.251194 0.158556 0.236896
0.373434 0.116884 0.176623
0.512932 0.125353 0.158663
0.663188 0.146838 0.155306
0.805478 0.163165 0.164096
0.915694 0.169833 0.170504
0.0180056 0.22031 0.237369
0.064271 0.225055 0.241337
0.125841 0.235889 0.253239
0.253147 0.261555 0.267826
0.371939 0.261524 0.249866
0.504295 0.262318 0.235843
0.658763 0.252827 0.203128
0.80763 0.230335 0.175067
0.919509 0.22562 0.173053
0.041001 0.315923 0.262165
0.08925 0.32575 0.269093
0.135592 0.333303 0.276051
0.247944 0.361395 0.298405
0.361883 0.372 0.28893
0.499001 0.367849 0.256443
0.653803 0.369879 0.237934
0.80972 0.382101 0.226734
0.927474 0.379904 0.226871
0.0502174 0.401114 0.293248
0.0923629 0.411872 0.300877
0.137743 0.422339 0.30779
0.241642 0.451942 0.333944
0.372259 0.49305 0.360296
0.491218 0.495644 0.317632
0.660731 0.494209 0.275731
0.806302 0.497841 0.2589
0.927352 0.494652 0.249851
0.0413062 0.493111 0.316854
0.0820478 0.504799 0.324788
0.124651 0.513359 0.335256
0.21706 0.55169 0.364675
0.376959 0.601343 0.411658
0.499794 0.628733 0.405249
0.651316 0.629877 0.349554
0.810941 0.631495 0.307881
0.934798 0.637613 0.302068
0.0567178 0.636973 0.347402
0.0936294 0.645045 0.355673
0.133577 0.652232 0.36669
0.218967 0.684825 0.401755
0.411582 0.73695 0.46949
0.552621 0.77322 0.494545
0.682704 0.785779 0.45362
0.820462 0.796811 0.406348
0.940993 0.791028 0.369375
0.0704967 0.81854 0.408026
0.105287 0.828687 0.423484
0.158709 0.837476 0.442481
0.350515 0.872679 0.517006
0.537469 0.907088 0.580438
0.677607 0.933547 0.612039
0.770703 0.953063 0.595239
0.867735 0.968322 0.560143
0.941131 0.972183 0.497047
0.0919356 0.0392157 0.334646
0.13434 0.0374304 0.3346
0.18706 0.0331121 0.322881
0.265675 0.040238 0.319005
0.357885 0.0439002 0.311833
0.514122 0.0397803 0.275227
0.666651 0.0492561 0.207752
0.80116 0.0627451 0.211475
0.916854 0.076463 0.228946
0.0802014 0.077409 0.311879
0.124819 0.0774701 0.315908
0.177691 0.076997 0.314199
0.261982 0.0865034 0.315358
0.357382 0.0928817 0.312001
0.514214 0.0899062 0.277607
0.66601 0.0972 0.209995
0.801465 0.113085 0.211429
0.917098 0.124147 0.229129
0.0645304 0.150607 0.307332
0.110811 0.155718 0.315099
0.163455 0.157519 0.31899
0.256611 0.165408 0.324071
0.358587 0.158282 0.320745
0.516228 0.140154 0.275532
0.667109 0.147494 0.207095
0.807919 0.162493 0.211597
0.918563 0.174151 0.231006
0.0394598 0.213153 0.315129
0.0867933 0.21912 0.325811
0.142626 0.227848 0.335225
0.257359 0.257877 0.352773
0.365072 0.271534 0.355795
0.509209 0.243259 0.296544
0.670634 0.219745 0.237461
0.817151 0.227329 0.238361
0.928939 0.236179 0.260945
0.041001 0.300649 0.326131
0.085359 0.308415 0.334646
0.132677 0.317159 0.34258
0.219211 0.340749 0.360693
0.366705 0.37702 0.386252
0.513832 0.383948 0.369818
0.680735 0.401953 0.367117
0.829831 0.414862 0.369665
0.938766 0.413138 0.373648
0.0425422 0.383749 0.332509
0.085359 0.393591 0.341436
0.131044 0.403159 0.349508
0.194888 0.425132 0.370321
0.363516 0.483375 0.418296
0.510857 0.50605 0.415137
0.681376 0.509941 0.392126
0.828382 0.516899 0.385504
0.94255 0.522194 0.394751
0.027451 0.476844 0.347738
0.0678874 0.488182 0.358648
0.108629 0.500252 0.369604
0.199588 0.538506 0.402396
0.365835 0.59472 0.457359
0.523995 0.638788 0.492195
0.670924 0.646998 0.450111
0.831052 0.64712 0.424308
0.948623 0.649393 0.426398
0.0415045 0.62565 0.377188
0.0800641 0.635309 0.390768
0.120073 0.645792 0.403815
0.163989 0.663188 0.42359
0.382132 0.728054 0.510903
0.575448 0.776959 0.56994
0.696315 0.792325 0.54255
0.838651 0.807874 0.504219
0.952697 0.802396 0.47187
0.0588235 0.814725 0.461921
0.0952621 0.822889 0.473976
0.131655 0.830335 0.485451
0.260029 0.85771 0.544518
0.485283 0.902113 0.6206
0.684504 0.937682 0.674891
0.780056 0.958465 0.675044
0.875517 0.971939 0.639918
0.95079 0.972305 0.587442
0.113725 0.0600748 0.435142
0.156725 0.06009 0.432532
0.198001 0.056199 0.424811
0.271946 0.0663157 0.416968
0.366537 0.0775158 0.423423
0.478325 0.0801404 0.413474
0.663508 0.0679637 0.37435
0.801099 0.0679179 0.300832
0.91693 0.0730755 0.273091
0.103944 0.0947738 0.41355
0.148165 0.0985885 0.415732
0.195972 0.0970474 0.412512
0.269734 0.109819 0.416663
0.366247 0.125795 0.423285
0.476524 0.129534 0.414969
0.662837 0.118257 0.377615
0.801465 0.116579 0.302434
0.917235 0.124147 0.273274
0.0954452 0.165576 0.412787
0.141939 0.168948 0.422736
0.18854 0.167452 0.423087
0.267857 0.175937 0.424613
0.367742 0.183505 0.426505
0.481819 0.181353 0.415
0.668025 0.16849 0.375174
0.805554 0.167636 0.30251
0.921111 0.173175 0.273304
0.0925917 0.232044 0.420417
0.140261 0.237171 0.434089
0.186755 0.243503 0.440024
0.268162 0.257298 0.449668
0.373098 0.275471 0.451041
0.485664 0.282551 0.441733
0.67454 0.229541 0.379355
0.817151 0.218799 0.297551
0.928939 0.224292 0.293767
0.0517128 0.28777 0.413962
0.094255 0.295705 0.423285
0.140337 0.303456 0.4365
0.238102 0.331899 0.460136
0.379568 0.375006 0.483436
0.503609 0.392691 0.480064
0.685786 0.38996 0.440192
0.83473 0.393927 0.406348
0.942702 0.412833 0.442374
0.0383307 0.367376 0.405325
0.0807813 0.378592 0.417823
0.123308 0.386984 0.42948
0.171374 0.403433 0.446921
0.334585 0.462638 0.49308
0.530907 0.524544 0.530602
0.70576 0.546899 0.530755
0.852445 0.576715 0.552346
0.960388 0.588663 0.568185
0.0227054 0.448051 0.389425
0.0630808 0.461707 0.401816
0.103914 0.473777 0.413336
0.144366 0.49247 0.430945
0.296559 0.559213 0.496437
0.526513 0.636667 0.565881
0.69247 0.663676 0.561578
0.852842 0.671504 0.554894
0.965499 0.676646 0.56492
0.027451 0.6047 0.439017
0.0644541 0.613825 0.451987
0.104341 0.624079 0.462196
0.142962 0.640696 0.480415
0.321538 0.709041 0.557809
0.54963 0.765179 0.621897
0.719036 0.807645 0.651484
0.854002 0.821561 0.614832
0.969573 0.815473 0.596078
0.0469215 0.818372 0.536828
0.0816205 0.818708 0.546975
0.116518 0.826352 0.563058
0.169146 0.844526 0.597314
0.370764 0.886641 0.654215
0.646876 0.933761 0.72108
0.795438 0.96492 0.762493
0.884688 0.973785 0.73637
0.958129 0.976059 0.690089
0.130129 0.0784314 0.523735
0.175204 0.0791943 0.527794
0.218967 0.0792096 0.523919
0.277714 0.0791943 0.520714
0.384161 0.100542 0.527794
0.496117 0.11841 0.5346
0.616388 0.117174 0.51548
0.801862 0.0931868 0.47013
0.917006 0.0833295 0.416785
0.122377 0.113878 0.512383
0.17145 0.117891 0.51632
0.215442 0.121706 0.51635
0.277577 0.127138 0.520134
0.380682 0.146212 0.524941
0.496269 0.16611 0.535744
0.613581 0.167559 0.514397
0.805081 0.140169 0.474159
0.917281 0.13698 0.424826
0.12549 0.173312 0.524056
0.168887 0.178058 0.529015
0.21706 0.178851 0.534081
0.2822 0.184085 0.535088
0.389654 0.199557 0.532311
0.499016 0.218692 0.535958
0.620386 0.214557 0.512337
0.809293 0.193835 0.477195
0.921248 0.187839 0.425055
0.122042 0.239887 0.527108
0.167971 0.24625 0.536767
0.212772 0.252064 0.545785
0.282277 0.259297 0.553811
0.391028 0.276799 0.550805
0.505608 0.301503 0.553948
0.634546 0.300282 0.536477
0.817334 0.244343 0.478202
0.929046 0.238163 0.428305
0.0991684 0.304601 0.540566
0.14197 0.314107 0.551751
0.18793 0.321996 0.55993
0.272251 0.348013 0.571817
0.403906 0.382284 0.585275
0.529397 0.409369 0.589059
0.662608 0.420203 0.581521
0.835386 0.402152 0.546883
0.944823 0.377264 0.482506
0.0543832 0.368704 0.553079
0.0964675 0.380606 0.564202
0.136339 0.39057 0.572686
0.220951 0.424155 0.599252
0.39176 0.483177 0.629618
0.572183 0.54377 0.644953
0.690288 0.553521 0.636133
0.856657 0.554467 0.610101
0.963714 0.560708 0.598795
0.0424811 0.490486 0.572183
0.0822614 0.50132 0.583017
0.122972 0.509438 0.587869
0.165347 0.521187 0.60061
0.294408 0.570352 0.63212
0.509377 0.633021 0.663661
0.719738 0.690898 0.690898
0.872511 0.723217 0.709331
0.976867 0.757961 0.745815
0.0254673 0.584848 0.525521
0.063798 0.592279 0.536522
0.102525 0.601038 0.544884
0.152026 0.620615 0.565759
0.196246 0.646113 0.590845
0.404318 0.720439 0.65864
0.732677 0.817166 0.739651
0.873304 0.838514 0.741817
0.983536 0.84538 0.745418
0.054902 0.810666 0.638086
0.0934768 0.818204 0.648051
0.132113 0.829084 0.657359
0.174762 0.844465 0.679179
0.209689 0.863691 0.710109
0.492363 0.918532 0.768536
0.778088 0.964981 0.820264
0.894743 0.980285 0.833265
0.972244 0.983795 0.794675
0.153216 0.0983139 0.624628
0.198672 0.10222 0.628367
0.245029 0.102296 0.628458
0.302785 0.106157 0.632197
0.407294 0.123629 0.632425
0.523171 0.145205 0.636469
0.63386 0.164294 0.63151
0.758312 0.156878 0.612375
0.92076 0.0985428 0.574029
0.149371 0.136965 0.621012
0.195804 0.140963 0.625071
0.245304 0.147082 0.628687
0.303059 0.151934 0.632471
0.407965 0.168124 0.630442
0.519631 0.189395 0.635248
0.634226 0.214527 0.632471
0.765316 0.206332 0.608698
0.921767 0.151751 0.578058
0.152941 0.189883 0.631342
0.195743 0.194324 0.635615
0.248478 0.198001 0.638682
0.305409 0.198154 0.635538
0.413016 0.215717 0.632914
0.523705 0.237842 0.63653
0.638209 0.261128 0.632517
0.771527 0.253849 0.612741
0.928985 0.203128 0.58204
0.153292 0.258274 0.644404
0.196262 0.263905 0.648646
0.249393 0.271077 0.657755
0.314366 0.277943 0.660151
0.422705 0.295537 0.658442
0.537652 0.32166 0.658381
0.656657 0.343038 0.654398
0.792096 0.338781 0.637339
0.936675 0.25333 0.590463
0.151675 0.345388 0.664073
0.199908 0.357198 0.673152
0.251637 0.364446 0.677867
0.322652 0.380987 0.686778
0.445396 0.409583 0.692515
0.574075 0.434348 0.695216
0.692699 0.462425 0.698207
0.815808 0.459297 0.687617
0.946838 0.414145 0.652964
0.118746 0.410056 0.702205
0.16318 0.42121 0.709438
0.207675 0.433356 0.717494
0.299062 0.462043 0.727321
0.475105 0.534752 0.748516
0.617502 0.573053 0.752743
0.729763 0.593988 0.753063
0.838758 0.590158 0.741054
0.962127 0.561685 0.715618
0.0640269 0.518929 0.743938
0.103319 0.533394 0.752148
0.143633 0.541314 0.754849
0.235935 0.572335 0.767437
0.421286 0.630121 0.784634
0.628153 0.686229 0.799863
0.769635 0.725414 0.811749
0.865644 0.727047 0.803769
0.983764 0.73463 0.802762
0.0631113 0.665354 0.77908
0.101106 0.673594 0.786786
0.140444 0.678477 0.790478
0.183154 0.692699 0.79733
0.24773 0.71191 0.813886
0.505913 0.772839 0.826871
0.754864 0.829831 0.849775
0.895354 0.869017 0.872251
0.991653 0.895338 0.891432
0.0631418 0.831708 0.811185
0.101732 0.839399 0.825467
0.140566 0.84242 0.821653
0.179004 0.85539 0.834714
0.206485 0.87216 0.838376
0.188922 0.889525 0.858595
0.38822 0.926238 0.88867
0.893919 0.97995 0.91043
0.980133 0.98378 0.903593
0.18407 0.125246 0.732357
0.245289 0.133135 0.735805
0.295232 0.133104 0.736492
0.353063 0.137026 0.740261
0.444389 0.152834 0.73666
0.551537 0.173648 0.732738
0.664775 0.197528 0.733394
0.773251 0.219394 0.728771
0.897246 0.211566 0.720974
0.184161 0.163912 0.732723
0.241657 0.171267 0.733013
0.295598 0.175036 0.736294
0.353399 0.179385 0.740627
0.444663 0.195407 0.735363
0.553338 0.220356 0.729778
0.662547 0.246647 0.732921
0.770581 0.269169 0.729
0.901534 0.26508 0.728206
0.188098 0.213275 0.739528
0.242176 0.217319 0.739925
0.300328 0.221149 0.742672
0.353506 0.225086 0.74081
0.445212 0.241398 0.736934
0.557397 0.266011 0.732158
0.671778 0.300359 0.740627
0.780499 0.320592 0.732967
0.909346 0.311391 0.728985
0.198154 0.292973 0.750866
0.253849 0.297169 0.756298
0.311131 0.3075 0.762524
0.36524 0.308736 0.7617
0.46334 0.327688 0.758816
0.58146 0.353155 0.754726
0.693706 0.38024 0.755367
0.803265 0.399374 0.758663
0.92108 0.393393 0.747097
0.215076 0.387488 0.771939
0.276387 0.402701 0.783459
0.332509 0.410361 0.787488
0.395712 0.422065 0.793606
0.500328 0.444495 0.795529
0.618036 0.467247 0.794171
0.729732 0.499641 0.801221
0.828824 0.513603 0.803342
0.936721 0.505104 0.791394
0.229313 0.497704 0.825559
0.27924 0.505455 0.82562
0.33695 0.517311 0.833463
0.412802 0.542275 0.842954
0.561959 0.590173 0.852567
0.666194 0.607431 0.853147
0.76846 0.624445 0.855787
0.857084 0.636759 0.853376
0.953765 0.630121 0.849104
0.201572 0.606104 0.878767
0.258152 0.613993 0.882643
0.308507 0.621927 0.882963
0.401663 0.644511 0.88954
0.55848 0.68481 0.892897
0.705653 0.730053 0.903227
0.800153 0.748592 0.907408
0.887037 0.760174 0.910201
0.965377 0.760235 0.910155
0.105043 0.707134 0.933364
0.147494 0.721736 0.944152
0.188876 0.719417 0.94139
0.312291 0.75082 0.941985
0.499977 0.790753 0.941375
0.691432 0.83357 0.946532
0.822065 0.868589 0.960815
0.911208 0.887709 0.964569
0.984009 0.895949 0.964767
0.117144 0.892607 0.995224
0.155871 0.893263 0.99556
0.197635 0.894423 0.995651
0.243687 0.903319 0.995712
0.284428 0.912947 0.995743
0.39498 0.930419 0.995712
0.683436 0.961471 0.991882
0.884276 0.980102 0.991852
0.987991 0.987869 0.987869
