LUT/LumixLab/Film impression.cube
TITLE "Generated by Resolve"
LUT_3D_SIZE 33
#LUMIXPHOTOSTYLE LCLASN
0.00784314 0.00784314 0.0117647
0.0338293 0.00784314 0.00784314
0.0499733 0.00784314 0.00392157
0.0766918 0.00784314 0
0.10312 0.00784314 0
0.123873 0.00784314 0
0.150088 0.00784314 0
0.173205 0.00784314 0
0.192401 0.00784314 0
0.205234 0.00784314 0
0.227008 0.00784314 0
0.246204 0.0101778 0.00392157
0.265538 0.0117647 0.00392157
0.282628 0.0117647 0.00392157
0.302022 0.0117647 0.00392157
0.323293 0.0117647 0.00392157
0.348165 0.0117647 0.00392157
0.375067 0.0156863 0.00392157
0.408331 0.0132296 0
0.432776 0.0170138 0
0.467948 0.0209049 0
0.501106 0.0235294 0
0.54342 0.0284733 0
0.580911 0.0352941 0
0.61471 0.0352941 0
0.649638 0.0398566 0
0.684962 0.0509804 0
0.723568 0.0552987 0
0.761944 0.0591135 0
0.788998 0.0628977 0
0.827497 0.0705882 0.00392157
0.854597 0.0744335 0.00392157
0.881758 0.078233 0.00764477
0.00784314 0.0229191 0.0117647
0.019852 0.019028 0.00784314
0.0462043 0.019379 0.000671397
0.0693217 0.0193637 3.0518e-05
0.0927596 0.019089 0
0.122606 0.0190585 0
0.146395 0.019028 0
0.162982 0.0191501 3.0518e-05
0.185214 0.0192874 1.5259e-05
0.204242 0.0218967 1.5259e-05
0.223621 0.0230106 0
0.244221 0.0230106 0.00242618
0.261997 0.0229801 0.00392157
0.285054 0.0230716 0.00395209
0.300465 0.0232853 0.00393683
0.323537 0.02327 0.00392157
0.34847 0.0231479 0.00392157
0.379171 0.0232547 0.00392157
0.408453 0.0247349 0
0.437263 0.0286107 3.0518e-05
0.468254 0.0347753 0
0.50425 0.0350347 0
0.546685 0.039765 0
0.581292 0.0465095 0
0.61912 0.0473945 0
0.650065 0.0551614 1.5259e-05
0.685435 0.0628672 1.5259e-05
0.72723 0.066865 0
0.758419 0.073991 0
0.78938 0.0778668 0
0.824079 0.082002 0.00393683
0.854963 0.0860456 0.00761425
0.885786 0.0896773 0.00782788
0.011368 0.0384222 0.0117647
0.019379 0.0345617 0.00790417
0.0316777 0.0309758 0.0075227
0.0580758 0.0306096 0.000488289
0.0881361 0.0306401 0
0.11194 0.0305486 0
0.13518 0.0306706 3.0518e-05
0.158251 0.0306401 1.5259e-05
0.181003 0.0306096 1.5259e-05
0.197894 0.0309911 0
0.217105 0.0332647 0
0.242664 0.0348974 0
0.262028 0.0349279 0.00395209
0.282902 0.0349126 0.00395209
0.30042 0.0349126 0.00392157
0.323537 0.0366522 0.00392157
0.350561 0.0384222 0.00392157
0.375433 0.0384222 0.00392157
0.410193 0.0384833 4.57771e-05
0.437263 0.040177 1.5259e-05
0.468254 0.0464027 0
0.50425 0.047776 0
0.546609 0.0512398 0
0.584436 0.0591287 3.0518e-05
0.616419 0.0620127 1.5259e-05
0.650736 0.0667124 1.5259e-05
0.689265 0.0747234 0
0.730907 0.0815595 0
0.758862 0.0823682 0
0.796582 0.0900893 3.0518e-05
0.82414 0.0935378 0.00393683
0.854963 0.101198 0.00784314
0.889204 0.101549 0.00784314
0.0117647 0.0572671 0.0117647
0.0232547 0.0502174 0.0113069
0.0348669 0.0499733 0.0112764
0.0435187 0.049485 0.00738537
0.0697795 0.0431373 0.000549325
0.100191 0.046067 3.0518e-05
0.124025 0.0428473 1.5259e-05
0.150546 0.0421302 1.5259e-05
0.173678 0.0420996 0
0.196445 0.0424506 0
0.21561 0.0461128 4.57771e-05
0.235325 0.0464027 4.57771e-05
0.258564 0.0465553 0.00393683
0.281224 0.04654 0.00392157
0.298558 0.04654 0.00392157
0.323476 0.0465248 0.00392157
0.347005 0.0465858 0.00396735
0.375555 0.0502174 0.00395209
0.406577 0.0504768 3.0518e-05
0.437201 0.054078 1.5259e-05
0.468193 0.0579385 0
0.500496 0.061677 0
0.543145 0.0632639 3.0518e-05
0.581888 0.070985 1.5259e-05
0.619165 0.0735943 1.5259e-05
0.650736 0.078645 0
0.689189 0.0862593 0
0.72752 0.0901808 0
0.762448 0.0971084 3.0518e-05
0.790082 0.101701 1.5259e-05
0.824079 0.105486 0.00392157
0.851499 0.109285 0.00392157
0.885725 0.116457 0.00772107
0.0156863 0.073228 0.0156863
0.0271305 0.0726635 0.0150607
0.0348821 0.0686656 0.0121157
0.04654 0.0693675 0.0117647
0.059144 0.0654765 0.0106661
0.0852216 0.0614023 0.000610361
0.114977 0.0549935 0
0.14168 0.0542763 0
0.162356 0.0542611 0
0.188037 0.0543069 1.5259e-05
0.21181 0.0576181 1.5259e-05
0.231403 0.0602579 0
0.257969 0.0614939 0.00233463
0.277165 0.0614633 0.00392157
0.299931 0.0614328 0.00392157
0.319966 0.0615549 0.00393683
0.346685 0.0615244 0.00392157
0.375433 0.0617838 0.00392157
0.404273 0.061738 0
0.437476 0.0656138 0
0.468071 0.0694896 0
0.504128 0.0734874 0
0.539025 0.0773785 0
0.581292 0.0850233 0
0.615076 0.0851453 0
0.647227 0.0902419 0
0.685924 0.0980697 1.5259e-05
0.724544 0.10518 0
0.758389 0.112474 0
0.789456 0.113298 0
0.823957 0.120302 0.00392157
0.858122 0.124224 0.00392157
0.889754 0.12488 0.00775158
0.0156863 0.0925612 0.0196078
0.0307622 0.0918135 0.0189059
0.0416724 0.0948501 0.0224765
0.05037 0.0890822 0.0161135
0.0619974 0.0919051 0.0188754
0.0742199 0.0879377 0.0143282
0.10309 0.080766 0.00779736
0.13019 0.0738079 0.000823987
0.154269 0.0700542 0
0.181308 0.0691539 0
0.202121 0.0691234 0
0.22707 0.0717937 0
0.250797 0.0729839 0
0.27364 0.0730755 0.00392157
0.296788 0.0730755 0.00392157
0.319554 0.0734112 0.00392157
0.346593 0.0733806 0.00392157
0.375311 0.0751049 0.00392157
0.406134 0.0769055 0
0.437201 0.0784772 1.5259e-05
0.468193 0.0827192 0
0.504173 0.0860304 0
0.545861 0.0897841 0
0.581216 0.0967269 0
0.615015 0.0979324 0
0.650599 0.10518 0
0.688609 0.112398 0
0.723873 0.11664 0
0.762127 0.124056 0
0.789303 0.124941 0
0.827802 0.13193 0.00392157
0.854902 0.136538 0.00392157
0.88954 0.13959 0.00770581
0.0226291 0.114931 0.0304723
0.0339971 0.115114 0.0297093
0.0455329 0.115114 0.0304417
0.0570382 0.115068 0.0297704
0.065156 0.111604 0.0265812
0.0762188 0.108034 0.0201877
0.090486 0.106554 0.0156863
0.1187 0.104128 0.00798047
0.146517 0.102449 0.00479133
0.172305 0.0925307 0.00306706
0.196689 0.0914931 0.0030518
0.221668 0.0914473 0
0.246754 0.0884871 0
0.273335 0.0879988 0.00392157
0.298528 0.0845655 0.00392157
0.323049 0.0854047 0.00392157
0.348409 0.0854047 0.00392157
0.378332 0.088426 0.00392157
0.409384 0.0885176 3.0518e-05
0.437201 0.0905013 0
0.468193 0.0943008 0
0.504097 0.0981003 0
0.543267 0.1019 0
0.580423 0.108034 0
0.615869 0.109819 0
0.649943 0.116655 0
0.685267 0.125093 0
0.723873 0.12813 0
0.762188 0.135561 0
0.793469 0.13669 0
0.828 0.144366 0.00392157
0.858824 0.151232 0.00698863
0.889586 0.154971 0.00781262
0.0235294 0.138186 0.0382239
0.0377813 0.138231 0.0382391
0.0493019 0.138231 0.0382391
0.0582895 0.138186 0.0356909
0.0699474 0.137301 0.034287
0.0800793 0.131075 0.03093
0.0916609 0.127108 0.0264744
0.109316 0.129656 0.0196078
0.140078 0.124331 0.0118868
0.16585 0.121828 0.00717174
0.192493 0.121447 0.00720226
0.217945 0.118074 0.00689708
0.243305 0.115892 0.00686656
0.269917 0.112016 0.0068513
0.296925 0.110216 0.0068513
0.321965 0.104326 0.00392157
0.347158 0.101564 0.00392157
0.379416 0.100038 0.00393683
0.410239 0.103914 0
0.437125 0.10428 0
0.471397 0.109133 0
0.508019 0.112016 0
0.546853 0.116838 1.5259e-05
0.587335 0.123552 0
0.61912 0.121447 0
0.654322 0.132052 0
0.68896 0.136675 0
0.726375 0.143191 0
0.762387 0.148348 1.5259e-05
0.796201 0.151247 0
0.831861 0.158816 0.00392157
0.862684 0.162692 0.00782788
0.892531 0.166491 0.00784314
0.0302434 0.161303 0.0459297
0.0426184 0.165011 0.0459449
0.0533761 0.16527 0.0459449
0.064622 0.16527 0.0459449
0.0737469 0.158114 0.0424964
0.0844587 0.157473 0.0388342
0.0954452 0.154116 0.0350347
0.111727 0.153506 0.0312505
0.128756 0.152651 0.0235294
0.156939 0.146548 0.0118868
0.183932 0.145754 0.00885023
0.214084 0.145022 0.00787366
0.241199 0.14287 0.00784314
0.266072 0.141054 0.00784314
0.29308 0.140566 0.00784314
0.3196 0.13872 0.00729381
0.345251 0.132387 0.00395209
0.37261 0.127703 0.00392157
0.408484 0.124941 0.00347906
0.441047 0.122133 0
0.469413 0.123186 0
0.504677 0.123644 0
0.546761 0.12752 0
0.58529 0.135012 0
0.619058 0.135256 0
0.651514 0.140749 0
0.689113 0.148287 0
0.728023 0.154833 1.5259e-05
0.766186 0.15996 0
0.793454 0.163775 0
0.831861 0.170397 0.00392157
0.862684 0.175326 0.00782788
0.89369 0.17821 0.00787366
0.0340276 0.184421 0.0536355
0.0428626 0.185641 0.0536507
0.0545052 0.188388 0.0536507
0.0685283 0.188495 0.053727
0.0778363 0.184558 0.0526589
0.08925 0.183505 0.0497444
0.100832 0.177478 0.0458076
0.115343 0.176623 0.041886
0.13109 0.176669 0.034287
0.153201 0.174014 0.0204776
0.178866 0.169802 0.012726
0.210163 0.165927 0.0105287
0.237278 0.16878 0.0112612
0.264225 0.167468 0.0117647
0.291371 0.168261 0.00787366
0.317708 0.166293 0.00787366
0.342763 0.163668 0.00726329
0.371511 0.163119 0.00660716
0.402823 0.159182 0.00552377
0.435492 0.157122 0.00393683
0.469718 0.153704 0.00175479
0.504326 0.150698 0
0.546761 0.147219 0
0.584314 0.148821 0
0.618997 0.147341 0
0.650813 0.155169 1.5259e-05
0.689342 0.160189 1.5259e-05
0.731716 0.167742 1.5259e-05
0.766232 0.171572 0
0.797223 0.177951 0
0.834379 0.183108 0.00392157
0.862867 0.189731 0.00787366
0.897505 0.19089 0.0078584
0.0352941 0.207538 0.0652628
0.0466011 0.207767 0.0616159
0.0580758 0.211292 0.0653697
0.0699016 0.211627 0.065156
0.081529 0.207889 0.0617838
0.0915236 0.20763 0.0602426
0.104723 0.204257 0.0579995
0.118669 0.199924 0.0532387
0.131884 0.199878 0.0468299
0.156313 0.199832 0.0368048
0.180224 0.198947 0.0260929
0.208118 0.194491 0.0158083
0.237385 0.195865 0.014313
0.263905 0.194614 0.0129091
0.291432 0.194614 0.0117952
0.319646 0.193256 0.0104067
0.343908 0.19057 0.00784314
0.373983 0.194491 0.00784314
0.404944 0.192157 0.0078584
0.4365 0.19237 0.00737011
0.469642 0.190143 0.00392157
0.506798 0.189258 0.00175479
0.546685 0.187091 0
0.585214 0.182834 0
0.62005 0.174701 1.5259e-05
0.654475 0.172442 3.0518e-05
0.692119 0.176562 1.5259e-05
0.731868 0.184314 0
0.768917 0.185855 0
0.803601 0.193454 0.00015259
0.838529 0.197467 0.00395209
0.866728 0.205142 0.0078584
0.897627 0.205112 0.00784314
0.0352941 0.226932 0.0691539
0.0465705 0.228428 0.0730755
0.0580911 0.232181 0.0752422
0.0700847 0.234745 0.0730449
0.0817426 0.231403 0.0730144
0.0953384 0.233143 0.0717632
0.106996 0.233631 0.0715953
0.119677 0.229404 0.0680247
0.140764 0.227588 0.0665599
0.156802 0.226871 0.0560311
0.177234 0.226871 0.0444648
0.202411 0.22388 0.0307927
0.23154 0.222461 0.0207065
0.260563 0.2215 0.0167544
0.289448 0.2215 0.0142061
0.317647 0.222202 0.0149386
0.344549 0.218982 0.0110628
0.374792 0.222263 0.00929274
0.406439 0.224033 0.00790417
0.437263 0.224506 0.00787366
0.471214 0.221439 0.00549325
0.507134 0.221378 0.00392157
0.546777 0.223941 3.0518e-05
0.583734 0.224018 4.57771e-05
0.62005 0.219776 4.57771e-05
0.658579 0.215824 1.5259e-05
0.699168 0.214237 0
0.735714 0.21181 0
0.772717 0.207568 3.0518e-05
0.80145 0.211276 0.00260929
0.839765 0.212802 0.00404364
0.866728 0.216648 0.0078584
0.897551 0.220447 0.00784314
0.0352941 0.25008 0.0830549
0.0467842 0.250126 0.0830854
0.0582437 0.254002 0.0846723
0.0720226 0.254002 0.0846723
0.0850538 0.254139 0.0831464
0.0970321 0.258015 0.0847028
0.108598 0.259785 0.0870069
0.125795 0.260288 0.0840925
0.146258 0.256779 0.0830549
0.163684 0.252857 0.0738384
0.181048 0.252567 0.0638895
0.203342 0.251072 0.0522774
0.228916 0.248524 0.0385748
0.255818 0.246159 0.0239567
0.286641 0.246159 0.0198672
0.315587 0.248112 0.0180056
0.34461 0.24625 0.0180362
0.375433 0.24625 0.0149996
0.406256 0.246204 0.0117647
0.437064 0.25008 0.0111849
0.469413 0.247623 0.00935378
0.506416 0.246876 0.00624094
0.550607 0.250172 0.00560006
0.589136 0.252842 0.00352483
0.627665 0.256031 0.00183108
0.666606 0.252384 0
0.706462 0.254078 0
0.738231 0.250584 0.00233463
0.778225 0.247166 0.00392157
0.809552 0.250507 0.00392157
0.841962 0.240726 0.00402838
0.872786 0.244541 0.00784314
0.899657 0.248234 0.00784314
0.0374762 0.273198 0.0962997
0.0504005 0.276875 0.0947127
0.0621195 0.277119 0.0962997
0.0759136 0.277256 0.0963455
0.087541 0.281178 0.098558
0.100496 0.281132 0.0967422
0.112459 0.284123 0.098497
0.129015 0.285008 0.0989395
0.151629 0.284962 0.0984665
0.171603 0.280781 0.0919814
0.1888 0.279469 0.0825513
0.208072 0.278065 0.0715496
0.230472 0.274144 0.0568551
0.255756 0.271443 0.0413977
0.282719 0.269276 0.0307927
0.313726 0.269413 0.0257572
0.344549 0.272099 0.025742
0.374426 0.273289 0.0230716
0.406195 0.273243 0.0178836
0.437629 0.274022 0.0164645
0.470741 0.275547 0.0139925
0.504784 0.275547 0.010071
0.548409 0.277821 0.0100557
0.586877 0.279347 0.00907912
0.625391 0.281529 0.0056611
0.664454 0.28333 0.00221256
0.708873 0.287373 0.000335698
0.745769 0.287114 0.00392157
0.784222 0.285252 0.00411994
0.816831 0.283268 0.00784314
0.853437 0.281468 0.00784314
0.880583 0.281621 0.00784314
0.907607 0.281697 0.00784314
0.045182 0.298192 0.107927
0.0563363 0.300282 0.106065
0.0681773 0.30042 0.108003
0.0776684 0.30042 0.107988
0.0928664 0.30396 0.109712
0.104784 0.30425 0.110018
0.117922 0.307225 0.111437
0.130922 0.311192 0.113481
0.151736 0.310353 0.11191
0.175418 0.310292 0.108797
0.192676 0.306371 0.102388
0.210803 0.30425 0.0927291
0.230426 0.304311 0.0842756
0.253773 0.30251 0.0705882
0.280812 0.301534 0.0561532
0.30779 0.29958 0.0445716
0.341558 0.29752 0.0384833
0.371389 0.300328 0.0365759
0.403006 0.300282 0.0339513
0.43328 0.299275 0.0277562
0.466835 0.301091 0.026978
0.500252 0.304295 0.0225528
0.542687 0.304814 0.0177615
0.581216 0.308125 0.0172885
0.619821 0.308598 0.0138399
0.659312 0.310704 0.0116426
0.705226 0.314549 0.00602731
0.747478 0.318135 0.00601205
0.785779 0.317845 0.00784314
0.816831 0.314092 0.00784314
0.851408 0.314214 0.00784314
0.882353 0.316381 0.00784314
0.913176 0.318074 0.0117037
0.0489815 0.319509 0.117586
0.0623636 0.323323 0.117693
0.07393 0.323537 0.119417
0.0871901 0.32549 0.121569
0.0987259 0.327092 0.121538
0.110613 0.32929 0.121508
0.122683 0.332906 0.121569
0.13727 0.334859 0.125521
0.15407 0.335286 0.12549
0.180545 0.339147 0.128038
0.200412 0.337881 0.124193
0.2177 0.333959 0.113207
0.23415 0.333394 0.105547
0.257649 0.333333 0.0966659
0.283757 0.333333 0.0831464
0.310719 0.333272 0.0715343
0.33756 0.328374 0.0588846
0.370275 0.3234 0.0500954
0.404044 0.327504 0.0494392
0.437919 0.328176 0.0431373
0.466911 0.326116 0.0391852
0.502708 0.3299 0.0379492
0.544549 0.333211 0.0313115
0.582925 0.333883 0.027512
0.62237 0.335775 0.0250858
0.662791 0.339574 0.0228122
0.705455 0.341115 0.0153658
0.747402 0.343313 0.0137026
0.7897 0.346777 0.0133211
0.820844 0.345159 0.00999466
0.855451 0.345098 0.00994888
0.886275 0.34902 0.0156863
0.91519 0.345037 0.0137026
0.0567178 0.350561 0.133059
0.0682383 0.350607 0.133089
0.0798505 0.352392 0.133059
0.0948653 0.356069 0.140368
0.106401 0.358358 0.140871
0.116564 0.358495 0.137392
0.130007 0.361929 0.140932
0.143587 0.363699 0.140902
0.155154 0.362325 0.140902
0.180545 0.368872 0.144793
0.205615 0.372122 0.146761
0.226368 0.368902 0.140383
0.245747 0.368139 0.132586
0.263386 0.368078 0.121691
0.286442 0.368017 0.112047
0.311666 0.36321 0.0966049
0.338888 0.36144 0.0831311
0.367651 0.359457 0.0705425
0.401297 0.356374 0.0648508
0.435981 0.354482 0.0585489
0.472679 0.358984 0.0571756
0.508019 0.360113 0.0533608
0.547387 0.362966 0.0468757
0.587213 0.368139 0.0442817
0.625742 0.368139 0.0420386
0.666346 0.372 0.0364996
0.706905 0.371939 0.0310674
0.751324 0.372152 0.0271458
0.789883 0.375982 0.0231174
0.820905 0.379904 0.0234226
0.859312 0.379843 0.0271763
0.890135 0.379843 0.0271763
0.917098 0.376013 0.0233768
0.0644236 0.373678 0.14847
0.0758373 0.373724 0.148501
0.0873884 0.3776 0.150698
0.0990005 0.379583 0.152193
0.110689 0.381399 0.151034
0.122271 0.381613 0.152453
0.135943 0.385489 0.154162
0.147463 0.388373 0.156313
0.160845 0.389364 0.156313
0.178759 0.392844 0.159777
0.208255 0.401266 0.164263
0.232547 0.402945 0.16286
0.251865 0.398962 0.154681
0.268101 0.397208 0.143084
0.288563 0.394919 0.136278
0.311818 0.395087 0.124743
0.338888 0.389334 0.107347
0.367651 0.387259 0.0906691
0.399298 0.387198 0.0819715
0.434653 0.383215 0.0750286
0.473411 0.385397 0.0714885
0.510292 0.387961 0.0677043
0.54789 0.39057 0.0617838
0.593561 0.397681 0.059968
0.631662 0.39762 0.0543832
0.670497 0.401129 0.0536507
0.711101 0.402975 0.0466621
0.751537 0.403006 0.04271
0.787839 0.40528 0.0386969
0.820905 0.406806 0.0349279
0.859312 0.406867 0.0387274
0.890135 0.412894 0.0408942
0.917327 0.40705 0.038819
0.0705882 0.395254 0.158404
0.0796063 0.396841 0.158419
0.0912337 0.399008 0.162127
0.102861 0.400885 0.162417
0.114458 0.40412 0.162371
0.127977 0.40473 0.163653
0.139803 0.40827 0.165759
0.151339 0.40856 0.167407
0.163622 0.412207 0.167956
0.177966 0.414221 0.169512
0.207889 0.424079 0.17673
0.238025 0.429236 0.175708
0.256565 0.427451 0.173342
0.272725 0.423682 0.162402
0.292103 0.422065 0.154803
0.31458 0.422065 0.145159
0.340688 0.420157 0.130465
0.368475 0.418082 0.11574
0.398413 0.418021 0.102098
0.432761 0.417334 0.0930037
0.47306 0.414221 0.085008
0.508247 0.41416 0.080354
0.550011 0.415274 0.0737469
0.59411 0.422522 0.0697948
0.635584 0.425803 0.0697642
0.674418 0.429969 0.0678721
0.712871 0.430259 0.0620737
0.751476 0.433768 0.0615091
0.789761 0.433707 0.0541085
0.820829 0.433845 0.0538643
0.859251 0.437568 0.0501564
0.888701 0.440101 0.0542306
0.913405 0.436194 0.0503395
0.0705882 0.415991 0.167529
0.0821241 0.42002 0.170138
0.0937514 0.422309 0.173816
0.105058 0.422538 0.171908
0.117037 0.423972 0.171542
0.128679 0.427573 0.173983
0.140322 0.430915 0.175433
0.151995 0.431861 0.177981
0.163622 0.431861 0.177966
0.177935 0.438422 0.1794
0.202396 0.446143 0.188327
0.237125 0.456184 0.192004
0.260456 0.457801 0.19173
0.280491 0.455451 0.182589
0.299794 0.456794 0.178744
0.317143 0.455573 0.167117
0.344167 0.45359 0.157534
0.371206 0.45034 0.143572
0.399405 0.449897 0.128206
0.433326 0.449027 0.11371
0.469642 0.448951 0.10103
0.50425 0.448112 0.0940566
0.545602 0.44567 0.0880446
0.59295 0.449454 0.0831617
0.636698 0.453559 0.081117
0.678264 0.460777 0.0813916
0.716411 0.460731 0.0774548
0.751476 0.461158 0.0734722
0.793683 0.464515 0.0708019
0.822461 0.464775 0.0697032
0.859434 0.467201 0.0657969
0.88632 0.46862 0.0696117
0.913283 0.464775 0.0656596
0.0705882 0.439338 0.179171
0.0857252 0.439384 0.183017
0.0937057 0.442985 0.183093
0.105333 0.443259 0.183093
0.120256 0.447135 0.186755
0.128649 0.447135 0.186984
0.140322 0.454215 0.189044
0.151949 0.455024 0.190936
0.163577 0.455024 0.190936
0.177844 0.461555 0.194385
0.201297 0.469245 0.200397
0.236606 0.481071 0.206149
0.266621 0.487251 0.210575
0.290272 0.487739 0.205768
0.309453 0.487678 0.199374
0.328649 0.487678 0.190326
0.351873 0.487739 0.18201
0.378241 0.486763 0.168582
0.405234 0.484703 0.153903
0.433143 0.480766 0.135393
0.468956 0.479835 0.11986
0.505211 0.478981 0.111238
0.550607 0.477028 0.103197
0.589853 0.476677 0.0929274
0.635065 0.480507 0.0915541
0.676844 0.486641 0.0915389
0.716487 0.490455 0.0911574
0.755093 0.491829 0.0875868
0.792706 0.495521 0.0873884
0.828428 0.491722 0.0811627
0.859251 0.491768 0.081239
0.890074 0.502037 0.0863813
0.917037 0.495689 0.0812695
0.0745098 0.462455 0.194583
0.0820783 0.465003 0.197116
0.0935531 0.466377 0.197284
0.105135 0.469093 0.197284
0.11928 0.472679 0.198596
0.128679 0.474311 0.198566
0.140032 0.476356 0.201221
0.153628 0.477821 0.202106
0.163195 0.480858 0.202426
0.176638 0.484718 0.205951
0.197208 0.491341 0.211658
0.234394 0.5037 0.220584
0.265309 0.515816 0.225483
0.295033 0.518563 0.225956
0.318456 0.518502 0.219944
0.334478 0.518563 0.210925
0.3552 0.518685 0.19939
0.379294 0.51548 0.188586
0.406195 0.514702 0.173129
0.437064 0.513664 0.160586
0.469337 0.510658 0.145129
0.505013 0.508553 0.127565
0.549722 0.510842 0.115999
0.589136 0.50779 0.107362
0.628229 0.507439 0.104158
0.669383 0.511193 0.100252
0.71426 0.517861 0.0992294
0.753811 0.522606 0.0989395
0.789761 0.522545 0.0965744
0.82475 0.522545 0.0965744
0.859251 0.523766 0.0966049
0.890074 0.530236 0.10042
0.92108 0.52665 0.0967269
0.0695201 0.480583 0.20499
0.0781415 0.480613 0.205005
0.0896468 0.484184 0.20499
0.101305 0.488167 0.208988
0.112947 0.491783 0.209873
0.124544 0.493294 0.210056
0.134661 0.4963 0.212848
0.146197 0.496269 0.212833
0.157733 0.499352 0.213596
0.169329 0.503319 0.217578
0.186908 0.510658 0.22327
0.223362 0.524666 0.230961
0.260227 0.537301 0.237018
0.295567 0.546563 0.241367
0.321141 0.54696 0.238071
0.342855 0.545647 0.231647
0.360098 0.548913 0.221088
0.382635 0.548302 0.211704
0.406851 0.545525 0.196246
0.437125 0.545586 0.184741
0.470359 0.54284 0.169223
0.504997 0.542763 0.149844
0.539635 0.541665 0.134432
0.586542 0.542687 0.123049
0.623667 0.542397 0.118975
0.659922 0.539162 0.111803
0.704433 0.542153 0.107942
0.751522 0.549981 0.107118
0.791058 0.554452 0.108064
0.825772 0.557351 0.111986
0.863111 0.558328 0.111971
0.89131 0.559655 0.113161
0.921111 0.562448 0.115969
0.0666667 0.496925 0.212696
0.0781872 0.500832 0.213779
0.0894179 0.504555 0.216419
0.0975204 0.504952 0.216678
0.109178 0.508156 0.220096
0.120821 0.51191 0.221332
0.132448 0.515679 0.223804
0.14342 0.517464 0.224537
0.155764 0.520638 0.225513
0.167391 0.523583 0.227497
0.183474 0.530922 0.232334
0.2168 0.543999 0.238666
0.261204 0.559472 0.246967
0.298695 0.570489 0.255222
0.328389 0.576471 0.257847
0.351965 0.577447 0.251957
0.371618 0.577371 0.242863
0.392935 0.58027 0.233097
0.415 0.577371 0.219791
0.442176 0.580835 0.207904
0.474128 0.580011 0.193347
0.508095 0.577371 0.173953
0.543389 0.577111 0.158282
0.578973 0.576577 0.140597
0.624231 0.579904 0.135256
0.664302 0.576791 0.130694
0.698985 0.570886 0.122927
0.748302 0.577249 0.116136
0.79678 0.588479 0.123552
0.828595 0.592981 0.127382
0.867262 0.596292 0.131426
0.898039 0.603922 0.135286
0.924971 0.601083 0.132357
0.0705882 0.521859 0.224369
0.079057 0.528725 0.225284
0.0898146 0.528923 0.229084
0.10103 0.532372 0.229129
0.112596 0.532219 0.229099
0.124147 0.53724 0.232837
0.133196 0.543832 0.236179
0.144778 0.54757 0.236805
0.156374 0.548531 0.237003
0.167941 0.551141 0.240055
0.181521 0.554849 0.240864
0.204807 0.56495 0.250278
0.251637 0.579843 0.258137
0.28954 0.592187 0.266316
0.326421 0.607095 0.276249
0.357229 0.61471 0.278584
0.381292 0.613413 0.267781
0.400793 0.616129 0.259739
0.422934 0.616129 0.246509
0.449821 0.616053 0.233036
0.480812 0.615976 0.220249
0.508919 0.615335 0.204776
0.549752 0.615106 0.191608
0.586099 0.611978 0.165988
0.628489 0.612131 0.154482
0.676844 0.618708 0.14931
0.709636 0.616236 0.142275
0.748119 0.613077 0.134981
0.789685 0.619364 0.135317
0.831937 0.627298 0.142351
0.870283 0.631022 0.146807
0.901122 0.635584 0.146777
0.928862 0.635584 0.150683
0.0745098 0.559686 0.235996
0.082826 0.562783 0.239948
0.0937209 0.563012 0.239933
0.104906 0.566995 0.243839
0.116548 0.567651 0.243885
0.125383 0.571435 0.243885
0.136995 0.575326 0.247105
0.148577 0.575433 0.247776
0.160174 0.579141 0.250584
0.171298 0.581949 0.251682
0.181888 0.58706 0.254612
0.199481 0.593683 0.2589
0.237598 0.606851 0.269734
0.28603 0.623011 0.279988
0.328771 0.63595 0.291844
0.362066 0.643961 0.295521
0.390631 0.646494 0.294148
0.412329 0.649989 0.282872
0.432914 0.650736 0.271214
0.459937 0.65066 0.259541
0.484993 0.650584 0.246479
0.515404 0.649882 0.231037
0.551522 0.650813 0.218158
0.59295 0.649927 0.199237
0.628534 0.647303 0.174258
0.668376 0.65066 0.161501
0.717342 0.661158 0.157687
0.755642 0.655299 0.154376
0.790967 0.655314 0.151171
0.828779 0.65481 0.150683
0.867155 0.66183 0.15758
0.894072 0.669474 0.157565
0.927962 0.673411 0.162036
0.0784314 0.587152 0.244266
0.0865797 0.590402 0.248219
0.0976425 0.59115 0.248219
0.105989 0.598001 0.25214
0.117586 0.59852 0.252216
0.129198 0.598962 0.254902
0.140337 0.602396 0.25597
0.151949 0.606256 0.258564
0.1626 0.60676 0.259953
0.174029 0.612985 0.262364
0.182956 0.614618 0.266178
0.199451 0.624491 0.273655
0.238178 0.634699 0.280598
0.290532 0.650462 0.293889
0.3364 0.665492 0.305165
0.373617 0.675715 0.315328
0.402869 0.681498 0.313726
0.42594 0.681422 0.305989
0.441825 0.684977 0.292988
0.469673 0.685481 0.283024
0.49749 0.686137 0.270329
0.527886 0.685847 0.254841
0.560235 0.685512 0.239368
0.602029 0.689265 0.223957
0.639368 0.689769 0.203845
0.675959 0.686458 0.182376
0.724681 0.693965 0.173846
0.762966 0.697353 0.169879
0.798215 0.701228 0.169818
0.828534 0.69369 0.166445
0.863798 0.69369 0.169787
0.894118 0.697108 0.169818
0.92578 0.708919 0.177691
0.0788739 0.625757 0.255787
0.0899062 0.625788 0.259709
