LUT/LumixLab/Film impression.cube
TITLE "Generated by Resolve"
LUT_3D_SIZE 5
#LUMIXPHOTOSTYLE LCLASN
0.00784314 0.00784314 0.0117647
0.192401 0.00784314 0
0.348165 0.0117647 0.00392157
0.61471 0.0352941 0
0.881758 0.078233 0.00764477
0.0302434 0.161303 0.0459297
0.128756 0.152651 0.0235294
0.345251 0.132387 0.00395209
0.619058 0.135256 0
0.89369 0.17821 0.00787366
0.0567178 0.350561 0.133059
0.155154 0.362325 0.140902
0.338888 0.36144 0.0831311
0.625742 0.368139 0.0420386
0.917098 0.376013 0.0233768
0.0705882 0.521859 0.224369
0.156374 0.548531 0.237003
0.381292 0.613413 0.267781
0.628489 0.612131 0.154482
0.928862 0.635584 0.150683
0.128496 0.841856 0.324941
0.258717 0.8607 0.365728
0.569268 0.910796 0.456519
0.75613 0.949279 0.411261
0.93698 0.964294 0.301549
0.0497749 0.0196078 0.176761
0.182727 0.0156863 0.14931
0.370565 0.0135348 0.107469
0.649454 0.0399786 0.0995651
0.89218 0.0717784 0.104692
0.00471504 0.142885 0.150729
0.147036 0.152102 0.15378
0.36495 0.12607 0.116564
0.648768 0.140276 0.0997482
0.897475 0.176013 0.104768
0.0444038 0.325444 0.21178
0.139391 0.341817 0.22295
0.348226 0.363882 0.198474
0.635172 0.3682 0.138598
0.921126 0.375982 0.120287
0.0517891 0.494499 0.282017
0.137407 0.520531 0.298451
0.377356 0.607675 0.359213
0.632731 0.616205 0.260655
0.932601 0.635065 0.247379
0.094789 0.831495 0.370962
0.214939 0.84918 0.415091
0.559777 0.907057 0.54258
0.766598 0.952941 0.525475
0.939925 0.9682 0.420935
0.0919356 0.0392157 0.334646
0.18706 0.0331121 0.322881
0.357885 0.0439002 0.311833
0.666651 0.0492561 0.207752
0.916854 0.076463 0.228946
0.0645304 0.150607 0.307332
0.163455 0.157519 0.31899
0.358587 0.158282 0.320745
0.667109 0.147494 0.207095
0.918563 0.174151 0.231006
0.041001 0.300649 0.326131
0.132677 0.317159 0.34258
0.366705 0.37702 0.386252
0.680735 0.401953 0.367117
0.938766 0.413138 0.373648
0.027451 0.476844 0.347738
0.108629 0.500252 0.369604
0.365835 0.59472 0.457359
0.670924 0.646998 0.450111
0.948623 0.649393 0.426398
0.0588235 0.814725 0.461921
0.131655 0.830335 0.485451
0.485283 0.902113 0.6206
0.780056 0.958465 0.675044
0.95079 0.972305 0.587442
0.130129 0.0784314 0.523735
0.218967 0.0792096 0.523919
0.384161 0.100542 0.527794
0.616388 0.117174 0.51548
0.917006 0.0833295 0.416785
0.12549 0.173312 0.524056
0.21706 0.178851 0.534081
0.389654 0.199557 0.532311
0.620386 0.214557 0.512337
0.921248 0.187839 0.425055
0.0991684 0.304601 0.540566
0.18793 0.321996 0.55993
0.403906 0.382284 0.585275
0.662608 0.420203 0.581521
0.944823 0.377264 0.482506
0.0424811 0.490486 0.572183
0.122972 0.509438 0.587869
0.294408 0.570352 0.63212
0.719738 0.690898 0.690898
0.976867 0.757961 0.745815
0.054902 0.810666 0.638086
0.132113 0.829084 0.657359
0.209689 0.863691 0.710109
0.778088 0.964981 0.820264
0.972244 0.983795 0.794675
0.18407 0.125246 0.732357
0.295232 0.133104 0.736492
0.444389 0.152834 0.73666
0.664775 0.197528 0.733394
0.897246 0.211566 0.720974
0.188098 0.213275 0.739528
0.300328 0.221149 0.742672
0.445212 0.241398 0.736934
0.671778 0.300359 0.740627
0.909346 0.311391 0.728985
0.215076 0.387488 0.771939
0.332509 0.410361 0.787488
0.500328 0.444495 0.795529
0.729732 0.499641 0.801221
0.936721 0.505104 0.791394
0.201572 0.606104 0.878767
0.308507 0.621927 0.882963
0.55848 0.68481 0.892897
0.800153 0.748592 0.907408
0.965377 0.760235 0.910155
0.117144 0.892607 0.995224
0.197635 0.894423 0.995651
0.284428 0.912947 0.995743
0.683436 0.961471 0.991882
0.987991 0.987869 0.987869
