LUT/LumixLab/Luminous city.cube
TITLE "Generated by Resolve"
#LUMIXPHOTOSTYLE VIVD
LUT_3D_SIZE 33
0.0202335 0.023331 0.0598917
0.046128 0.0201114 0.0592966
0.071397 0.018616 0.0448157
0.0901503 0.0188602 0.035111
0.109163 0.0177462 0.0244602
0.129809 0.0159762 0.0128634
0.151598 0.0141756 0.00144961
0.175326 0.0106203 0
0.199008 0.00694286 0
0.222187 0.00427253 0
0.245914 0.00170901 0
0.269657 0 0
0.293629 0 0
0.31812 0 0
0.343297 0 0
0.369039 0 0
0.394934 0 0
0.420783 0 0
0.446952 0 0
0.473915 0 0
0.501122 0 0
0.528466 0 0
0.55613 0 0
0.583871 0.000228885 0
0.612024 0.00314336 0
0.639979 0.00657664 0
0.667674 0.0102541 0
0.695155 0.0142519 0
0.722622 0.0207065 0
0.749706 0.0274052 0
0.776791 0.0345312 0
0.803845 0.0419471 0
0.831022 0.0496071 0
0.0186313 0.0389563 0.0530098
0.0333715 0.0377661 0.0460365
0.0551156 0.0347448 0.0382391
0.0734264 0.0331273 0.0280919
0.0935225 0.0310979 0.0186007
0.115465 0.0288701 0.00907912
0.138506 0.0266728 0
0.163546 0.0229953 0
0.188388 0.0191806 0
0.212512 0.0167086 0
0.237385 0.0147097 0
0.262715 0.0133364 0
0.288441 0.0123751 0
0.314305 0.0115663 0
0.340475 0.0110475 0
0.367285 0.0112612 0
0.394217 0.0118868 0
0.421332 0.0128786 0
0.448493 0.0141146 0
0.476188 0.0156558 0
0.504402 0.0179751 0
0.532967 0.0207218 0
0.561624 0.0237278 0
0.590204 0.0269627 0
0.618708 0.0310521 0
0.646754 0.0364538 0
0.674846 0.042771 0
0.702541 0.0492256 0
0.730144 0.0558938 0
0.757427 0.0628977 0
0.784634 0.0702373 0
0.811826 0.0778515 0
0.839384 0.0862745 0
0.00598154 0.0521859 0.043534
0.0240635 0.0506142 0.0341497
0.0445411 0.047776 0.031342
0.0653544 0.0450446 0.0268559
0.0872053 0.0422065 0.0215
0.108782 0.0402075 0.012192
0.131472 0.0386206 0.00241093
0.156268 0.0369116 0
0.182269 0.0351415 0
0.208347 0.0334783 0
0.23444 0.0321508 0
0.260441 0.0315862 0
0.286992 0.0315404 0
0.314076 0.0320439 0
0.341451 0.0327764 0
0.36878 0.0336309 0
0.396368 0.0349889 0
0.424369 0.0369573 0
0.452674 0.0394293 0
0.481514 0.0422675 0
0.510124 0.0458686 0
0.53875 0.0500038 0
0.567529 0.0547036 0
0.596368 0.0598764 0
0.625101 0.0653849 0
0.65359 0.0714885 0
0.681682 0.0778363 0
0.709438 0.0846418 0
0.737133 0.0912337 0
0.764492 0.0978256 0
0.791745 0.104402 0
0.819242 0.11133 0
0.846677 0.117876 0
0 0.0666972 0.0257877
0.016022 0.064271 0.0208743
0.0386053 0.0610666 0.0189212
0.0558328 0.0601205 0.0171969
0.0786297 0.0588235 0.0119936
0.105638 0.0564431 0.0105898
0.132006 0.0546273 0.00769055
0.158068 0.0538033 0.00355535
0.183688 0.0538338 0
0.210239 0.0537881 0
0.237095 0.0540322 0
0.263859 0.0544137 0
0.290913 0.0551461 0
0.318456 0.0565805 0
0.346441 0.0584573 0
0.374578 0.0608682 0
0.402716 0.0635691 0
0.430915 0.0666667 0
0.459571 0.070634 0
0.488396 0.0747692 0
0.517327 0.0792859 0
0.546288 0.0842908 0
0.57525 0.089189 0
0.604273 0.0943465 0
0.633249 0.0997635 0
0.661662 0.105089 0
0.689754 0.110521 0
0.717571 0.11606 0
0.745342 0.121477 0
0.7729 0.127321 0
0.800427 0.133288 0
0.827741 0.139116 0
0.855253 0.145006 0
0 0.0817578 0.0129091
0.0108034 0.0803693 0.0108644
0.0353704 0.0786145 0.010544
0.0579232 0.0775158 0.0111543
0.07364 0.079408 0.00901808
0.0999313 0.0794842 0.00396735
0.130129 0.0782025 0.00407416
0.158968 0.0773938 0.00401312
0.186801 0.0769207 0.00250248
0.215152 0.0772564 0.000946059
0.243595 0.078706 0
0.272221 0.0812695 0
0.300404 0.0835431 0
0.328374 0.0859846 0
0.356451 0.0886549 0
0.384634 0.0917067 0
0.412924 0.0948959 0
0.441474 0.0988479 0
0.469902 0.102647 0
0.498558 0.10663 0
0.527321 0.110811 0
0.556176 0.115129 0
0.585077 0.119615 0
0.614176 0.124468 0
0.642847 0.129213 0
0.671229 0.134157 0
0.69929 0.139239 0
0.727077 0.144442 0
0.754879 0.149798 0
0.782528 0.155474 0
0.809888 0.160983 0
0.837201 0.166567 0
0.864729 0.172198 0
0 0.100923 0.00517281
0.00939956 0.100267 0.00466926
0.0350652 0.0994736 0.00534066
0.060029 0.0993668 0.00689708
0.0813001 0.100923 0.00914015
0.0986801 0.104784 0.00624094
0.127703 0.105867 0.00198367
0.160082 0.105913 0.00340276
0.191302 0.106401 0.00527962
0.221302 0.106798 0.00630198
0.250858 0.107591 0.00624094
0.280613 0.108858 0.00630198
0.31043 0.110948 0.00602731
0.339986 0.113725 0.00502022
0.369329 0.116884 0.00318914
0.397986 0.120378 0.000579843
0.426612 0.124437 0
0.454826 0.128359 0
0.48307 0.132387 0
0.511513 0.136339 0
0.540047 0.140459 0
0.568917 0.144991 0
0.597574 0.149371 0
0.626291 0.153841 0
0.654734 0.158434 0
0.682918 0.163195 0
0.710826 0.168093 0
0.738796 0.173434 0
0.7664 0.178546 0
0.793744 0.183764 0
0.821042 0.188922 0
0.848371 0.194018 0
0.875944 0.199069 0
0 0.123445 0.0009308
0.011368 0.123751 0.00177005
0.0378576 0.12372 0.00323491
0.0646372 0.124529 0.00578317
0.0901808 0.126055 0.00914015
0.11107 0.129931 0.0115053
0.130251 0.135775 0.00881971
0.161334 0.138186 0.00587472
0.195529 0.139467 0.00814832
0.22829 0.140719 0.0112764
0.260334 0.141833 0.0140383
0.290501 0.142428 0.0152895
0.31986 0.143069 0.0154116
0.349752 0.144274 0.0159304
0.380255 0.146288 0.0166781
0.410208 0.148852 0.0168612
0.439857 0.151888 0.0165255
0.469154 0.155261 0.0157168
0.498161 0.158953 0.0142519
0.526909 0.162905 0.0123903
0.55581 0.167285 0.0104982
0.584466 0.171649 0.00823987
0.612985 0.176059 0.00593576
0.641413 0.180591 0.0034638
0.669749 0.185153 0.00170901
0.697734 0.189837 6.10361e-05
0.725689 0.194812 0
0.753277 0.199664 0
0.780713 0.204547 0
0.807935 0.209476 0
0.835081 0.214435 0
0.862226 0.219425 0
0.889876 0.224674 0
0 0.148775 0
0.0162051 0.150362 0.00166323
0.0440375 0.151659 0.00445563
0.0719615 0.152895 0.0075227
0.0987869 0.154803 0.0110628
0.123583 0.157992 0.0154269
0.145754 0.163439 0.0175326
0.166079 0.170871 0.0152438
0.198795 0.174472 0.0135042
0.23386 0.176318 0.0157626
0.267811 0.177798 0.0196536
0.300313 0.17908 0.0229191
0.331838 0.17995 0.0257267
0.361608 0.180194 0.0267948
0.390845 0.180407 0.0269017
0.420294 0.181216 0.0274205
0.450248 0.182727 0.0285039
0.480186 0.184894 0.0295109
0.510094 0.187625 0.0301518
0.540185 0.191211 0.0309606
0.56997 0.194812 0.0311742
0.599405 0.198688 0.0307927
0.628534 0.202747 0.0300298
0.657511 0.206973 0.0289464
0.686107 0.211505 0.0280003
0.714336 0.21619 0.0271153
0.742061 0.220859 0.026215
0.769558 0.225605 0.0254673
0.796643 0.230472 0.0246433
0.82385 0.235294 0.0246433
0.85098 0.240391 0.0247654
0.87805 0.245472 0.0250401
0.90518 0.250431 0.0252995
0 0.177264 0.000610361
0.0233005 0.179492 0.00373846
0.0515297 0.181201 0.00694286
0.0804761 0.182986 0.0105745
0.108263 0.185382 0.0145571
0.136278 0.1879 0.0191958
0.15906 0.193271 0.0236973
0.182284 0.200031 0.0255589
0.203967 0.20798 0.0234226
0.237568 0.21207 0.0222019
0.273228 0.21445 0.0244297
0.308202 0.216434 0.0291447
0.341512 0.218021 0.0332341
0.373831 0.219211 0.03682
0.404822 0.219455 0.039292
0.433753 0.218982 0.0399023
0.462089 0.218616 0.0398413
0.491005 0.219043 0.0404212
0.520958 0.220356 0.0419471
0.550927 0.222232 0.043595
0.581125 0.22472 0.045243
0.611276 0.227771 0.0466468
0.641382 0.231281 0.0479744
0.671473 0.23505 0.0491646
0.700908 0.239231 0.0500649
0.729625 0.243427 0.0505379
0.757824 0.247807 0.0509041
0.785718 0.252308 0.0511635
0.813184 0.256947 0.0514382
0.840452 0.261799 0.0518807
0.867613 0.266773 0.0524453
0.89456 0.271641 0.0528878
0.921599 0.276524 0.0533608
0.00373846 0.207568 0.00349432
0.0315557 0.209964 0.0069276
0.060029 0.211902 0.0103761
0.0893111 0.213779 0.0140841
0.117845 0.216251 0.0182498
0.147066 0.219043 0.0229343
0.173266 0.223011 0.0283207
0.195819 0.229297 0.032166
0.219059 0.237705 0.033875
0.242939 0.246036 0.0323339
0.277501 0.250843 0.0319371
0.313741 0.254108 0.0345464
0.34966 0.256474 0.039765
0.383459 0.258076 0.0444648
0.416175 0.259098 0.048249
0.447944 0.259907 0.0519265
0.477852 0.259586 0.0540475
0.506325 0.258854 0.0547646
0.534173 0.257939 0.0545815
0.562554 0.257832 0.0550851
0.591928 0.258579 0.0565042
0.622003 0.260121 0.0586557
0.652552 0.262638 0.0613107
0.682902 0.26537 0.0636454
0.712718 0.26865 0.0658427
0.742245 0.272312 0.0680858
0.771267 0.276234 0.0702373
0.799969 0.280324 0.0722362
0.828305 0.284901 0.0742962
0.85597 0.289342 0.0758831
0.883375 0.293889 0.0773327
0.910658 0.298528 0.0786908
0.937881 0.303212 0.0799268
0.0119173 0.238163 0.0065919
0.0399634 0.240696 0.0102388
0.0685588 0.242741 0.0137942
0.0980087 0.244694 0.0175479
0.127535 0.247456 0.0221408
0.156878 0.250141 0.0265049
0.185702 0.253361 0.0319371
0.209598 0.259113 0.0373388
0.234134 0.266423 0.0413977
0.257084 0.276753 0.0431678
0.283314 0.285481 0.0425574
0.318654 0.291005 0.0430304
0.354955 0.294499 0.0454566
0.391592 0.29723 0.0509804
0.426413 0.299168 0.0565499
0.459419 0.30045 0.0610819
0.491386 0.301274 0.065095
0.52224 0.301457 0.0685435
0.551293 0.300359 0.0701915
0.578836 0.298756 0.0704051
0.606256 0.297353 0.0702068
0.634684 0.297108 0.071046
0.663783 0.297597 0.0726787
0.69369 0.298833 0.0751812
0.723537 0.300847 0.078172
0.753216 0.303441 0.0816052
0.782544 0.306493 0.0848249
0.811872 0.310231 0.0880751
0.840558 0.314061 0.0911421
0.868894 0.31809 0.0940261
0.897078 0.322225 0.0968948
0.924956 0.326497 0.0993362
0.952667 0.330877 0.101534
0.0200198 0.268925 0.00953689
0.0482032 0.271519 0.0133364
0.0770581 0.273838 0.0171359
0.106783 0.276005 0.0211032
0.136629 0.278462 0.0254826
0.166415 0.281331 0.029984
0.19617 0.284352 0.0351263
0.223484 0.289052 0.0413672
0.246937 0.296315 0.0467536
0.273793 0.305074 0.0514992
0.295995 0.316594 0.0530251
0.324132 0.325597 0.053254
0.36022 0.331823 0.0545357
0.396902 0.33579 0.0571145
0.434256 0.33904 0.062974
0.469795 0.341451 0.069398
0.502907 0.342565 0.0743572
0.534646 0.343008 0.0783551
0.566003 0.343267 0.0825513
0.595804 0.342535 0.08542
0.624338 0.340993 0.0869306
0.651514 0.338842 0.0870069
0.678721 0.33724 0.0870985
0.706691 0.336507 0.0878767
0.735164 0.336812 0.0897231
0.764294 0.33814 0.0926375
0.793484 0.340063 0.096025
0.822614 0.342428 0.0994736
0.851377 0.345296 0.102998
0.879957 0.348501 0.106493
0.908263 0.352026 0.109758
0.936904 0.356039 0.113268
0.96524 0.360098 0.116472
0.028336 0.299779 0.012726
0.0567025 0.30251 0.0167086
0.0856641 0.304906 0.0205997
0.115312 0.307012 0.0244755
0.145617 0.309468 0.0289158
0.175952 0.312428 0.0335851
0.206043 0.315541 0.0385443
0.235828 0.319753 0.0450141
0.261189 0.326207 0.0514992
0.285878 0.334356 0.0568551
0.313573 0.34461 0.0620737
0.335882 0.357122 0.0637064
0.365988 0.366583 0.0648966
0.403052 0.373587 0.0671244
0.439963 0.377966 0.0698863
0.477073 0.381231 0.0755627
0.513039 0.383749 0.0825513
0.546548 0.385031 0.0880751
0.5785 0.385245 0.0921492
0.609583 0.385199 0.0957961
0.639963 0.384573 0.0990005
0.668925 0.38291 0.101091
0.696712 0.380697 0.102174
0.723857 0.378546 0.102632
0.750835 0.377157 0.103304
0.778149 0.376623 0.104601
0.805737 0.376837 0.106569
0.83386 0.377783 0.109224
0.862135 0.379416 0.11252
0.890532 0.381567 0.116091
0.919081 0.384314 0.11989
0.947707 0.38732 0.123629
0.976059 0.390509 0.127199
0.0369879 0.331014 0.0162661
0.0653391 0.333684 0.0202335
0.0941634 0.335927 0.0239567
0.123812 0.338064 0.0278325
0.154437 0.340475 0.0322728
0.185336 0.343496 0.0371099
0.215961 0.347082 0.0423438
0.246357 0.350652 0.048188
0.274632 0.356069 0.0552071
0.299138 0.363897 0.0616007
0.325887 0.373205 0.0676127
0.353765 0.385183 0.0732128
0.377005 0.398581 0.0753185
0.408698 0.408255 0.0771649
0.445991 0.415488 0.0798657
0.482856 0.420188 0.0830701
0.519844 0.423529 0.0884108
0.556115 0.426123 0.0949264
0.590417 0.427695 0.100526
0.622141 0.427588 0.104494
0.652674 0.426642 0.107439
0.682902 0.425635 0.110582
0.712749 0.424491 0.113481
0.741711 0.42298 0.115862
0.768978 0.420844 0.117174
0.795544 0.418952 0.118135
0.821729 0.417533 0.119097
0.848249 0.416815 0.120485
0.875044 0.416968 0.122545
0.90248 0.41796 0.125368
0.930098 0.419303 0.128496
0.958251 0.421088 0.132006
0.986419 0.423316 0.135653
0.0454566 0.362127 0.0196536
0.0738689 0.364782 0.023621
0.102708 0.367041 0.0273594
0.132326 0.369177 0.03122
0.163165 0.371542 0.035584
0.194781 0.374777 0.0407568
0.225467 0.378225 0.0458228
0.256229 0.38175 0.0513924
0.286336 0.386358 0.0582895
0.313085 0.393469 0.0656748
0.338262 0.402579 0.0724041
0.367254 0.413199 0.0793011
0.394446 0.426673 0.0849165
0.418555 0.440116 0.0869764
0.451377 0.450004 0.0894789
0.488914 0.457572 0.0925612
0.526024 0.462745 0.0956893
0.562737 0.466011 0.100404
0.598932 0.46833 0.106371
0.633112 0.469535 0.111925
0.664958 0.469139 0.115831
0.695415 0.467811 0.118654
0.725948 0.466865 0.121691
0.756069 0.46595 0.124834
0.785183 0.464729 0.127672
0.813001 0.46302 0.129854
0.839628 0.461097 0.131411
0.865721 0.459342 0.132906
0.89163 0.458305 0.134432
0.917372 0.457542 0.135988
0.943511 0.457389 0.138003
0.970306 0.457786 0.140459
0.997497 0.458778 0.14342
0.0541543 0.393484 0.0232242
0.082536 0.396048 0.0271458
0.11133 0.398276 0.0308385
0.1411 0.40058 0.0348669
0.172137 0.402945 0.0392309
0.203845 0.405798 0.0440833
0.234867 0.409293 0.0492409
0.265766 0.412909 0.0546731
0.296681 0.417044 0.0611734
0.326162 0.423346 0.0691081
0.351736 0.431876 0.076585
0.37821 0.441672 0.0834363
0.408698 0.453681 0.0910964
0.435172 0.46836 0.0964828
0.460304 0.481758 0.0988327
0.494255 0.492042 0.102022
0.531884 0.499794 0.105287
0.568536 0.504631 0.107836
0.604776 0.507637 0.111818
0.640528 0.509575 0.117144
0.6748 0.510369 0.122301
0.707424 0.510399 0.126802
0.738323 0.509178 0.129915
0.768368 0.50779 0.132647
0.798108 0.506767 0.135637
0.827497 0.506004 0.138918
0.856016 0.505104 0.141955
0.883268 0.503532 0.144228
0.909346 0.501793 0.145953
0.934844 0.500175 0.147402
0.960082 0.498817 0.148791
0.985641 0.497841 0.150393
1 0.497734 0.152773
0.0629892 0.425147 0.0268864
0.0912795 0.427604 0.0307164
0.12015 0.429892 0.0344701
0.149737 0.432059 0.0383307
0.180697 0.434226 0.0424811
0.212665 0.436927 0.0472572
0.244053 0.440391 0.0524758
0.275074 0.444099 0.057847
0.30663 0.44828 0.0642405
0.337407 0.453468 0.0717021
0.365011 0.461097 0.0798047
0.390463 0.470451 0.0871443
0.418921 0.481346 0.094728
0.450324 0.49485 0.102983
0.475914 0.510384 0.108186
0.502144 0.523552 0.110704
0.536278 0.533532 0.113817
0.573831 0.541161 0.11696
0.61004 0.5458 0.119112
0.645747 0.548577 0.122393
0.681315 0.550179 0.127062
0.715953 0.551019 0.132204
0.74902 0.550988 0.136812
0.780163 0.550134 0.140398
0.810086 0.548821 0.143313
0.839658 0.54786 0.14638
0.868894 0.547204 0.149691
0.897612 0.546548 0.153017
0.9252 0.545525 0.155932
0.951843 0.544152 0.158312
0.977722 0.54258 0.16022
1 0.541131 0.161929
1 0.539788 0.163455
0.072343 0.457145 0.0311284
0.100755 0.459693 0.0350347
0.129351 0.461692 0.0385138
0.158663 0.463615 0.0421302
0.189578 0.465629 0.0460822
0.221653 0.468116 0.0507057
0.253376 0.471519 0.0559548
0.284794 0.475471 0.0615244
0.316136 0.479286 0.0673228
0.34757 0.483864 0.0743267
0.377249 0.49044 0.0825513
0.403677 0.499306 0.0906539
0.430106 0.509499 0.0982071
0.460853 0.521706 0.106767
0.491569 0.536156 0.114916
0.516426 0.551751 0.119463
0.543374 0.564492 0.12195
0.577844 0.574212 0.124987
0.614984 0.581628 0.127962
0.650843 0.586069 0.129763
0.686152 0.588434 0.132235
0.721569 0.589914 0.136507
0.756634 0.590799 0.141588
0.789944 0.591134 0.146548
0.821744 0.591028 0.150958
0.851774 0.590021 0.154238
0.880964 0.588891 0.157214
0.909773 0.588052 0.160327
0.938293 0.587564 0.16376
0.966506 0.587213 0.1673
0.993927 0.586465 0.170413
1 0.585061 0.172824
1 0.58349 0.174807
0.0821698 0.489601 0.0358434
0.110292 0.491829 0.0394446
0.138766 0.49369 0.0427863
0.167865 0.495445 0.0462196
0.198672 0.497261 0.0499428
0.230747 0.499535 0.0543832
0.262867 0.502892 0.059678
0.294194 0.506554 0.0649729
0.325551 0.510338 0.0705577
0.357244 0.514519 0.0770581
0.388159 0.520134 0.0849317
0.416754 0.528374 0.0937819
0.442679 0.538003 0.101701
0.470649 0.548943 0.10956
0.502373 0.561837 0.118456
0.531991 0.57705 0.126207
0.556313 0.592477 0.130129
0.584253 0.604883 0.132662
0.618387 0.614084 0.135424
0.655116 0.621057 0.137987
0.690898 0.625376 0.139528
0.726238 0.627863 0.141817
0.761883 0.629465 0.145876
0.797101 0.6309 0.151263
0.830701 0.631556 0.156466
0.862486 0.631571 0.161044
0.892744 0.63093 0.164797
0.921859 0.629999 0.168017
0.950393 0.629206 0.171191
0.978927 0.62887 0.174716
1 0.628504 0.178225
1 0.627863 0.181567
1 0.626795 0.184451
0.091783 0.521782 0.0403296
0.119905 0.52398 0.0439307
0.148363 0.525841 0.0472572
0.177401 0.52755 0.0506294
0.208316 0.529442 0.0544289
0.24033 0.531441 0.0585794
0.272297 0.534218 0.0633707
0.303716 0.537728 0.068574
0.335073 0.541451 0.073991
0.366735 0.545342 0.0800336
0.398459 0.55053 0.0876326
0.428443 0.557366 0.0961166
0.455467 0.566369 0.104631
0.481834 0.576547 0.112398
0.511116 0.588174 0.120684
0.543328 0.601801 0.129732
0.571771 0.617624 0.136995
0.595789 0.632578 0.140215
0.623789 0.644068 0.142321
0.658228 0.653162 0.145113
0.69514 0.660166 0.147707
0.73106 0.664637 0.14931
0.766873 0.667567 0.151751
0.802106 0.669322 0.155612
0.836912 0.670649 0.160632
0.870604 0.67158 0.165972
0.902724 0.671931 0.170916
0.933364 0.672038 0.175402
0.962432 0.671305 0.178912
0.990753 0.67042 0.18204
1 0.669596 0.185168
1 0.66894 0.188449
1 0.668452 0.191928
0.10135 0.553933 0.0448005
0.129473 0.556085 0.0483558
0.157931 0.557931 0.051667
0.187091 0.559808 0.0552224
0.217792 0.561471 0.0587625
0.249775 0.563272 0.0627298
0.281849 0.565789 0.0673228
0.313375 0.56907 0.0723735
0.344732 0.572656 0.0775921
0.376471 0.576638 0.0835431
0.408072 0.580941 0.0902419
0.439048 0.58674 0.0982528
0.467674 0.594736 0.106966
0.494057 0.60444 0.11519
0.521309 0.615244 0.123201
0.552026 0.627619 0.131991
0.583902 0.64184 0.140856
0.610788 0.657557 0.14699
0.634699 0.672038 0.149874
0.663432 0.683192 0.15198
0.698482 0.692454 0.155032
0.735546 0.699535 0.157748
0.771679 0.704097 0.15935
0.806775 0.706874 0.161425
0.841657 0.708751 0.165026
0.876112 0.710155 0.169833
0.910079 0.711437 0.175372
0.942199 0.712184 0.180621
0.972656 0.712261 0.185153
1 0.711727 0.188907
1 0.71075 0.192126
1 0.709682 0.195117
1 0.70901 0.198398
0.110826 0.586023 0.0491493
0.13901 0.58822 0.0527657
0.167605 0.590219 0.0562142
0.196506 0.591852 0.0595102
0.227039 0.593362 0.0628824
0.259022 0.595026 0.0666972
0.291203 0.59733 0.0711223
0.322972 0.600504 0.0761578
0.354559 0.604135 0.0814069
0.38587 0.607752 0.0868391
0.417533 0.611688 0.0930343
0.44892 0.616693 0.10045
0.479042 0.623606 0.10901
0.50663 0.632685 0.117769
0.532876 0.642893 0.125841
0.561059 0.654047 0.133883
0.592691 0.66685 0.142855
0.623819 0.68162 0.151324
0.649378 0.697292 0.156725
0.673762 0.711559 0.159503
0.703304 0.72253 0.161685
0.738308 0.731395 0.164477
0.775372 0.738308 0.167025
0.811078 0.742931 0.168673
0.845838 0.745815 0.170611
0.880522 0.748058 0.174212
0.914672 0.749462 0.178683
0.947845 0.750591 0.183841
0.979889 0.751385 0.189059
1 0.751659 0.19382
1 0.751415 0.198016
1 0.750607 0.201495
1 0.749386 0.204456
0.120333 0.617975 0.0535439
0.148623 0.620279 0.0572824
0.177005 0.622034 0.060502
0.205829 0.623621 0.0637522
0.236255 0.62504 0.0670176
0.268147 0.626581 0.0706645
0.300572 0.628763 0.0750134
0.332586 0.631861 0.0800488
0.364157 0.635233 0.0850996
0.395453 0.638849 0.0903944
0.427054 0.642603 0.0962539
0.458701 0.647059 0.103151
0.490043 0.653284 0.111559
0.518898 0.66125 0.120302
0.545312 0.670802 0.128634
0.571801 0.681163 0.136385
0.601129 0.692836 0.144732
0.633494 0.706218 0.153857
0.663417 0.721477 0.161929
0.687877 0.737072 0.166506
0.712703 0.750607 0.168811
0.742702 0.761059 0.170794
0.77792 0.76968 0.173465
0.814511 0.776516 0.176043
0.850034 0.781338 0.177844
0.884306 0.784253 0.179614
0.918288 0.786175 0.182528
0.951659 0.78764 0.18674
0.984497 0.788754 0.191684
1 0.78967 0.196902
1 0.790219 0.201984
1 0.790082 0.206348
1 0.78941 0.210101
0.1299 0.649973 0.0580301
0.1579 0.651957 0.0614481
0.186236 0.653681 0.064622
0.21503 0.655253 0.0678721
0.245426 0.656641 0.0710918
0.277623 0.658396 0.0749065
0.310063 0.66038 0.079118
0.342046 0.663096 0.0838178
0.373754 0.666392 0.0888533
0.405051 0.669932 0.0940414
0.436545 0.673579 0.0996109
0.468589 0.677943 0.10634
0.500099 0.683101 0.113893
0.53019 0.690028 0.122438
0.557626 0.698787 0.131029
0.583566 0.708614 0.138949
0.610803 0.719295 0.146731
0.641566 0.731716 0.155566
0.673533 0.745373 0.164462
0.701946 0.76054 0.171527
0.725902 0.775784 0.175326
0.750942 0.788754 0.177249
0.781491 0.798825 0.179126
0.816632 0.807446 0.182025
0.852689 0.814023 0.184421
0.88748 0.818586 0.185946
0.921416 0.821485 0.187549
0.954604 0.823545 0.190219
0.987945 0.825452 0.194507
1 0.826764 0.199374
1 0.827726 0.204547
1 0.828397 0.209751
1 0.82858 0.214481
0.139116 0.681605 0.0621653
0.167132 0.683589 0.0655833
0.195483 0.685313 0.0687572
0.224277 0.686885 0.0719921
0.254841 0.688502 0.0754253
0.286793 0.689952 0.0789349
0.31928 0.691783 0.0829938
0.351415 0.694331 0.087602
0.383276 0.697505 0.0925765
0.414618 0.700984 0.097673
0.446281 0.704829 0.103319
0.477943 0.708568 0.10927
0.509667 0.713085 0.116258
0.54052 0.719036 0.124346
0.569223 0.726833 0.132952
0.595819 0.736324 0.141421
0.62179 0.746303 0.149004
0.649973 0.75729 0.156832
0.680964 0.769665 0.165454
0.712398 0.783642 0.173968
0.739574 0.798856 0.180179
0.763317 0.813962 0.183459
0.788785 0.826291 0.185122
0.819333 0.83592 0.186908
0.853956 0.844114 0.189532
0.889662 0.850706 0.192035
0.924376 0.855482 0.193744
0.958099 0.859022 0.195804
0.991043 0.861341 0.198398
1 0.863096 0.202213
1 0.864485 0.206882
1 0.865599 0.21207
1 0.866377 0.217304
0.148348 0.713252 0.0663157
0.176364 0.715236 0.0697337
0.204852 0.717083 0.0730297
0.233783 0.718776 0.0763867
0.264027 0.720134 0.0795453
0.295903 0.721462 0.0829328
0.32842 0.723156 0.0868544
0.360647 0.725505 0.0912947
0.392721 0.728618 0.0962844
0.424186 0.732052 0.10135
0.455497 0.735515 0.106538
0.487007 0.73904 0.112123
0.518791 0.743038 0.118547
0.549889 0.748119 0.125994
0.579828 0.755016 0.134493
0.607248 0.763546 0.142962
0.633021 0.773022 0.150729
0.659342 0.783078 0.158053
0.688151 0.794293 0.165942
0.719707 0.806912 0.174533
0.750484 0.821393 0.182712
0.776669 0.836774 0.18822
0.800015 0.851286 0.190814
0.82591 0.863203 0.192508
0.856672 0.872709 0.194476
0.891066 0.880873 0.197223
0.926879 0.887831 0.200122
0.960998 0.89279 0.202014
0.994156 0.896223 0.203784
1 0.89868 0.20621
1 0.900465 0.20972
1 0.902068 0.214298
1 0.903181 0.219303
0.157443 0.74493 0.0702678
0.18555 0.746975 0.0737621
0.214069 0.748867 0.0770886
0.242817 0.750362 0.0802472
0.272923 0.751629 0.0833295
0.304677 0.752834 0.0865644
0.337179 0.75436 0.0903182
0.369574 0.756603 0.0946975
0.401709 0.759472 0.0994888
0.433036 0.762585 0.104295
0.464195 0.76585 0.109224
0.49546 0.769177 0.114458
0.527214 0.772778 0.120394
0.558755 0.777462 0.127535
0.589166 0.783169 0.135332
0.617533 0.79057 0.143587
0.643824 0.799405 0.151568
0.669352 0.808988 0.158953
0.696422 0.819471 0.166476
0.726421 0.831327 0.174823
0.758419 0.844434 0.18349
0.788235 0.859144 0.191012
0.813336 0.874434 0.195819
0.836591 0.888533 0.198077
0.862867 0.900191 0.199924
0.893782 0.909682 0.202136
0.927901 0.917769 0.204883
0.962676 0.924422 0.207584
0.996429 0.929427 0.209476
1 0.932891 0.211093
1 0.935424 0.213321
1 0.937301 0.21651
1 0.938537 0.220493
0.166842 0.77673 0.0746014
0.194781 0.778592 0.0778973
0.223011 0.780194 0.0809644
0.251728 0.781628 0.0840467
0.281682 0.782834 0.0870222
0.313329 0.783902 0.0901198
0.345953 0.785428 0.0938735
0.378225 0.787274 0.0979019
0.410193 0.789715 0.102327
