LUT/LumixLab/Luminous city.cube
TITLE "Generated by Resolve"
#LUMIXPHOTOSTYLE VIVD
LUT_3D_SIZE 9
0.0202335 0.023331 0.0598917
0.109163 0.0177462 0.0244602
0.199008 0.00694286 0
0.293629 0 0
0.394934 0 0
0.501122 0 0
0.612024 0.00314336 0
0.722622 0.0207065 0
0.831022 0.0496071 0
0 0.0817578 0.0129091
0.07364 0.079408 0.00901808
0.186801 0.0769207 0.00250248
0.300404 0.0835431 0
0.412924 0.0948959 0
0.527321 0.110811 0
0.642847 0.129213 0
0.754879 0.149798 0
0.864729 0.172198 0
0 0.177264 0.000610361
0.108263 0.185382 0.0145571
0.203967 0.20798 0.0234226
0.341512 0.218021 0.0332341
0.462089 0.218616 0.0398413
0.581125 0.22472 0.045243
0.700908 0.239231 0.0500649
0.813184 0.256947 0.0514382
0.921599 0.276524 0.0533608
0.028336 0.299779 0.012726
0.145617 0.309468 0.0289158
0.261189 0.326207 0.0514992
0.365988 0.366583 0.0648966
0.513039 0.383749 0.0825513
0.639963 0.384573 0.0990005
0.750835 0.377157 0.103304
0.862135 0.379416 0.11252
0.976059 0.390509 0.127199
0.0629892 0.425147 0.0268864
0.180697 0.434226 0.0424811
0.30663 0.44828 0.0642405
0.418921 0.481346 0.094728
0.536278 0.533532 0.113817
0.681315 0.550179 0.127062
0.810086 0.548821 0.143313
0.9252 0.545525 0.155932
1 0.539788 0.163455
0.10135 0.553933 0.0448005
0.217792 0.561471 0.0587625
0.344732 0.572656 0.0775921
0.467674 0.594736 0.106966
0.583902 0.64184 0.140856
0.698482 0.692454 0.155032
0.841657 0.708751 0.165026
0.972656 0.712261 0.185153
1 0.70901 0.198398
0.139116 0.681605 0.0621653
0.254841 0.688502 0.0754253
0.383276 0.697505 0.0925765
0.509667 0.713085 0.116258
0.62179 0.746303 0.149004
0.739574 0.798856 0.180179
0.853956 0.844114 0.189532
0.991043 0.861341 0.198398
1 0.866377 0.217304
0.175692 0.807996 0.0783856
0.289998 0.813565 0.0902724
0.418204 0.819516 0.104692
0.543359 0.831708 0.124086
0.665095 0.853269 0.153414
0.772 0.892668 0.183948
0.885069 0.948547 0.210208
0.997055 0.98819 0.217533
1 1 0.223621
0.20737 0.929747 0.0895705
0.320592 0.934371 0.100481
0.448692 0.938445 0.1131
0.573602 0.948363 0.13019
0.69633 0.960906 0.151736
0.802991 0.988052 0.179721
0.911467 1 0.204898
1 1 0.218326
1 1 0.217502
0.015671 0.0238041 0.133837
0.121263 0.00703441 0.117037
0.210773 0.00218204 0.0535286
0.300023 0 0.00814832
0.398474 0 0
0.503197 0.00361639 0
0.612467 0.0181582 0
0.721248 0.0413825 0
0.828992 0.0708324 0
0 0.0755169 0.105623
0.0737774 0.0805219 0.084596
0.176165 0.0844892 0.0590372
0.288045 0.0942245 0.0395209
0.403342 0.107698 0.0244297
0.519905 0.123827 0.0135805
0.637308 0.141695 0.00648508
0.750805 0.160723 0.00407416
0.862074 0.180957 0.00630198
0 0.181399 0.086244
0.0981003 0.195422 0.0904555
0.205203 0.209903 0.100679
0.336355 0.216144 0.107149
0.454643 0.220539 0.107713
0.570504 0.234104 0.103365
0.684672 0.251041 0.0962539
0.795727 0.269154 0.0928206
0.905287 0.288258 0.0941329
0.0186923 0.305882 0.0913405
0.133822 0.320897 0.105974
0.260533 0.330983 0.123857
0.363973 0.365652 0.138933
0.50901 0.380911 0.153368
0.629389 0.378393 0.159777
0.739178 0.373205 0.157336
0.854932 0.382986 0.16463
0.9673 0.39855 0.171374
0.0518349 0.431357 0.1028
0.168185 0.445701 0.119707
0.298924 0.455787 0.137499
0.416693 0.48101 0.166018
0.535271 0.533654 0.188602
0.684672 0.553506 0.203983
0.807996 0.54905 0.211917
0.914595 0.539651 0.213046
1 0.533288 0.211963
0.08925 0.560357 0.119829
0.203632 0.57142 0.134615
0.334066 0.578271 0.149493
0.462837 0.596292 0.175586
0.581338 0.640726 0.213153
0.703456 0.698589 0.23566
0.847715 0.714702 0.243946
0.973205 0.714275 0.256855
1 0.708217 0.263066
0.126726 0.688502 0.137011
0.240665 0.69836 0.151308
0.37026 0.70309 0.164019
0.499458 0.717128 0.18558
0.620737 0.745541 0.219059
0.741512 0.798764 0.255711
0.858625 0.849912 0.269673
0.996521 0.867002 0.276509
1 0.870222 0.291615
0.162966 0.815122 0.153094
0.275639 0.823133 0.165957
0.403281 0.825544 0.176181
0.532296 0.836042 0.194461
0.658579 0.853346 0.220539
0.76878 0.891386 0.254444
0.888869 0.94902 0.287343
1 0.99263 0.296239
1 1 0.29984
0.193927 0.936645 0.16379
0.306111 0.94374 0.176028
0.432685 0.945068 0.185046
0.56144 0.951843 0.200168
0.685069 0.962768 0.218906
0.799771 0.985473 0.247242
0.905165 1 0.273976
1 1 0.293385
1 1 0.293065
0.00677501 0.0226596 0.24625
0.108064 0.00381476 0.242939
0.229007 0 0.197528
0.327413 0 0.125551
0.422568 0 0.0914321
0.523537 0.00759899 0.0630961
0.630289 0.0271916 0.0404669
0.735912 0.0529488 0.0267643
0.840864 0.0826276 0.0196536
0 0.0855116 0.172213
0.0637064 0.0841077 0.195163
0.196216 0.0763867 0.191302
0.306371 0.0914931 0.143954
0.414252 0.108705 0.119112
0.524376 0.126864 0.101274
0.637522 0.1458 0.0898299
0.748318 0.165606 0.0839857
0.857618 0.186252 0.0835889
0.0108339 0.168185 0.23003
0.104494 0.190249 0.226291
0.203922 0.210498 0.214572
0.318318 0.221286 0.195972
0.433921 0.23299 0.178988
0.549691 0.246098 0.165316
0.666438 0.260792 0.155673
0.780713 0.278035 0.152255
0.892332 0.29633 0.153124
0.0111391 0.293431 0.237415
0.115373 0.321401 0.229053
0.241749 0.340352 0.234318
0.35555 0.358618 0.247623
0.489143 0.365484 0.253925
0.6038 0.366171 0.248722
0.718532 0.378042 0.238972
0.828519 0.39443 0.228595
0.936477 0.411872 0.221714
0.0290379 0.423789 0.225086
0.145663 0.448783 0.233402
0.277363 0.466667 0.249546
0.409659 0.478874 0.269871
0.521859 0.521859 0.292256
0.66923 0.539391 0.307271
0.7841 0.530953 0.305394
0.883421 0.519905 0.294102
0.993576 0.526711 0.29604
0.0641337 0.55613 0.234989
0.178378 0.573892 0.243748
0.308995 0.588571 0.260685
0.444739 0.59997 0.280034
0.567132 0.630167 0.31313
0.695277 0.692073 0.344411
0.847379 0.714153 0.360159
0.962219 0.706493 0.361761
1 0.691096 0.354101
0.1019 0.686793 0.248661
0.214969 0.701808 0.259861
0.341726 0.711269 0.273167
0.476204 0.718227 0.288411
0.607385 0.738369 0.316686
0.731014 0.788922 0.359686
0.859922 0.852903 0.387717
0.998856 0.869184 0.394049
1 0.866896 0.401953
0.137942 0.814572 0.262638
0.249653 0.827359 0.27451
0.374472 0.833875 0.285664
0.506264 0.836713 0.296788
0.63653 0.851209 0.318868
0.759213 0.882719 0.355032
0.885542 0.941833 0.396872
1 0.994217 0.412772
1 1 0.414832
0.168856 0.937194 0.272618
0.280079 0.948608 0.284657
0.40383 0.953429 0.294728
0.532906 0.953109 0.302525
0.660624 0.961715 0.318914
0.783597 0.976699 0.342641
0.890532 1 0.373266
1 1 0.402792
1 1 0.406317
0 0.0198215 0.368261
0.100114 0 0.370703
0.208545 0 0.352148
0.343969 0 0.297948
0.455955 0 0.221637
0.556848 0 0.186496
0.662516 0.0203098 0.165026
0.767163 0.0491493 0.152026
0.870787 0.0795148 0.1449
0 0.0907454 0.288258
0.0584573 0.08748 0.323613
0.191394 0.0821698 0.338872
0.331548 0.0756237 0.31223
0.450736 0.0974136 0.250889
0.557198 0.119661 0.225116
0.665888 0.141543 0.204089
0.773297 0.162387 0.188281
0.878508 0.184649 0.178744
0 0.180285 0.30277
0.0753338 0.20705 0.304555
0.200107 0.218112 0.344808
0.339849 0.214313 0.347082
0.457221 0.229114 0.296971
0.564004 0.246159 0.270726
0.673884 0.262852 0.24744
0.783032 0.281666 0.232929
0.891234 0.301015 0.224445
0.0380865 0.275715 0.377661
0.135836 0.302052 0.378149
0.246311 0.331395 0.377371
0.350607 0.357427 0.370413
0.467674 0.368551 0.348821
0.581598 0.379324 0.32961
0.696269 0.390784 0.312749
0.808438 0.404807 0.300847
0.919051 0.42092 0.293126
0.0357366 0.398672 0.390921
0.134157 0.425788 0.387854
0.254093 0.461219 0.384604
0.388418 0.488289 0.390784
0.506477 0.508034 0.405844
0.636652 0.512306 0.409125
0.748837 0.511498 0.399252
0.857527 0.523049 0.386053
0.963378 0.538186 0.372671
0.0455634 0.532723 0.390143
0.147341 0.556054 0.375479
0.280369 0.587289 0.383032
0.420264 0.610849 0.40235
0.555215 0.624094 0.423575
0.673976 0.672511 0.452018
0.822797 0.691188 0.467979
0.92668 0.677378 0.45893
1 0.660853 0.440528
0.0731975 0.670222 0.383688
0.182437 0.690517 0.383856
0.310796 0.71017 0.390341
0.447471 0.728008 0.409247
0.584878 0.739544 0.428748
0.709697 0.771588 0.463966
0.846281 0.841031 0.502831
0.994858 0.864866 0.519844
1 0.854261 0.516793
0.107347 0.803021 0.392126
0.218006 0.820066 0.394751
0.343252 0.834089 0.402045
0.472831 0.843305 0.414435
0.607889 0.849546 0.428946
0.740734 0.871199 0.458686
0.869444 0.926131 0.506462
0.998444 0.994247 0.539666
1 1 0.542412
0.138338 0.929046 0.398123
0.249378 0.943938 0.40296
0.372686 0.954955 0.411353
0.499168 0.959884 0.420508
0.628199 0.958892 0.427741
0.754604 0.969558 0.445975
0.874159 0.996597 0.478004
0.993896 1 0.517113
1 1 0.530419
0 0.0159152 0.486992
0.0897993 0 0.493889
0.201877 0 0.48159
0.323064 0 0.462318
0.469429 0 0.403449
0.59118 0 0.328435
0.697734 0.00766003 0.288029
0.801678 0.0397498 0.267933
0.904189 0.07393 0.253178
0 0.0943465 0.409888
0.0544747 0.0918898 0.45069
0.193439 0.0878462 0.474189
0.323491 0.0856489 0.473289
0.470893 0.0773938 0.431312
0.594858 0.10454 0.362509
0.701839 0.131548 0.330068
0.806958 0.156466 0.310506
0.910643 0.180865 0.295033
0 0.202808 0.39266
0.0692607 0.222309 0.42826
0.202655 0.229084 0.478447
0.343389 0.227527 0.497154
0.480766 0.217304 0.468254
0.602152 0.234104 0.403861
0.708156 0.254505 0.375998
0.813519 0.275715 0.355474
0.91754 0.2972 0.338842
0.0271763 0.284779 0.460609
0.108171 0.315663 0.446586
0.217105 0.352102 0.455634
0.352239 0.367987 0.503594
0.490211 0.362036 0.504433
0.608759 0.374395 0.451225
0.714275 0.390021 0.423072
0.819364 0.405875 0.399512
0.92398 0.423438 0.381949
0.065919 0.385626 0.524453
0.158114 0.406332 0.519249
0.271733 0.438697 0.521798
0.391852 0.476081 0.527047
0.500359 0.505653 0.526131
0.616831 0.515663 0.501167
0.728527 0.525429 0.478965
0.837659 0.535729 0.461402
0.945403 0.548272 0.447868
0.0696574 0.510979 0.548501
0.155398 0.526925 0.534432
0.26598 0.556924 0.529671
0.394934 0.599512 0.53434
0.534249 0.633478 0.542687
0.654459 0.654521 0.55906
0.781262 0.655802 0.559121
0.887098 0.654383 0.547005
0.98967 0.663676 0.53019
0.0727855 0.642954 0.550774
0.163699 0.660533 0.536339
0.274968 0.684611 0.516686
0.415915 0.722118 0.526543
0.560525 0.75021 0.54876
0.69572 0.763882 0.57023
0.81973 0.816114 0.602747
0.963684 0.835325 0.619318
1 0.817517 0.605386
0.0875105 0.777661 0.544396
0.186877 0.797162 0.52665
0.306889 0.817411 0.5205
0.43975 0.838697 0.526802
0.579614 0.859266 0.547601
0.717281 0.871351 0.567575
0.843946 0.904509 0.604013
0.979263 0.976745 0.646799
1 0.99968 0.661555
0.110643 0.909514 0.532464
0.216495 0.927611 0.528542
0.338094 0.943603 0.526818
0.465888 0.956741 0.531777
0.593698 0.963623 0.54139
0.722972 0.964614 0.55053
0.851057 0.980804 0.574807
0.971283 1 0.61799
1 1 0.650935
0 0.0120851 0.59852
0.079057 0 0.608011
0.197635 0 0.601892
0.316609 0 0.59144
0.450904 0 0.568872
0.603845 0 0.506569
0.730144 0 0.433295
0.836637 0.025803 0.391348
0.938384 0.0637827 0.368566
0 0.0972 0.526574
0.0506447 0.0959487 0.570138
0.193133 0.0937972 0.599557
0.328389 0.0953994 0.606531
0.459922 0.0875257 0.594995
0.611627 0.0806592 0.540078
0.737453 0.114626 0.46923
0.842725 0.145937 0.43267
0.945052 0.172946 0.413169
0 0.217731 0.507912
0.0652018 0.233219 0.549416
0.20589 0.240208 0.604944
0.352712 0.239963 0.631739
0.480064 0.234073 0.626719
0.62211 0.220447 0.577539
0.745571 0.241169 0.508431
0.849317 0.265782 0.478065
0.9514 0.288823 0.458625
0 0.316304 0.521218
0.0871748 0.34432 0.534508
0.218509 0.373114 0.579339
0.360327 0.383978 0.634958
0.500267 0.381079 0.651469
0.631708 0.364797 0.615213
0.751583 0.379309 0.550164
0.852811 0.397742 0.523049
0.954208 0.417227 0.502037
0.0704204 0.394598 0.616312
0.15053 0.416831 0.599786
0.244556 0.453101 0.585077
0.365148 0.499229 0.60238
0.505531 0.518807 0.654719
0.639857 0.509575 0.650721
0.75642 0.520623 0.596567
0.856794 0.534768 0.568795
0.957748 0.54931 0.544839
0.0991073 0.502327 0.671031
0.184329 0.516014 0.6589
0.286549 0.536645 0.649973
0.408988 0.575097 0.657633
0.536416 0.61915 0.669322
0.648447 0.65156 0.672602
0.762875 0.660121 0.644877
0.868437 0.668025 0.622126
0.97203 0.676051 0.602884
0.102876 0.625315 0.696727
0.187106 0.63949 0.682246
0.280705 0.653437 0.662104
0.397421 0.686915 0.659632
0.533165 0.735515 0.669825
0.67599 0.773022 0.682567
0.796933 0.794736 0.699062
0.91754 0.794797 0.698375
1 0.790082 0.683742
0.100099 0.754055 0.696788
0.186557 0.768246 0.681529
0.285161 0.783276 0.660533
0.400565 0.808576 0.640726
0.547753 0.851286 0.655863
0.694331 0.881773 0.680842
0.828534 0.89453 0.701503
0.948684 0.947646 0.735332
1 0.965225 0.749096
0.105058 0.88217 0.693019
0.196567 0.89929 0.672679
0.304875 0.917189 0.647532
0.427176 0.936339 0.639216
0.559304 0.95584 0.643854
0.694575 0.972259 0.660746
0.825971 0.978058 0.674464
0.943191 1 0.705333
1 1 0.746136
0 0.00848402 0.708446
0.0684367 0 0.719905
0.191852 0 0.719966
0.31368 0 0.714153
0.442466 0 0.705226
0.587854 0 0.677882
0.742885 0 0.611627
0.86685 0 0.542626
0.972992 0.0459144 0.497948
0 0.0996567 0.642222
0.0463722 0.099443 0.68716
0.190616 0.0981308 0.720012
0.331624 0.100359 0.732265
0.462074 0.0991989 0.731777
0.59884 0.0888533 0.710018
0.753231 0.087068 0.647272
0.87631 0.125887 0.579431
0.980743 0.160342 0.538598
0 0.227985 0.623362
0.0605631 0.240848 0.668513
0.205463 0.247547 0.725811
0.356512 0.249683 0.75935
0.491112 0.250294 0.764675
0.615763 0.23505 0.745068
0.764416 0.225055 0.684627
0.885557 0.250248 0.617761
0.987839 0.277623 0.581552
0 0.342397 0.617914
0.0874189 0.367117 0.653239
0.218372 0.387823 0.702419
0.368032 0.399466 0.763989
0.515221 0.398825 0.789578
0.636316 0.387106 0.778408
0.772778 0.367559 0.720974
0.890089 0.384878 0.654627
0.990173 0.407141 0.624231
0.0368811 0.425788 0.673869
0.116854 0.453056 0.661723
0.228717 0.487373 0.675898
0.372 0.525353 0.729641
0.517906 0.538933 0.788388
0.654871 0.534066 0.801999
0.780392 0.511131 0.756954
0.893797 0.524224 0.694545
0.991302 0.541161 0.667643
0.109758 0.507424 0.767346
0.19176 0.525505 0.752224
0.280629 0.547204 0.730739
0.381964 0.588525 0.719554
0.511742 0.643534 0.745159
0.655848 0.666758 0.801328
0.786404 0.6533 0.790829
0.895582 0.662837 0.737865
0.991073 0.674861 0.709316
0.131243 0.617792 0.815015
0.216052 0.631083 0.802533
0.308492 0.641932 0.783902
0.41445 0.663539 0.775021
0.542947 0.707271 0.787747
0.675074 0.756191 0.804623
0.789334 0.789319 0.809812
0.897475 0.797299 0.781552
0.998199 0.803326 0.758129
0.132647 0.737301 0.839231
0.215381 0.749645 0.82385
0.306004 0.760372 0.801846
0.401175 0.773175 0.779309
0.522759 0.810666 0.780606
0.663325 0.864256 0.795377
0.808042 0.902235 0.810559
0.921187 0.921523 0.825101
1 0.917571 0.819974
0.124132 0.861418 0.836896
0.207507 0.873945 0.819104
0.300649 0.884688 0.796216
0.399405 0.896971 0.770886
0.513863 0.920043 0.748501
0.659175 0.960708 0.762905
0.801038 0.985809 0.783368
0.923964 0.99237 0.797543
1 1 0.828214
0 0.00511177 0.817716
0.0588693 0 0.831556
0.185412 0 0.836576
0.312505 0 0.834546
0.440848 0 0.832319
0.576928 0 0.821729
0.729305 0 0.787015
0.878416 0 0.721553
1 0.013138 0.654612
0 0.102541 0.757824
0.0423133 0.103105 0.803464
0.187869 0.102602 0.83888
0.332143 0.104417 0.855497
0.464897 0.106737 0.859724
0.595956 0.101183 0.852491
0.740703 0.0916457 0.821912
0.890013 0.0949874 0.758373
1 0.13698 0.692103
0 0.236103 0.738705
0.0569314 0.247669 0.787259
0.202991 0.252796 0.843656
0.354955 0.254826 0.879911
0.496834 0.25774 0.891905
0.623362 0.25275 0.887404
0.754864 0.236118 0.858076
0.901595 0.231937 0.795666
1 0.25951 0.729854
0 0.361151 0.730266
0.0847486 0.381613 0.771115
0.21593 0.397681 0.822675
0.369375 0.408515 0.885557
0.522362 0.411688 0.919539
0.654047 0.410239 0.922377
0.770062 0.38558 0.892699
0.908858 0.37229 0.830243
1 0.392447 0.764614
0.0065156 0.457313 0.744045
0.105806 0.485603 0.758953
0.235538 0.51725 0.799863
0.375402 0.54345 0.855131
0.529595 0.558343 0.920272
0.675059 0.556848 0.944137
0.788861 0.537621 0.92517
0.914595 0.513771 0.864271
1 0.528466 0.799008
0.0884871 0.533333 0.83389
0.163607 0.558709 0.813733
0.251164 0.587182 0.795514
0.370855 0.627665 0.81387
0.524086 0.674891 0.876783
0.672053 0.690669 0.937667
0.804822 0.682048 0.946639
0.918578 0.653376 0.896422
1 0.66389 0.833951
0.145418 0.620218 0.913985
0.22826 0.636103 0.899596
0.317678 0.651911 0.878141
0.408942 0.673182 0.855283
0.515633 0.719142 0.848417
0.651637 0.780896 0.880583
0.798276 0.805966 0.938888
0.920333 0.79057 0.92575
1 0.797391 0.872023
0.159686 0.729778 0.954452
0.242878 0.741482 0.940398
0.334386 0.751415 0.920913
0.427893 0.760525 0.899596
0.536294 0.783841 0.89218
0.668513 0.831662 0.90927
0.803449 0.882826 0.92871
0.910094 0.913298 0.930297
1 0.913832 0.897856
0.157626 0.845609 0.975677
0.238651 0.856107 0.958999
0.326863 0.864088 0.935195
0.415976 0.870588 0.907683
0.506828 0.878401 0.879606
0.625879 0.913436 0.878737
0.76553 0.965408 0.890791
0.90103 0.997635 0.903166
1 1 0.913695
0 0.00183108 0.927504
0.0500954 0 0.944289
0.1794 0 0.953704
0.311192 0 0.956085
0.440101 0 0.957275
0.573983 0 0.954925
0.715877 0 0.939239
0.865705 0 0.900938
1 0 0.836774
0 0.106111 0.875166
0.0387732 0.107301 0.921218
0.184939 0.107134 0.958251
0.330968 0.108553 0.978408
0.467979 0.111742 0.985595
0.598978 0.11136 0.98587
0.733166 0.103487 0.972168
0.877775 0.0967269 0.937194
1 0.103044 0.874723
0 0.243442 0.856092
0.0535744 0.25388 0.90692
0.200397 0.257969 0.962417
0.352453 0.25951 1
0.498543 0.262638 1
0.629618 0.264057 1
0.755871 0.253147 1
0.890806 0.240314 0.97406
1 0.239567 0.912215
0 0.37496 0.846876
0.0796979 0.392264 0.889067
0.213397 0.405783 0.943633
0.366781 0.413703 1
0.52105 0.417029 1
0.66186 0.419883 1
0.782589 0.408835 1
0.9019 0.38645 1
1 0.378943 0.946166
0 0.484321 0.842893
0.105058 0.510948 0.875456
0.236103 0.535271 0.922011
0.374289 0.554726 0.97789
0.532509 0.569024 1
0.685176 0.57261 1
0.813031 0.567514 1
0.916197 0.536263 1
1 0.518318 0.978103
0.0492256 0.567117 0.889418
0.1337 0.594202 0.88397
0.244633 0.625879 0.897917
0.384161 0.664424 0.94548
0.530755 0.69633 1
0.687205 0.713619 1
0.829831 0.709545 1
0.932662 0.685405 1
1 0.654475 1
0.134264 0.640589 0.990265
0.210727 0.663081 0.97052
0.292699 0.687938 0.943664
0.383108 0.717403 0.924666
0.508782 0.762997 0.948211
0.668421 0.816831 1
0.818067 0.833524 1
0.943374 0.823621 1
1 0.788251 1
0.175738 0.72987 1
0.257679 0.743297 1
0.347417 0.75639 1
0.438453 0.771145 0.996185
0.530053 0.792111 0.972702
0.63946 0.841138 0.969207
0.77998 0.906905 1
0.918181 0.929198 1
1 0.905638 1
0.184009 0.837613 1
0.265324 0.847593 1
0.353674 0.854414 1
0.442878 0.859205 1
0.530709 0.861952 0.998825
0.634333 0.880842 0.987152
0.764492 0.92639 1
0.891737 0.973297 1
0.991653 1 1
