LUT/LumixLab/Luminous city.cube
TITLE "Generated by Resolve"
#LUMIXPHOTOSTYLE VIVD
LUT_3D_SIZE 5
0.0202335 0.023331 0.0598917
0.199008 0.00694286 0
0.394934 0 0
0.612024 0.00314336 0
0.831022 0.0496071 0
0 0.177264 0.000610361
0.203967 0.20798 0.0234226
0.462089 0.218616 0.0398413
0.700908 0.239231 0.0500649
0.921599 0.276524 0.0533608
0.0629892 0.425147 0.0268864
0.30663 0.44828 0.0642405
0.536278 0.533532 0.113817
0.810086 0.548821 0.143313
1 0.539788 0.163455
0.139116 0.681605 0.0621653
0.383276 0.697505 0.0925765
0.62179 0.746303 0.149004
0.853956 0.844114 0.189532
1 0.866377 0.217304
0.20737 0.929747 0.0895705
0.448692 0.938445 0.1131
0.69633 0.960906 0.151736
0.911467 1 0.204898
1 1 0.217502
0.00677501 0.0226596 0.24625
0.229007 0 0.197528
0.422568 0 0.0914321
0.630289 0.0271916 0.0404669
0.840864 0.0826276 0.0196536
0.0108339 0.168185 0.23003
0.203922 0.210498 0.214572
0.433921 0.23299 0.178988
0.666438 0.260792 0.155673
0.892332 0.29633 0.153124
0.0290379 0.423789 0.225086
0.277363 0.466667 0.249546
0.521859 0.521859 0.292256
0.7841 0.530953 0.305394
0.993576 0.526711 0.29604
0.1019 0.686793 0.248661
0.341726 0.711269 0.273167
0.607385 0.738369 0.316686
0.859922 0.852903 0.387717
1 0.866896 0.401953
0.168856 0.937194 0.272618
0.40383 0.953429 0.294728
0.660624 0.961715 0.318914
0.890532 1 0.373266
1 1 0.406317
0 0.0159152 0.486992
0.201877 0 0.48159
0.469429 0 0.403449
0.697734 0.00766003 0.288029
0.904189 0.07393 0.253178
0 0.202808 0.39266
0.202655 0.229084 0.478447
0.480766 0.217304 0.468254
0.708156 0.254505 0.375998
0.91754 0.2972 0.338842
0.065919 0.385626 0.524453
0.271733 0.438697 0.521798
0.500359 0.505653 0.526131
0.728527 0.525429 0.478965
0.945403 0.548272 0.447868
0.0727855 0.642954 0.550774
0.274968 0.684611 0.516686
0.560525 0.75021 0.54876
0.81973 0.816114 0.602747
1 0.817517 0.605386
0.110643 0.909514 0.532464
0.338094 0.943603 0.526818
0.593698 0.963623 0.54139
0.851057 0.980804 0.574807
1 1 0.650935
0 0.00848402 0.708446
0.191852 0 0.719966
0.442466 0 0.705226
0.742885 0 0.611627
0.972992 0.0459144 0.497948
0 0.227985 0.623362
0.205463 0.247547 0.725811
0.491112 0.250294 0.764675
0.764416 0.225055 0.684627
0.987839 0.277623 0.581552
0.0368811 0.425788 0.673869
0.228717 0.487373 0.675898
0.517906 0.538933 0.788388
0.780392 0.511131 0.756954
0.991302 0.541161 0.667643
0.131243 0.617792 0.815015
0.308492 0.641932 0.783902
0.542947 0.707271 0.787747
0.789334 0.789319 0.809812
0.998199 0.803326 0.758129
0.124132 0.861418 0.836896
0.300649 0.884688 0.796216
0.513863 0.920043 0.748501
0.801038 0.985809 0.783368
1 1 0.828214
0 0.00183108 0.927504
0.1794 0 0.953704
0.440101 0 0.957275
0.715877 0 0.939239
1 0 0.836774
0 0.243442 0.856092
0.200397 0.257969 0.962417
0.498543 0.262638 1
0.755871 0.253147 1
1 0.239567 0.912215
0 0.484321 0.842893
0.236103 0.535271 0.922011
0.532509 0.569024 1
0.813031 0.567514 1
1 0.518318 0.978103
0.134264 0.640589 0.990265
0.292699 0.687938 0.943664
0.508782 0.762997 0.948211
0.818067 0.833524 1
1 0.788251 1
0.184009 0.837613 1
0.353674 0.854414 1
0.530709 0.861952 0.998825
0.764492 0.92639 1
0.991653 1 1
