LUT/LumixLab/Moody Blues.cube
TITLE "Generated by Resolve"
#LUMIXPHOTOSTYLE NAT
LUT_3D_SIZE 33
0.0134737 0.0209964 0.0317388
0.0163729 0.0237278 0.0352178
0.019791 0.0265812 0.0388647
0.025803 0.0306401 0.0438697
0.0320134 0.0347143 0.0488899
0.0433204 0.0403143 0.055375
0.0546426 0.0459449 0.0618601
0.0745556 0.0521859 0.0687572
0.0953689 0.0585336 0.075761
0.123873 0.0648051 0.0824445
0.154314 0.0710765 0.0891127
0.189944 0.0763561 0.0945754
0.228611 0.0810712 0.099321
0.270191 0.0833143 0.101564
0.314168 0.083238 0.101289
0.359121 0.0803845 0.097734
0.404715 0.0739605 0.0902876
0.448859 0.065919 0.0813306
0.490791 0.0537118 0.0680247
0.531762 0.0403449 0.0532692
0.568399 0.0210117 0.0290379
0.604868 0.00259403 0.00616464
0.638025 0.00172427 0.00514229
0.671183 0.00105287 0.00430304
0.705791 0.000564584 0.00329595
0.740169 0.000106813 0.00241093
0.77998 4.57771e-05 0.00137331
0.820844 4.57771e-05 0.000411994
0.866651 4.57771e-05 0.000137331
0.913893 4.57771e-05 0.000137331
0.953719 4.57771e-05 0.000137331
0.989151 4.57771e-05 0.000137331
1 4.57771e-05 0.000137331
0.0196384 0.030869 0.0417182
0.0221866 0.0329442 0.0441596
0.02533 0.0349889 0.0466926
0.0307774 0.0372931 0.049836
0.0367437 0.0398108 0.0531777
0.0482338 0.0444038 0.0583658
0.0598611 0.049073 0.0636606
0.0808423 0.0543069 0.0691997
0.102495 0.0595712 0.0747234
0.132677 0.0644083 0.0794995
0.164508 0.0690623 0.0840467
0.20116 0.0725109 0.0870832
0.240467 0.0753796 0.0894484
0.282582 0.0754101 0.0884871
0.326574 0.073106 0.0847791
0.370962 0.0683909 0.0772106
0.415595 0.0603189 0.0641337
0.458625 0.0517739 0.0513924
0.498497 0.0417945 0.038407
0.537255 0.0317845 0.0259861
0.572091 0.0208743 0.0138552
0.60676 0.0105592 0.00288396
0.639445 0.00746166 0.00247196
0.672114 0.00427253 0.00204471
0.706493 0.00227359 0.00164797
0.740932 0.00030518 0.00117494
0.780819 3.0518e-05 0.000686656
0.822003 4.57771e-05 0.000274662
0.867567 4.57771e-05 0.000137331
0.914778 4.57771e-05 0.00015259
0.954665 4.57771e-05 0.00015259
0.989761 4.57771e-05 0.000137331
1 4.57771e-05 0.000137331
0.025803 0.0416876 0.0513466
0.0280766 0.0432136 0.0529335
0.03093 0.0445106 0.0544594
0.0360876 0.0456092 0.0561227
0.0418097 0.0467842 0.0578622
0.0537728 0.0503548 0.061799
0.0657816 0.0539101 0.0656901
0.0878767 0.0581826 0.0696422
0.110338 0.0623026 0.0735485
0.141619 0.0657359 0.0757916
0.175021 0.0688792 0.0776532
0.212558 0.0707103 0.0776989
0.252277 0.0719005 0.0771801
0.294057 0.0702983 0.0733501
0.338079 0.0665904 0.0666514
0.381857 0.0608682 0.0553902
0.425269 0.0520638 0.0392309
0.466529 0.0437018 0.0246128
0.504402 0.0366522 0.0128634
0.541329 0.0295567 0.00341802
0.57467 0.0264897 0.00167849
0.608164 0.0224613 0.000137331
0.640452 0.0171817 0.000137331
0.67274 0.0119173 0.000137331
0.707164 0.00906386 0.000137331
0.74165 0.00590524 0.000137331
0.781979 0.00509651 0.00015259
0.822797 0.00502022 0.00015259
0.868467 0.00492866 0.00015259
0.91603 0.00453193 0.00015259
0.955291 0.00442512 0.00015259
0.990341 0.00430304 0.00015259
1 0.00396735 0.000137331
0.0323033 0.0571756 0.059968
0.0343175 0.0582132 0.0609445
0.037171 0.0593881 0.0620584
0.0426642 0.0609445 0.0635386
0.0488746 0.062562 0.0650797
0.0618601 0.0647135 0.0671397
0.0746471 0.0665599 0.0690929
0.0973068 0.0698558 0.0703899
0.120439 0.0732738 0.0715343
0.152789 0.0755322 0.0689097
0.186587 0.0773938 0.0656443
0.224613 0.0787518 0.0598611
0.263569 0.0795911 0.0535134
0.304417 0.0794995 0.0460212
0.345998 0.0784466 0.0383154
0.387228 0.0763256 0.0300603
0.428504 0.0724193 0.0216068
0.468437 0.0686198 0.0137942
0.505592 0.0647746 0.00709545
0.541863 0.0608377 0.00177005
0.575143 0.0586404 0.000839246
0.608331 0.0560311 0.000122072
0.640604 0.0524147 0.000122072
0.673167 0.0489967 0.000137331
0.707683 0.0465095 0.000137331
0.742184 0.0440375 0.000137331
0.7823 0.0427405 0.000137331
0.823499 0.0419318 0.00015259
0.869215 0.0411994 0.00015259
0.916335 0.0399023 0.00015259
0.955795 0.0394598 0.00015259
0.99089 0.0383154 0.00015259
1 0.037232 0.00015259
0.0385748 0.0725261 0.0682994
0.0403754 0.0732891 0.0686961
0.0431678 0.0740368 0.0693523
0.0490578 0.0761425 0.0707103
0.0557717 0.0781109 0.0719463
0.0695964 0.0787366 0.0721447
0.0834211 0.0793469 0.0723278
0.10663 0.081651 0.0708476
0.13019 0.0840162 0.0693523
0.163409 0.08542 0.0619211
0.198093 0.0860304 0.0536507
0.236072 0.0870069 0.0422217
0.274861 0.08748 0.0298314
0.314122 0.0887617 0.0193179
0.35346 0.0905013 0.0103151
0.392767 0.0918898 0.00517281
0.432013 0.0929274 0.00434882
0.470268 0.0934768 0.00321965
0.506722 0.0931868 0.00146487
0.542412 0.0923781 0.000106813
0.575631 0.0910658 0.000106813
0.608743 0.0896925 0.000106813
0.641047 0.0879072 0.000122072
0.673365 0.0858473 0.000137331
0.707897 0.0843519 0.000137331
0.742702 0.0822003 0.000137331
0.782956 0.0803693 0.000137331
0.823835 0.0788586 0.000137331
0.869963 0.0774243 0.00015259
0.917021 0.0763867 0.00015259
0.956298 0.0738842 0.00015259
0.991424 0.0717021 0.00015259
1 0.0707866 0.00015259
0.038468 0.0959029 0.0675822
0.0405585 0.0965133 0.0677195
0.0438849 0.0968185 0.0679026
0.0509194 0.0975509 0.0682994
0.0586557 0.098436 0.0687266
0.0716106 0.100526 0.0692149
0.084535 0.102632 0.0697185
0.109987 0.103944 0.0659495
0.135927 0.105058 0.0621347
0.168124 0.107347 0.0525521
0.201709 0.109194 0.0420386
0.238178 0.112032 0.0310674
0.276112 0.114549 0.020264
0.314473 0.116976 0.0129091
0.353704 0.119738 0.00787366
0.392935 0.121752 0.00488289
0.432181 0.123476 0.00399786
0.47042 0.124315 0.00289921
0.506859 0.124971 0.00132753
0.542519 0.124514 0.000106813
0.575784 0.122866 0.000106813
0.608927 0.12224 0.000106813
0.641245 0.120104 0.000122072
0.673869 0.118547 0.000137331
0.70837 0.117098 0.000137331
0.74287 0.115633 0.000137331
0.783551 0.114748 0.000137331
0.824445 0.113939 0.000137331
0.870298 0.113222 0.00015259
0.917739 0.112902 0.00015259
0.956527 0.112139 0.00015259
0.991974 0.110826 0.00015259
1 0.110399 0.00015259
0.0383764 0.11928 0.0668803
0.0407568 0.119356 0.066743
0.0446326 0.119387 0.0665141
0.0528267 0.118944 0.065919
0.0615091 0.118624 0.0655375
0.073579 0.122194 0.066331
0.0856641 0.125933 0.0671092
0.113329 0.126024 0.0611124
0.141527 0.126253 0.0548867
0.172869 0.129259 0.0431067
0.205051 0.132753 0.0302129
0.240253 0.136416 0.0201877
0.276967 0.140978 0.0108492
0.315145 0.144747 0.00657664
0.354269 0.148806 0.00552377
0.393103 0.151873 0.00448615
0.432349 0.154009 0.00366217
0.470558 0.155703 0.00257877
0.507012 0.156222 0.0011902
0.542641 0.156405 0.000106813
0.576211 0.1552 0.000106813
0.609369 0.154498 0.000106813
0.641703 0.15314 0.000122072
0.674098 0.151522 0.000137331
0.708568 0.150423 0.000137331
0.743328 0.14873 0.000137331
0.783795 0.148821 0.000137331
0.824735 0.149004 0.000137331
0.871015 0.149325 0.00015259
0.918074 0.150088 0.00015259
0.957061 0.150164 0.00015259
0.992218 0.150393 0.00015259
1 0.150484 0.00015259
0.0264591 0.147616 0.0475929
0.030396 0.148028 0.046952
0.0366217 0.147768 0.046952
0.048188 0.147509 0.0473487
0.0600443 0.146761 0.0484321
0.0726635 0.146212 0.0514382
0.0852827 0.145678 0.0544442
0.109773 0.150225 0.0510414
0.134722 0.154177 0.0477913
0.168734 0.157015 0.0350652
0.204547 0.158938 0.0211032
0.240635 0.163424 0.0134127
0.277165 0.16878 0.00781262
0.315267 0.17348 0.00535592
0.354345 0.178363 0.00468452
0.393515 0.181918 0.0037995
0.432761 0.184619 0.00259403
0.470924 0.186999 0.00151064
0.507393 0.187549 0.000671397
0.542992 0.187945 7.62951e-05
0.576318 0.187121 9.15541e-05
0.609491 0.185962 0.000106813
0.64184 0.184665 0.000122072
0.67425 0.183383 0.000122072
0.709026 0.182177 0.000122072
0.743496 0.181521 0.000137331
0.783993 0.181476 0.000137331
0.825238 0.182071 0.000137331
0.871275 0.183062 0.000137331
0.918761 0.184543 0.00015259
0.95729 0.185657 0.00015259
0.992737 0.186343 0.00015259
1 0.186725 0.00015259
0.0128786 0.176898 0.0257115
0.0187076 0.177234 0.0246128
0.027451 0.176745 0.0248112
0.0427558 0.176806 0.0267185
0.0580148 0.175937 0.0293126
0.0713207 0.170733 0.0346075
0.0846876 0.165148 0.0402228
0.105364 0.174456 0.0404212
0.125948 0.183612 0.0405585
0.163394 0.185336 0.0273899
0.203647 0.18529 0.0124208
0.241047 0.190326 0.00746166
0.277241 0.196551 0.00593576
0.315343 0.202289 0.00482185
0.354421 0.207721 0.00422675
0.393576 0.212192 0.00309758
0.432807 0.215457 0.00140383
0.47097 0.21828 0.000320439
0.507454 0.21912 0.000167849
0.543069 0.219699 3.0518e-05
0.576425 0.218982 7.62951e-05
0.609598 0.218158 0.000106813
0.642222 0.216602 0.000106813
0.674678 0.215366 0.000122072
0.709194 0.214313 0.000122072
0.743664 0.213809 0.000137331
0.784512 0.214145 0.000137331
0.825391 0.214832 0.000137331
0.8719 0.216724 0.000137331
0.919066 0.218814 0.000137331
0.957794 0.220295 0.00015259
0.99295 0.221927 0.00015259
1 0.222538 0.00015259
0.00737011 0.209171 0.0151064
0.0143282 0.209216 0.0141299
0.0243381 0.209766 0.0137179
0.0416724 0.2094 0.0154726
0.0589914 0.208881 0.0174105
0.0752117 0.203082 0.0216526
0.0915694 0.198306 0.0255741
0.108675 0.201831 0.0339666
0.12575 0.20589 0.0420539
0.158785 0.211429 0.0317082
0.194247 0.217273 0.0187228
0.234028 0.221866 0.0115663
0.274815 0.225544 0.00640879
0.314778 0.231235 0.00396735
0.354314 0.237034 0.00300603
0.393668 0.242298 0.00184634
0.432898 0.246113 0.000686656
0.471031 0.249088 0
0.507576 0.250706 0
0.543191 0.251194 1.5259e-05
0.576516 0.250507 6.10361e-05
0.609934 0.249714 0.000106813
0.642298 0.248432 0.000106813
0.674815 0.246921 0.000106813
0.709316 0.24625 0.000122072
0.744091 0.245563 0.000122072
0.78471 0.246479 0.000122072
0.82591 0.247486 0.000137331
0.872175 0.249897 0.000137331
0.919753 0.252293 0.000137331
0.957992 0.254307 0.00015259
0.993454 0.256489 0.00015259
1 0.257572 0.00015259
0.00485237 0.242573 0.00907912
0.0126497 0.242863 0.00781262
0.023682 0.242557 0.00721752
0.0422065 0.242771 0.00781262
0.0610971 0.242222 0.00856031
0.0811475 0.238849 0.00973526
0.101076 0.235935 0.0111238
0.114977 0.230488 0.029099
0.128771 0.225299 0.046952
0.154543 0.23711 0.0403601
0.181628 0.250568 0.0307927
0.224308 0.254841 0.0196384
0.271611 0.256184 0.00796521
0.313954 0.260807 0.00289921
0.354116 0.267155 0.00149538
0.393774 0.272435 0.000579843
0.432975 0.277317 0.000198367
0.471107 0.28043 0
0.507713 0.282032 0
0.543328 0.282948 1.5259e-05
0.576883 0.282017 6.10361e-05
0.609995 0.281239 0.000106813
0.642374 0.280217 0.000106813
0.674922 0.278691 0.000106813
0.709712 0.277806 0.000106813
0.744213 0.277455 0.000122072
0.784894 0.278676 0.000122072
0.826123 0.279957 0.000137331
0.872435 0.282872 0.000137331
0.920043 0.285801 0.000137331
0.95819 0.288899 0.00015259
0.993652 0.29131 0.00015259
1 0.292271 0.00015259
0.0034638 0.278614 0.00587472
0.0106203 0.278614 0.00436408
0.0216068 0.278599 0.00329595
0.0421302 0.279149 0.00334173
0.063035 0.278508 0.00347906
0.0860761 0.276905 0.00341802
0.108965 0.275441 0.00375372
0.122972 0.265858 0.0199435
0.13698 0.257023 0.0357977
0.158099 0.265934 0.0412604
0.179889 0.27715 0.0453803
0.218158 0.28423 0.0328069
0.261219 0.290089 0.0158694
0.305501 0.294713 0.00683604
0.350072 0.298772 0.00210575
0.39237 0.303685 0
0.432547 0.308553 0
0.471214 0.311864 0
0.50782 0.313436 0
0.543679 0.315038 1.5259e-05
0.576959 0.314122 4.57771e-05
0.610056 0.313329 9.15541e-05
0.642466 0.311727 9.15541e-05
0.675319 0.31043 0.000106813
0.709819 0.30985 0.000106813
0.74432 0.309529 0.000106813
0.785397 0.31078 0.000122072
0.826307 0.312352 0.000137331
0.873091 0.315511 0.000137331
0.920317 0.319173 0.000137331
0.958663 0.322469 0.00015259
0.993851 0.325628 0.00015259
1 0.326421 0.00015259
0.0027924 0.316091 0.005066
0.00823987 0.316411 0.00271611
0.0188907 0.316381 0.00112917
0.0415808 0.316289 0.0011902
0.0647898 0.316442 0.00125124
0.0902724 0.315572 0.00132753
0.115496 0.315053 0.00158694
0.13225 0.306065 0.00729381
0.148745 0.296818 0.0133059
0.167468 0.297154 0.0366064
0.186114 0.297978 0.0613718
0.214618 0.310643 0.049546
0.245594 0.326574 0.0277104
0.291188 0.331853 0.0140383
0.343206 0.332128 0.00444038
0.389914 0.334844 0
0.431754 0.339712 0
0.471626 0.343389 0
0.508217 0.345449 0
0.54374 0.34638 0
0.57702 0.345724 1.5259e-05
0.610132 0.344656 3.0518e-05
0.642802 0.343496 7.62951e-05
0.67541 0.341894 0.000106813
0.709911 0.341573 0.000106813
0.744701 0.340978 0.000106813
0.78555 0.34229 0.000122072
0.826459 0.344167 0.000137331
0.87332 0.348028 0.000137331
0.920592 0.352697 0.000137331
0.958862 0.355886 0.00015259
0.994308 0.360067 0.00015259
1 0.360678 0.00015259
0.00201419 0.354604 0.00408942
0.00561532 0.353979 0.00172427
0.0156863 0.35491 0
0.040528 0.354467 0
0.0657969 0.354376 1.5259e-05
0.0932479 0.354376 0.000122072
0.120409 0.354086 0.000213626
0.140597 0.346685 0.000274662
0.160632 0.339376 0.000335698
0.177066 0.332479 0.0286259
0.193042 0.325689 0.0591897
0.215961 0.33846 0.0571908
0.24065 0.356329 0.0464637
0.2822 0.363958 0.0294499
0.331212 0.36759 0.00949111
0.379324 0.370535 0.000595102
0.426551 0.37322 0.000198367
0.469596 0.375799 0
0.507469 0.377142 0
0.543755 0.37821 0
0.577066 0.377554 0
0.610193 0.37673 1.5259e-05
0.642878 0.375235 4.57771e-05
0.675517 0.373602 9.15541e-05
0.710002 0.373037 0.000106813
0.744778 0.372732 0.000106813
0.785702 0.374578 0.000122072
0.826947 0.376715 0.000122072
0.873549 0.381018 0.000137331
0.921218 0.385641 0.000137331
0.958999 0.389776 0.000137331
0.994476 0.393835 0.000137331
1 0.394842 0.000137331
0.00114443 0.392691 0.00326543
0.00260929 0.393042 0.00134279
0.0120851 0.393011 0
0.0387427 0.393179 0
0.0658427 0.393042 0
0.0946975 0.392996 4.57771e-05
0.123323 0.392752 9.15541e-05
0.148013 0.388663 0.000106813
0.172473 0.384604 0.000137331
0.187015 0.373205 0.0164797
0.200885 0.362371 0.0335546
0.223804 0.367208 0.0533761
0.249287 0.377234 0.07393
0.279149 0.390646 0.0550088
0.311101 0.406149 0.0182498
0.357733 0.411429 0.00177005
0.415106 0.409201 0.000686656
0.464973 0.408469 0
0.505592 0.409689 0
0.54374 0.410269 0
0.577096 0.409079 0
0.610513 0.408469 0
0.642954 0.406928 1.5259e-05
0.675624 0.405509 4.57771e-05
0.710384 0.40502 7.62951e-05
0.744915 0.404547 0.000106813
0.785855 0.406561 0.000122072
0.827115 0.40885 0.000122072
0.873747 0.413626 0.000122072
0.921386 0.418708 0.000137331
0.959106 0.423285 0.000137331
0.994614 0.427771 0.000137331
1 0.428885 0.000137331
0.000503548 0.430869 0.00218204
0.000503548 0.43151 0.000915541
0.00949111 0.431174 0
0.0372015 0.430991 0
0.0653391 0.431144 0
0.095552 0.431067 0
0.125612 0.4309 0
0.153918 0.429664 0
0.181964 0.427802 0
0.196643 0.414694 0.00656138
0.210361 0.400946 0.0134737
0.232105 0.399207 0.0468147
0.255772 0.400626 0.0861067
0.278187 0.416098 0.0730297
0.300206 0.438178 0.0367742
0.343038 0.44686 0.0158236
0.400671 0.445533 0.00531014
0.453239 0.444327 0
0.49929 0.443671 0
0.541634 0.442496 0
0.576196 0.441444 0
0.610529 0.440528 0
0.643 0.438651 0
0.675715 0.437186 0
0.71046 0.436728 6.10361e-05
0.745007 0.436332 0.000106813
0.786313 0.438544 0.000106813
0.827253 0.441016 0.000106813
0.874327 0.446281 0.000122072
0.921584 0.451514 0.000122072
0.959503 0.457099 0.000122072
0.994751 0.461692 0.000122072
1 0.462898 0.000122072
0.000564584 0.467704 0.0010071
0.000564584 0.468055 0.000366217
0.00941482 0.468009 0
0.0360266 0.467826 0
0.0635386 0.467948 0
0.0949874 0.467887 0
0.126345 0.467765 0
0.156329 0.467079 0
0.186099 0.466697 0
0.205432 0.456413 0.00296025
0.224048 0.446296 0.00608835
0.240864 0.43743 0.0325017
0.25742 0.429435 0.0641184
0.282246 0.439017 0.0756847
0.310567 0.455833 0.0789349
0.343587 0.470176 0.0582284
0.379355 0.482841 0.0203861
0.425666 0.486641 0
0.483604 0.48098 0
0.534646 0.476921 0
0.573434 0.474571 0
0.610498 0.472114 0
0.643 0.470436 0
0.676051 0.46891 0
0.71046 0.468681 6.10361e-05
0.745037 0.468009 0.000106813
0.786358 0.470771 0.000106813
0.827329 0.473228 0.000106813
0.87451 0.47895 0.000122072
0.921813 0.484871 0.000122072
0.95964 0.490028 0.000122072
0.995178 0.495613 0.000122072
1 0.497124 0.000122072
0.000640879 0.504204 0
0.00062562 0.504234 0
0.00927749 0.503914 0
0.0345769 0.50399 0
0.0614328 0.504082 0
0.0941329 0.504005 0
0.126726 0.503944 0
0.158221 0.50396 0
0.189456 0.50399 0
0.213184 0.497047 0
0.236332 0.489555 0
0.249577 0.475822 0.0190738
0.260731 0.46041 0.041886
0.286641 0.463584 0.0744488
0.318608 0.474342 0.110643
0.343221 0.492607 0.0934768
0.362783 0.515969 0.0399176
0.40325 0.524987 0.0090486
0.466651 0.518288 0.00340276
0.523644 0.511772 0
0.567712 0.508019 0
0.608881 0.504494 0
0.642283 0.502449 0
0.676066 0.500633 0
0.710475 0.499855 6.10361e-05
0.745083 0.499718 0.000106813
0.786419 0.502739 0.000106813
0.82742 0.505714 0.000106813
0.874693 0.51133 0.000106813
0.922438 0.517754 0.000106813
0.959777 0.523796 0.000122072
0.9953 0.529213 0.000122072
1 0.531075 0.000122072
0.000701915 0.536797 0
0.000686656 0.537102 0
0.00883497 0.537057 0
0.032105 0.536873 0
0.0577096 0.536721 0
0.0915847 0.536889 0
0.125277 0.536812 0
0.157351 0.536812 0
0.189181 0.536797 0
0.216052 0.532616 0
0.242466 0.528267 0
0.258213 0.515221 0.00932326
0.271778 0.50045 0.020737
0.29218 0.496178 0.0521096
0.315282 0.496284 0.0912184
0.342 0.508721 0.0998093
0.370825 0.529915 0.0864881
0.405035 0.544381 0.0611124
0.444587 0.552453 0.0237736
0.490898 0.554437 0
0.547692 0.546487 0
0.599588 0.539391 0
0.637873 0.535653 0
0.675944 0.532631 0
0.71046 0.531868 3.0518e-05
0.745586 0.531807 4.57771e-05
0.786557 0.534737 7.62951e-05
0.827848 0.538231 0.000106813
0.874846 0.544259 0.000106813
0.922576 0.55108 0.000106813
0.959838 0.55726 0.000122072
0.995392 0.563348 0.000122072
1 0.565011 0.000122072
0.000747692 0.569604 0
0.000747692 0.569635 0
0.00833143 0.569833 0
0.029633 0.569421 0
0.0539864 0.569268 0
0.0889906 0.569406 0
0.123766 0.569558 0
0.156191 0.569284 0
0.188846 0.569497 0
0.218799 0.567742 0
0.248386 0.566445 0
0.266667 0.554421 0
0.282826 0.540734 0
0.297642 0.528511 0.030396
0.3122 0.518318 0.0713054
0.340826 0.525353 0.104005
0.378347 0.543877 0.130983
0.405829 0.564172 0.111177
0.423056 0.585962 0.0441596
0.460151 0.595468 0.00303655
0.527993 0.584161 0.000610361
0.588968 0.575158 0
0.633631 0.568597 0
0.675425 0.564248 0
0.710246 0.563668 0
0.745724 0.563333 0
0.786664 0.566751 6.10361e-05
0.827955 0.570199 0.000106813
0.874983 0.577203 0.000106813
0.922728 0.584161 0.000106813
0.959899 0.590723 0.000106813
0.995483 0.596948 0.000106813
1 0.598932 0.000106813
0.000808728 0.599359 0
0.000808728 0.600137 0
0.0075227 0.599847 0
0.0256352 0.59971 0
0.0480201 0.599573 0
0.0848554 0.59942 0
0.121004 0.599542 0
0.153903 0.599527 0
0.187106 0.599252 0
0.218051 0.598718 0
0.248707 0.597894 0
0.270481 0.588556 0
0.290669 0.578302 0
0.305455 0.565377 0.0158846
0.318303 0.551659 0.0381018
0.34168 0.551461 0.072343
0.371649 0.559777 0.114321
0.400595 0.575402 0.121065
0.428382 0.598138 0.0929427
0.462821 0.613199 0.0617685
0.506416 0.616388 0.0260471
0.553231 0.616419 0
0.610193 0.60763 0
0.663859 0.600015 0
0.704555 0.597299 0
0.745464 0.594995 0
0.786557 0.598581 6.10361e-05
0.827985 0.602457 0.000106813
0.875074 0.609873 0.000106813
0.922805 0.617807 0.000106813
0.960204 0.624842 0.000106813
0.995529 0.631434 0.000106813
1 0.632914 0.000106813
0.000869764 0.629618 0
0.000854505 0.630137 0
0.0065919 0.629862 0
0.0218204 0.629496 0
0.0423896 0.629877 0
0.0807202 0.62945 0
0.118196 0.629786 0
0.151644 0.629267 0
0.185306 0.629511 0
0.217334 0.62945 0
0.249058 0.629374 0
0.274372 0.623026 0
0.298726 0.616587 0
0.313222 0.601984 0.00169375
0.324407 0.585153 0.00389105
0.342535 0.577569 0.0407111
0.364843 0.575753 0.0975662
0.395453 0.58674 0.131533
0.433799 0.610224 0.141802
0.464729 0.631525 0.119905
0.483894 0.649012 0.0496529
0.517479 0.658213 0
0.587732 0.645594 0
0.652491 0.635447 0
0.699245 0.631144 0
0.74519 0.627741 0
0.78645 0.630945 6.10361e-05
0.828016 0.634699 0.000106813
0.875547 0.642359 0.000106813
0.922881 0.650645 0.000106813
0.96022 0.658076 0.000106813
0.995575 0.665644 0.000106813
1 0.667155 0.000106813
0.0009308 0.658946 0
0.000915541 0.659464 0
0.00489815 0.659449 0
0.0155947 0.659113 0
0.0333867 0.659754 0
0.0747539 0.659312 0
0.1149 0.659129 0
0.148913 0.659068 0
0.183215 0.658778 0
0.215549 0.659022 0
0.247623 0.659037 0
0.275349 0.655131 0
0.302373 0.650904 0
0.319738 0.638376 0.000183108
0.333913 0.623194 0.000457771
0.349645 0.612039 0.0285649
0.366171 0.602853 0.0725872
0.392554 0.606867 0.109194
0.427787 0.622873 0.138705
0.459205 0.641306 0.138476
0.485222 0.663691 0.097322
0.518135 0.678843 0.0580606
0.567193 0.678355 0.0262303
0.617487 0.676555 0
0.675929 0.669535 0
0.732891 0.66334 0
0.78024 0.665766 3.0518e-05
0.827253 0.667628 6.10361e-05
0.875257 0.675868 9.15541e-05
0.922911 0.684184 0.000106813
0.96022 0.691722 0.000106813
0.995895 0.699428 0.000106813
1 0.701198 0.000106813
0.000991836 0.688731 0
0.000976577 0.689006 0
0.00318914 0.688991 0
0.00888075 0.689433 0
0.0242466 0.689082 0
0.0682536 0.688884 0
0.111513 0.68893 0
0.146151 0.688579 0
0.181018 0.688731 0
0.213657 0.688487 0
0.245975 0.688991 0
0.276036 0.687236 0
0.305669 0.684901 0
0.326192 0.674754 3.0518e-05
0.343679 0.661067 7.62951e-05
0.357198 0.646891 0.0182498
0.368368 0.631388 0.0466316
0.389685 0.628077 0.0840772
0.420142 0.635416 0.130114
0.452918 0.650553 0.154177
0.489113 0.676768 0.148196
0.521843 0.698466 0.123018
0.546288 0.710796 0.0543374
0.57995 0.718547 0
0.65066 0.708721 0
0.719432 0.699855 0
0.773205 0.699931 0
0.826398 0.700587 1.5259e-05
0.874937 0.708858 6.10361e-05
0.922957 0.717754 0.000106813
0.96022 0.725643 0.000106813
0.995911 0.733745 0.000106813
1 0.735531 0.000106813
0.00105287 0.720485 0
0.00105287 0.7205 0
0.0021973 0.7205 0
0.00512703 0.720745 0
0.0189822 0.720653 0
0.0639506 0.720409 0
0.108034 0.720439 0
0.143465 0.720607 0
0.179232 0.719951 0
0.212238 0.7205 0
0.245014 0.720241 0
0.27628 0.719127 0
0.307317 0.718456 0
0.330663 0.710292 0
0.351675 0.699687 0
0.366384 0.685557 0.0102083
0.377737 0.669261 0.0257572
0.395392 0.660502 0.0588388
0.418952 0.658961 0.107393
0.44828 0.667826 0.141619
0.48571 0.689296 0.158053
0.519463 0.710658 0.152148
0.544839 0.730953 0.100221
0.576318 0.746334 0.0529641
0.631464 0.743618 0.024918
0.687221 0.740917 0
0.750927 0.738903 0
0.814374 0.736828 0
0.868208 0.743938 4.57771e-05
0.921843 0.751431 0.000106813
0.959625 0.759609 0.000106813
0.995804 0.767941 0.000106813
1 0.769726 0.000106813
0.00111391 0.75259 0
0.00111391 0.752331 0
0.00141909 0.75288 0
0.00221256 0.752605 0
0.0148623 0.752529 0
0.0601053 0.752773 0
0.104509 0.752789 0
0.140902 0.752392 0
0.177539 0.752544 0
0.211032 0.75201 0
0.244205 0.752285 0
0.276448 0.752361 0
0.308522 0.751858 0
0.334768 0.746426 0
0.359197 0.738476 0
0.376059 0.725322 0.00265507
0.388922 0.708705 0.00674449
0.403449 0.696056 0.0334478
0.419516 0.686076 0.0800793
0.444205 0.687144 0.121447
0.480217 0.701869 0.157259
0.515511 0.720851 0.173495
0.54876 0.747906 0.151385
0.581445 0.77052 0.119646
0.613428 0.777798 0.0567178
0.649729 0.783352 0
0.724773 0.778683 0
0.799191 0.77406 0
0.859617 0.779904 6.10361e-05
0.920058 0.785733 0.000106813
0.958862 0.793942 0.000106813
0.995666 0.802487 0.000106813
1 0.803952 0.000106813
0.0011902 0.788479 0
0.0011902 0.7888 0
0.0011902 0.789136 0
0.00117494 0.788815 0
0.0133059 0.789075 0
0.0574655 0.788785 0
0.101045 0.788525 0
0.138705 0.788434 0
0.176608 0.788327 0
0.210407 0.788602 0
0.244511 0.788861 0
0.277455 0.788266 0
0.310292 0.788617 0
0.338964 0.784878 0
0.366445 0.780377 0
0.385977 0.768292 0
0.401617 0.753094 0
0.415473 0.738323 0.0172732
0.427955 0.723796 0.0491646
0.448493 0.718791 0.088716
0.479332 0.725673 0.138384
0.512566 0.739162 0.172274
0.549874 0.764874 0.174212
0.584665 0.78854 0.161852
0.6112 0.805554 0.101228
0.64152 0.820157 0.0447242
0.706081 0.817761 0.0223697
0.769924 0.816236 0
0.839139 0.81944 3.0518e-05
0.908705 0.822736 7.62951e-05
0.952422 0.829725 9.15541e-05
0.994079 0.837354 0.000106813
1 0.838819 0.000106813
0.00128176 0.826856 0
0.00128176 0.826871 0
0.0012665 0.826886 0
0.00125124 0.827222 0
0.0132296 0.827146 0
0.0554513 0.826902 0
0.0975662 0.826673 0
0.136706 0.826917 0
