LUT/LumixLab/Moody Blues.cube
TITLE "Generated by Resolve"
#LUMIXPHOTOSTYLE NAT
LUT_3D_SIZE 5
0.0134737 0.0209964 0.0317388
0.0953689 0.0585336 0.075761
0.404715 0.0739605 0.0902876
0.705791 0.000564584 0.00329595
1 4.57771e-05 0.000137331
0.0128786 0.176898 0.0257115
0.125948 0.183612 0.0405585
0.432807 0.215457 0.00140383
0.709194 0.214313 0.000122072
1 0.222538 0.00015259
0.000564584 0.467704 0.0010071
0.186099 0.466697 0
0.379355 0.482841 0.0203861
0.71046 0.468681 6.10361e-05
1 0.497124 0.000122072
0.00105287 0.720485 0
0.179232 0.719951 0
0.377737 0.669261 0.0257572
0.631464 0.743618 0.024918
1 0.769726 0.000106813
0.319631 0.994858 0.330632
0.312505 0.997787 0.245121
0.478599 0.999039 0.0117342
0.676738 0.928405 0.384466
0.983551 0.995438 0.793698
0.0352026 0.0482338 0.126772
0.121904 0.0643778 0.179828
0.420432 0.0435645 0.252415
0.706233 3.0518e-05 0.253071
1 4.57771e-05 0.26247
0.0130007 0.184634 0.213474
0.151934 0.17847 0.210986
0.451987 0.168566 0.211414
0.735653 0.136172 0.173098
1 0.154955 0.199832
4.57771e-05 0.469673 0.239429
0.112352 0.477104 0.169406
0.399802 0.476539 0.152468
0.725917 0.454444 0.116884
1 0.476219 0.180011
0.000320439 0.722713 0.223819
0.0470893 0.727184 0.0812238
0.376013 0.687221 0.0577249
0.639628 0.742397 0.0591592
1 0.763012 0.154009
0.045243 1 0.263386
0.0784772 1 0.141604
0.449134 1 0.117159
0.691783 0.918441 0.463294
0.985351 0.993286 0.852125
0.0922103 0.110658 0.368154
0.182452 0.0803388 0.46775
0.438758 0.00556954 0.513848
0.706783 3.0518e-05 0.510018
1 4.57771e-05 0.537377
0.00111391 0.222477 0.516487
0.141054 0.178988 0.534234
0.454215 0.156497 0.529076
0.736568 0.121614 0.505714
1 0.146715 0.519432
0 0.477882 0.499245
0.0920119 0.481605 0.507881
0.440208 0.468071 0.50396
0.726802 0.453269 0.490318
1 0.456458 0.492897
0 0.724804 0.482658
0.0191653 0.730892 0.462303
0.388083 0.730068 0.441306
0.679438 0.724392 0.43122
1 0.758587 0.492439
9.15541e-05 1 0.501915
0.0535134 1 0.486305
0.431083 1 0.474113
0.753323 0.918975 0.645106
0.98967 0.991562 0.941268
0.128466 0.14699 0.592874
0.189471 0.0798962 0.706035
0.431632 0 0.74522
0.702159 0 0.746715
0.999283 0.073991 0.785977
0 0.216373 0.746441
0.131823 0.167117 0.769696
0.435386 0.14287 0.770138
0.730251 0.11078 0.767163
1 0.143633 0.787503
0 0.466239 0.738613
0.0820783 0.460304 0.76022
0.421118 0.450614 0.759243
0.724849 0.444541 0.756756
1 0.449088 0.775479
0 0.723476 0.719753
0.01149 0.729213 0.724636
0.376776 0.727459 0.734859
0.712459 0.720607 0.728939
1 0.722683 0.738506
0 1 0.756893
0.0450752 1 0.753964
0.46772 0.999268 0.764569
0.846571 0.983749 0.841398
0.994705 0.994308 0.981735
0.151843 0.170443 0.8766
0.203174 0.0388037 0.988266
0.465644 0 0.996292
0.742214 0.0804913 0.984131
0.985138 0.210468 0.969131
0 0.23122 0.999237
0.12932 0.164523 1
0.452522 0.149279 1
0.758007 0.134936 1
1 0.14789 0.999573
0 0.498589 0.996155
0.104295 0.481209 1
0.415061 0.442847 1
0.749264 0.440528 1
1 0.443427 0.9991
0 0.771954 0.984237
0.0649882 0.767315 0.988952
0.390616 0.752392 0.995666
0.709621 0.715526 0.998413
1 0.710918 0.994919
0 1 0.972793
0.0341497 1 0.975067
0.544579 0.99678 0.97612
0.894224 0.983276 0.968505
0.999908 0.999893 0.999649
