LUT/LumixLab/Moody Blues.cube
TITLE "Generated by Resolve"
#LUMIXPHOTOSTYLE NAT
LUT_3D_SIZE 9
0.0134737 0.0209964 0.0317388
0.0320134 0.0347143 0.0488899
0.0953689 0.0585336 0.075761
0.228611 0.0810712 0.099321
0.404715 0.0739605 0.0902876
0.568399 0.0210117 0.0290379
0.705791 0.000564584 0.00329595
0.866651 4.57771e-05 0.000137331
1 4.57771e-05 0.000137331
0.0385748 0.0725261 0.0682994
0.0557717 0.0781109 0.0719463
0.13019 0.0840162 0.0693523
0.274861 0.08748 0.0298314
0.432013 0.0929274 0.00434882
0.575631 0.0910658 0.000106813
0.707897 0.0843519 0.000137331
0.869963 0.0774243 0.00015259
1 0.0707866 0.00015259
0.0128786 0.176898 0.0257115
0.0580148 0.175937 0.0293126
0.125948 0.183612 0.0405585
0.277241 0.196551 0.00593576
0.432807 0.215457 0.00140383
0.576425 0.218982 7.62951e-05
0.709194 0.214313 0.000122072
0.8719 0.216724 0.000137331
1 0.222538 0.00015259
0.0027924 0.316091 0.005066
0.0647898 0.316442 0.00125124
0.148745 0.296818 0.0133059
0.245594 0.326574 0.0277104
0.431754 0.339712 0
0.57702 0.345724 1.5259e-05
0.709911 0.341573 0.000106813
0.87332 0.348028 0.000137331
1 0.360678 0.00015259
0.000564584 0.467704 0.0010071
0.0635386 0.467948 0
0.186099 0.466697 0
0.25742 0.429435 0.0641184
0.379355 0.482841 0.0203861
0.573434 0.474571 0
0.71046 0.468681 6.10361e-05
0.87451 0.47895 0.000122072
1 0.497124 0.000122072
0.000808728 0.599359 0
0.0480201 0.599573 0
0.187106 0.599252 0
0.290669 0.578302 0
0.371649 0.559777 0.114321
0.506416 0.616388 0.0260471
0.704555 0.597299 0
0.875074 0.609873 0.000106813
1 0.632914 0.000106813
0.00105287 0.720485 0
0.0189822 0.720653 0
0.179232 0.719951 0
0.307317 0.718456 0
0.377737 0.669261 0.0257572
0.48571 0.689296 0.158053
0.631464 0.743618 0.024918
0.868208 0.743938 4.57771e-05
1 0.769726 0.000106813
0.0439765 0.866148 0.046891
0.0361181 0.867781 0.0158083
0.176043 0.867811 0
0.315389 0.867918 0
0.428214 0.848096 0
0.488899 0.793194 0.083772
0.623606 0.8533 0.187793
0.791775 0.902342 0.0178531
0.997253 0.907332 0.104829
0.319631 0.994858 0.330632
0.317708 0.995438 0.31458
0.312505 0.997787 0.245121
0.3682 0.999222 0.136385
0.478599 0.999039 0.0117342
0.560113 0.964492 0.0848402
0.676738 0.928405 0.384466
0.876204 0.984527 0.637949
0.983551 0.995438 0.793698
0.0187991 0.0279698 0.055375
0.0371099 0.0393072 0.0720226
0.101915 0.0593271 0.0998093
0.236988 0.0762951 0.131014
0.412665 0.0611429 0.139895
0.572137 0.0090486 0.125368
0.706294 4.57771e-05 0.115099
0.867292 4.57771e-05 0.109102
1 4.57771e-05 0.105577
0.0400244 0.0742351 0.0962997
0.0612192 0.0797742 0.101717
0.13138 0.0870832 0.111086
0.289799 0.0718395 0.099321
0.451469 0.0548257 0.0821088
0.590646 0.0401312 0.0646372
0.720348 0.0154421 0.0431525
0.880568 0.00448615 0.000442512
1 0.019089 0.0681163
0.0205844 0.177279 0.104936
0.0618906 0.178836 0.101579
0.139055 0.181384 0.112383
0.28716 0.195331 0.0801862
0.446296 0.207843 0.0648814
0.587823 0.206165 0.0488899
0.71902 0.200153 0.0175021
0.88101 0.200092 1.5259e-05
1 0.207874 0.0444038
0.000808728 0.317098 0.10605
0.0365454 0.321813 0.0656443
0.1505 0.306828 0.0555123
0.253208 0.326116 0.0710613
0.439216 0.339422 0.0461891
0.584009 0.342321 0.0198978
0.717113 0.3364 0.00172427
0.880369 0.341863 1.5259e-05
1 0.353536 0.0168765
0.000274662 0.468864 0.102373
0.0162051 0.472129 0.0260014
0.175555 0.471214 0.0150759
0.256931 0.431525 0.0709239
0.386358 0.481651 0.0428779
0.577295 0.473884 0
0.714824 0.466743 0
0.879347 0.476371 0
1 0.492699 0
0.000503548 0.600855 0.0871443
0.0125734 0.602182 0
0.172335 0.601511 0
0.289464 0.583902 0
0.370855 0.559731 0.119432
0.507652 0.616617 0.0267643
0.707469 0.596857 0
0.878569 0.60914 0
1 0.630518 0
0.00077821 0.721325 0.0625925
0.00987259 0.722408 0
0.162814 0.722255 0
0.301427 0.720913 0
0.377829 0.67219 0.0273747
0.48571 0.689082 0.163012
0.632639 0.743969 0.0262303
0.870039 0.743923 0
1 0.768429 0
0.00352483 0.868315 0.0289921
0.0204929 0.869078 0.0170901
0.156863 0.869566 0
0.307118 0.86949 0
0.42678 0.851499 0
0.488533 0.794171 0.0852674
0.624125 0.853086 0.193256
0.793896 0.902312 0.019089
0.997223 0.906676 0.11722
0.268223 0.996719 0.300511
0.241062 0.997864 0.256397
0.211765 0.999695 0.102037
0.321965 1 0.000732433
0.465858 0.999741 0
0.564431 0.96556 0.121477
0.68365 0.924956 0.415549
0.881697 0.9823 0.664256
0.984115 0.994705 0.813794
0.0352026 0.0482338 0.126772
0.0528115 0.0525673 0.150698
0.121904 0.0643778 0.179828
0.246876 0.0717784 0.218326
0.420432 0.0435645 0.252415
0.573861 1.5259e-05 0.25742
0.706233 3.0518e-05 0.253071
0.867231 4.57771e-05 0.255268
1 4.57771e-05 0.26247
0.0370642 0.0840772 0.193194
0.0632181 0.0838331 0.206332
0.151629 0.0817273 0.217151
0.292683 0.0660868 0.237293
0.451865 0.0514382 0.249729
0.590982 0.0363775 0.24625
0.720638 0.0112917 0.238041
0.881422 1.5259e-05 0.237446
1 0.0140383 0.251957
0.0130007 0.184634 0.213474
0.063447 0.185245 0.21561
0.151934 0.17847 0.210986
0.277806 0.180758 0.217502
0.451987 0.168566 0.211414
0.598993 0.155154 0.195758
0.735653 0.136172 0.173098
0.901274 0.112505 0.146761
1 0.154955 0.199832
0.000610361 0.318517 0.226673
0.0320439 0.322957 0.220859
0.140093 0.321813 0.202182
0.268894 0.322484 0.203296
0.447517 0.325032 0.180301
0.595743 0.317906 0.163363
0.732525 0.306172 0.142657
0.89865 0.305058 0.112825
1 0.324178 0.186038
4.57771e-05 0.469673 0.239429
0.00834669 0.473991 0.223026
0.112352 0.477104 0.169406
0.25388 0.446448 0.139376
0.399802 0.476539 0.152468
0.586908 0.466758 0.134112
0.725917 0.454444 0.116884
0.893278 0.460197 0.0857404
1 0.476219 0.180011
0.00015259 0.601663 0.235111
0.00112917 0.60441 0.212482
0.0833906 0.607431 0.12752
0.270863 0.602258 0.107744
0.364935 0.558251 0.146609
0.521019 0.612421 0.110597
0.715175 0.59353 0.0788891
0.88777 0.60209 0.0557717
1 0.620768 0.170077
0.000320439 0.722713 0.223819
0.000411994 0.724529 0.195514
0.0470893 0.727184 0.0812238
0.263493 0.726116 0.0637675
0.376013 0.687221 0.0577249
0.481666 0.685557 0.179568
0.639628 0.742397 0.0591592
0.8766 0.741909 0.0093843
1 0.763012 0.154009
0.000579843 0.870069 0.217227
0.000671397 0.871672 0.184039
0.0312657 0.8748 0.0287327
0.26276 0.872557 0
0.414252 0.862898 0
0.484672 0.799512 0.0866255
0.622171 0.850004 0.20882
0.799023 0.90222 0.0349279
0.997177 0.903929 0.247089
0.045243 1 0.263386
0.0224002 1 0.217899
0.0784772 1 0.141604
0.28629 1 0.115434
0.449134 1 0.117159
0.576928 0.972549 0.238239
0.691783 0.918441 0.463294
0.888991 0.976669 0.707851
0.985351 0.993286 0.852125
0.063447 0.0802472 0.240131
0.0796674 0.0766613 0.277668
0.158602 0.0749676 0.318502
0.274296 0.0655985 0.347219
0.426123 0.0213016 0.377493
0.574395 1.5259e-05 0.38822
0.706493 3.0518e-05 0.383429
0.867521 4.57771e-05 0.389715
1 4.57771e-05 0.403021
0.0351263 0.0992294 0.348959
0.0641794 0.0872206 0.368338
0.180316 0.073228 0.384054
0.308125 0.0604715 0.384207
0.450553 0.0487984 0.389883
0.590249 0.0335699 0.389151
0.720348 0.00939956 0.380529
0.881285 0 0.384405
1 0.00979629 0.398184
0.0027924 0.209506 0.366567
0.0428779 0.210437 0.381674
0.145418 0.180194 0.377997
0.29456 0.170443 0.375463
0.451606 0.161501 0.378607
0.599298 0.146746 0.371038
0.737011 0.125216 0.355642
0.903334 0.0968643 0.350332
1 0.147356 0.371221
0.000259403 0.331319 0.35877
0.0271153 0.334768 0.364111
0.130266 0.330114 0.365911
0.28513 0.316258 0.35816
0.436896 0.315602 0.360311
0.593637 0.302129 0.347372
0.733471 0.286137 0.32726
0.906798 0.262791 0.300282
1 0.29781 0.34139
0 0.471458 0.367453
0.00709545 0.474983 0.364782
0.0987716 0.478523 0.352972
0.266667 0.474128 0.339162
0.420752 0.4692 0.342611
0.588296 0.459052 0.326253
0.73051 0.443229 0.305058
0.903655 0.436637 0.273442
1 0.464027 0.340917
0 0.603159 0.366735
0.000900282 0.60531 0.358557
0.0651255 0.609583 0.330571
0.233082 0.608591 0.296193
0.372747 0.568185 0.269963
0.53785 0.602274 0.282032
0.722667 0.586572 0.266926
0.897505 0.589258 0.239048
1 0.613687 0.337179
6.10361e-05 0.723888 0.357153
7.62951e-05 0.72575 0.346685
0.0211185 0.729763 0.305989
0.196246 0.730739 0.244846
0.379049 0.718746 0.232181
0.478492 0.676432 0.249699
0.659678 0.735103 0.224872
0.885771 0.735561 0.19675
1 0.759091 0.331533
0.000213626 0.871229 0.358068
0.000244144 0.872877 0.345541
0.00149538 0.876905 0.291936
0.155337 0.879179 0.186587
0.377218 0.876493 0.179049
0.484932 0.817014 0.160571
0.619257 0.840375 0.258991
0.817243 0.897475 0.170321
0.996109 0.901717 0.42295
0.000411994 1 0.366323
0.000442512 1 0.359411
0.0565652 1 0.333547
0.248981 1 0.303059
0.435462 1 0.314763
0.613092 0.985168 0.409888
0.711818 0.911925 0.54258
0.899168 0.967727 0.767254
0.987152 0.991882 0.900145
0.0922103 0.110658 0.368154
0.103426 0.0982834 0.416098
0.182452 0.0803388 0.46775
0.304952 0.0509957 0.50161
0.438758 0.00556954 0.513848
0.574395 0 0.515312
0.706783 3.0518e-05 0.510018
0.867857 3.0518e-05 0.518715
1 4.57771e-05 0.537377
0.0287938 0.104814 0.504814
0.0636454 0.0865492 0.523201
0.18941 0.0652628 0.539055
0.324254 0.0547646 0.536233
0.455711 0.0439307 0.528603
0.58938 0.0287938 0.522118
0.719966 0.00556954 0.51223
0.880781 0 0.519356
1 0 0.534874
0.00111391 0.222477 0.516487
0.0384833 0.219089 0.534829
0.141054 0.178988 0.534234
0.302266 0.164828 0.532677
0.454215 0.156497 0.529076
0.599496 0.142351 0.520394
0.736568 0.121614 0.505714
0.902892 0.0937972 0.508003
1 0.146715 0.519432
0 0.349599 0.509483
0.0212711 0.351019 0.519661
0.122286 0.337392 0.526543
0.275334 0.313054 0.524544
0.443442 0.306737 0.520256
0.593439 0.298772 0.509285
0.732433 0.284627 0.491463
0.906523 0.256489 0.483406
1 0.29276 0.500282
0 0.477882 0.499245
0.0037232 0.480415 0.501884
0.0920119 0.481605 0.507881
0.257511 0.474266 0.508354
0.440208 0.468071 0.50396
0.577066 0.466407 0.504845
0.726802 0.453269 0.490318
0.902785 0.436576 0.47129
1 0.456458 0.492897
0 0.604562 0.492836
0.000595102 0.606394 0.490944
0.0604257 0.610178 0.485664
0.22536 0.609445 0.478019
0.424689 0.604212 0.486122
0.562692 0.596658 0.491264
0.720439 0.593347 0.478645
0.899046 0.591333 0.452552
1 0.613153 0.495216
0 0.724804 0.482658
0 0.72694 0.478553
0.0191653 0.730892 0.462303
0.180758 0.732204 0.438636
0.388083 0.730068 0.441306
0.507744 0.68188 0.416449
0.679438 0.724392 0.43122
0.891157 0.734066 0.412604
1 0.758587 0.492439
0 0.872343 0.487251
1.5259e-05 0.874342 0.481529
0.0012665 0.878477 0.457221
0.1234 0.881453 0.41059
0.340871 0.880873 0.380606
0.517845 0.857679 0.366888
0.623484 0.821744 0.376791
0.839261 0.890333 0.378485
0.994797 0.901808 0.577768
9.15541e-05 1 0.501915
9.15541e-05 1 0.498665
0.0535134 1 0.486305
0.237507 1 0.46775
0.431083 1 0.474113
0.660746 0.994385 0.578485
0.753323 0.918975 0.645106
0.916259 0.963912 0.830457
0.98967 0.991562 0.941268
0.113039 0.131594 0.481819
0.117357 0.11281 0.533883
0.188098 0.0819715 0.590677
0.307149 0.037232 0.625589
0.438193 0 0.635645
0.571511 0 0.63534
0.706447 1.5259e-05 0.632136
0.867735 3.0518e-05 0.643305
1 3.0518e-05 0.666255
0.0217746 0.102296 0.628885
0.0619821 0.0831769 0.643275
0.184329 0.057435 0.658732
0.317266 0.0489662 0.655207
0.449622 0.0381933 0.649836
0.584497 0.0222782 0.644877
0.718853 0 0.637705
0.880522 0 0.64744
1 0 0.66537
0.000122072 0.220264 0.63679
0.0336614 0.213214 0.654505
0.137148 0.174044 0.655192
0.293751 0.160296 0.654337
0.444221 0.150744 0.653849
0.593591 0.13611 0.652384
0.735958 0.116869 0.642191
0.901778 0.0890669 0.648569
1 0.145342 0.656504
0 0.346426 0.632883
0.016022 0.345525 0.644022
0.118074 0.328313 0.652155
0.268696 0.305882 0.650492
0.431174 0.300206 0.648966
0.587045 0.292638 0.646113
0.732784 0.279561 0.633875
0.906722 0.251026 0.63682
1 0.292012 0.645136
0 0.474556 0.623835
0.00323491 0.475563 0.629557
0.0874647 0.47155 0.640284
0.25066 0.458976 0.64184
0.429068 0.459083 0.638682
0.581537 0.460136 0.634791
0.727199 0.451133 0.628687
0.902693 0.433295 0.626505
1 0.45098 0.636851
0 0.602502 0.613413
0.000106813 0.604456 0.614923
0.0543526 0.606744 0.620127
0.21825 0.60412 0.624384
0.418814 0.600488 0.624475
0.582132 0.599924 0.621454
0.709758 0.600488 0.625864
0.897871 0.590005 0.61442
1 0.59762 0.624552
0 0.726146 0.604517
0 0.727932 0.603479
0.0157168 0.731502 0.599634
0.174289 0.733349 0.594995
0.384009 0.730373 0.59794
0.574838 0.724178 0.612879
0.69723 0.717525 0.614633
0.889464 0.734234 0.599023
1 0.749142 0.621042
0 0.873518 0.611399
0 0.875654 0.608682
0.00108339 0.879499 0.597436
0.117601 0.882383 0.579629
0.328573 0.882185 0.564889
0.541543 0.87863 0.573098
0.649348 0.819989 0.538018
0.85716 0.879362 0.576776
0.993683 0.89868 0.68893
0 1 0.631098
0 1 0.629328
0.0497902 1 0.623163
0.234119 1 0.615717
0.435447 1 0.621256
0.665431 0.993683 0.683146
0.821317 0.962173 0.761166
0.928603 0.962615 0.873228
0.992157 0.992569 0.966384
0.128466 0.14699 0.592874
0.126528 0.122286 0.647166
0.189471 0.0798962 0.706035
0.304158 0.0198672 0.739208
0.431632 0 0.74522
0.562951 0 0.744579
0.702159 0 0.746715
0.868009 3.0518e-05 0.764797
0.999283 0.073991 0.785977
0.0109255 0.0969863 0.742229
0.0609751 0.0796521 0.753628
0.178759 0.0487221 0.769985
0.310201 0.0413977 0.765911
0.441199 0.0313878 0.760891
0.574243 0.0129549 0.756008
0.714076 0 0.754971
0.879973 0 0.771282
1 0.000488289 0.792386
0 0.216373 0.746441
0.0272526 0.207843 0.76582
0.131823 0.167117 0.769696
0.287449 0.153521 0.769574
0.435386 0.14287 0.770138
0.581109 0.128618 0.768444
0.730251 0.11078 0.767163
0.900572 0.0834363 0.780652
1 0.143633 0.787503
0 0.340566 0.74403
0.00814832 0.338872 0.756848
0.11136 0.319417 0.769268
0.263279 0.298207 0.765377
0.421469 0.294362 0.764004
0.572152 0.28571 0.762432
0.72845 0.27187 0.763806
0.906432 0.244785 0.777584
1 0.290501 0.780819
0 0.466239 0.738613
0.00274662 0.467308 0.745922
0.0820783 0.460304 0.76022
0.244984 0.446189 0.759945
0.421118 0.450614 0.759243
0.574304 0.451865 0.757076
0.724849 0.444541 0.756756
0.902571 0.427939 0.768719
1 0.449088 0.775479
0 0.593957 0.727962
0 0.595666 0.731655
0.0491951 0.594797 0.742184
0.210468 0.588464 0.748669
0.406088 0.588937 0.750027
0.575311 0.594568 0.744595
0.717784 0.59321 0.743236
0.898192 0.582513 0.756664
1 0.589899 0.763409
0 0.723476 0.719753
0 0.725994 0.720989
0.01149 0.729213 0.724636
0.166873 0.728847 0.73106
0.376776 0.727459 0.734859
0.569558 0.723995 0.732586
0.712459 0.720607 0.728939
0.882307 0.721752 0.735042
1 0.722683 0.738506
0 0.874983 0.732479
0 0.876905 0.732235
0.0010071 0.880354 0.728725
0.110643 0.882963 0.725643
0.321538 0.882734 0.722927
0.532403 0.879164 0.72433
0.709407 0.872633 0.723644
0.865187 0.86688 0.727245
0.993622 0.88806 0.775219
0 1 0.756893
0 1 0.75613
0.0450752 1 0.753964
0.230304 1 0.752239
0.46772 0.999268 0.764569
0.685786 0.991821 0.795834
0.846571 0.983749 0.841398
0.946792 0.972198 0.911086
0.994705 0.994308 0.981735
0.141161 0.159701 0.738018
0.132921 0.125673 0.796368
0.195239 0.0646525 0.854643
0.312871 0.00395209 0.879026
0.443015 0 0.879942
0.577569 0 0.879164
0.716381 0 0.878157
0.863905 0.0275731 0.881788
0.989258 0.180438 0.891447
0.000106813 0.0925612 0.881666
0.0564889 0.073106 0.893355
0.180713 0.0372931 0.90692
0.316182 0.0300145 0.902815
0.451011 0.0173342 0.897856
0.588312 0.000701915 0.892973
0.727962 0 0.889021
0.878416 0.00794995 0.893172
1 0.0875563 0.911864
0 0.220584 0.88101
0.0171817 0.209308 0.903426
0.122957 0.156146 0.917464
0.291386 0.141909 0.916777
0.444831 0.130785 0.91577
0.594842 0.116442 0.91223
0.743252 0.0996872 0.907027
0.899702 0.0764935 0.910185
1 0.141588 0.916381
0 0.347845 0.879576
0.00407416 0.345098 0.894881
0.0997787 0.321538 0.91516
0.255558 0.289311 0.913191
0.42475 0.283558 0.911513
0.583001 0.274052 0.909148
0.739986 0.259571 0.906996
0.906386 0.236622 0.914229
1 0.288533 0.91339
0 0.476478 0.875456
0.00108339 0.476967 0.885313
0.0711681 0.467353 0.905226
0.234043 0.44651 0.907179
0.414801 0.443122 0.906523
0.579721 0.442802 0.903578
0.735851 0.434791 0.900526
0.903166 0.420096 0.907454
1 0.446403 0.90959
0 0.606821 0.867903
0 0.607538 0.873823
0.0367132 0.605905 0.888121
0.196887 0.594202 0.898466
0.39678 0.589639 0.89688
0.569863 0.588815 0.896269
0.730449 0.5841 0.893584
0.900069 0.576211 0.899367
1 0.587167 0.902846
0 0.737896 0.855985
0 0.739544 0.859129
0.00256352 0.741268 0.86688
0.152041 0.737713 0.878767
0.363012 0.733974 0.883146
0.551781 0.731548 0.884459
0.712718 0.718608 0.881285
0.890806 0.712276 0.88368
1 0.71516 0.887587
0 0.876493 0.853178
0 0.878462 0.854551
0.000808728 0.881361 0.856718
0.102037 0.884092 0.863508
0.312657 0.882979 0.868528
0.52546 0.880827 0.871046
0.704921 0.874327 0.867506
0.880018 0.870253 0.86656
0.991547 0.87628 0.884337
0 1 0.882628
0 1 0.882689
0.0393988 1 0.883177
0.236103 1 0.885863
0.508965 0.99794 0.89247
0.724132 0.989609 0.903212
0.869062 0.982773 0.918563
0.966155 0.984115 0.955169
0.997665 0.997238 0.993576
0.151843 0.170443 0.8766
0.133227 0.119326 0.942672
0.203174 0.0388037 0.988266
0.32961 0 0.997528
0.465644 0 0.996292
0.604883 0.0247044 0.992676
0.742214 0.0804913 0.984131
0.873152 0.158541 0.971511
0.985138 0.210468 0.969131
0 0.0961318 0.999588
0.0457618 0.0674907 1
0.187396 0.0520638 1
0.326345 0.0478828 1
0.466773 0.0396277 1
0.610422 0.0329595 1
0.756695 0.0286717 0.999496
0.895506 0.0955673 0.989975
0.993133 0.180438 0.981033
0 0.23122 0.999237
0.0298161 0.219333 1
0.12932 0.164523 1
0.297734 0.153475 1
0.452522 0.149279 1
0.604974 0.14316 1
0.758007 0.134936 1
0.908431 0.129488 1
1 0.14789 0.999573
0 0.364721 0.998428
0.0216373 0.358968 1
0.117403 0.331945 1
0.259068 0.293187 1
0.431571 0.290181 1
0.593347 0.286275 1
0.753079 0.280568 1
0.909453 0.272923 1
1 0.286442 0.999985
0 0.498589 0.996155
0.007187 0.4963 0.998489
0.104295 0.481209 1
0.247547 0.456641 1
0.415061 0.442847 1
0.58613 0.444236 1
0.749264 0.440528 1
0.908476 0.435538 1
1 0.443427 0.9991
0 0.634806 0.991409
0.00383001 0.633021 0.993057
0.0850233 0.625101 0.996872
0.233204 0.610529 1
0.404273 0.599283 1
0.567941 0.586633 1
0.738415 0.582803 1
0.904814 0.579507 1
1 0.583154 0.997406
0 0.771954 0.984237
0.000900282 0.771908 0.985321
0.0649882 0.767315 0.988952
0.213352 0.759487 0.993179
0.390616 0.752392 0.995666
0.554894 0.741283 0.997604
0.709621 0.715526 0.998413
0.892302 0.709621 0.997513
1 0.710918 0.994919
0 0.90898 0.97409
0 0.909453 0.974777
0.0465248 0.907988 0.978012
0.191836 0.905028 0.982834
0.372335 0.901442 0.987167
0.547753 0.895994 0.989456
0.704509 0.880644 0.989548
0.881285 0.865751 0.984375
0.991714 0.87512 0.978149
0 1 0.972793
0 1 0.972915
0.0341497 1 0.975067
0.259602 1 0.978958
0.544579 0.99678 0.97612
0.755703 0.988434 0.970031
0.894224 0.983276 0.968505
0.97792 0.988312 0.979995
0.999908 0.999893 0.999649
