LUT/LumixLab/NEWTRO.cube
TITLE "Generated by Resolve"
#LUMIXPHOTOSTYLE PORT
LUT_3D_SIZE 33
0.0859998 0.082002 0.0780041
0.0944991 0.0808728 0.0779431
0.10312 0.0788739 0.0768749
0.112871 0.0778058 0.0760052
0.123751 0.0767529 0.0760052
0.136049 0.0753796 0.0756847
0.15024 0.0736248 0.0749981
0.165988 0.0725567 0.0754406
0.182986 0.0720073 0.0764935
0.201114 0.0720073 0.0781262
0.2215 0.0720073 0.0796216
0.243427 0.0720073 0.0813764
0.267247 0.0720073 0.0834974
0.293309 0.0720073 0.0848096
0.320745 0.0720073 0.0867475
0.35024 0.0720073 0.0888685
0.381994 0.0720073 0.0910048
0.416114 0.0720073 0.0931258
0.452369 0.0720073 0.0953689
0.489738 0.0720073 0.098558
0.527489 0.0720073 0.101747
0.563302 0.0720073 0.104936
0.597238 0.0720073 0.108507
0.628244 0.0720073 0.112749
0.658 0.0720073 0.117494
0.68719 0.0720073 0.123369
0.717128 0.0720073 0.130999
0.74931 0.0720073 0.140185
0.783749 0.0720073 0.151995
0.818814 0.0720073 0.168002
0.852995 0.0720073 0.18938
0.886061 0.0720073 0.22388
0.917006 0.0720073 0.289006
0.0859998 0.0884413 0.0801251
0.0925002 0.0894331 0.078996
0.102052 0.088365 0.076936
0.111803 0.0871901 0.0758679
0.122744 0.0853132 0.0749981
0.135058 0.0839399 0.0749371
0.149615 0.0821851 0.0749371
0.166369 0.0806897 0.0749371
0.185 0.079057 0.0749371
0.205249 0.0774395 0.0749371
0.227741 0.0759289 0.0749981
0.252491 0.0741894 0.0756237
0.27805 0.0727398 0.0766308
0.304555 0.0724346 0.0784314
0.332174 0.0723125 0.0804456
0.361868 0.0721904 0.0825055
0.394736 0.0720684 0.0845045
0.428855 0.0720073 0.0866865
0.464118 0.0720073 0.0888838
0.501244 0.0720073 0.0920729
0.537865 0.0720073 0.0953078
0.572183 0.0720073 0.098497
0.604303 0.0720073 0.102068
0.634623 0.0720073 0.106752
0.66331 0.0720073 0.112062
0.691493 0.0720073 0.117937
0.720806 0.0720073 0.125002
0.753185 0.0720073 0.134447
0.787182 0.0720073 0.146563
0.821942 0.0720073 0.161746
0.855253 0.0720073 0.18294
0.88719 0.0720073 0.21738
0.917067 0.0720073 0.281498
0.0859998 0.0958724 0.0822461
0.0925002 0.0958724 0.0823682
0.100877 0.0970016 0.079118
0.110628 0.0959335 0.0770581
0.121752 0.0950027 0.0758679
0.134936 0.0936141 0.074815
0.149493 0.0918746 0.0740063
0.165988 0.0903639 0.0740063
0.184497 0.0886244 0.0740063
0.205249 0.0871138 0.0740063
0.227741 0.0856184 0.0744945
0.252491 0.0838636 0.074876
0.278874 0.0818647 0.0749981
0.307744 0.0804303 0.0756847
0.338369 0.0784924 0.0760052
0.371176 0.0764935 0.0768139
0.406119 0.0743725 0.076997
0.441611 0.0731212 0.0788128
0.477363 0.0727398 0.0816205
0.513619 0.0723735 0.0836957
0.549371 0.0720073 0.0867475
0.5823 0.0720073 0.0908217
0.612497 0.0720073 0.094377
0.64155 0.0720073 0.0990616
0.669245 0.0720073 0.104372
0.696803 0.0720073 0.110246
0.725994 0.0720073 0.117876
0.757244 0.0720073 0.127184
0.790494 0.0720073 0.138872
0.824369 0.0720073 0.154192
0.857374 0.0720073 0.175372
0.888319 0.0720073 0.20882
0.91812 0.0720073 0.272755
0.0859998 0.103502 0.0843671
0.09337 0.102495 0.0863813
0.0998703 0.104494 0.0843671
0.10869 0.105501 0.0801862
0.119814 0.104677 0.0780652
0.132998 0.104433 0.0760662
0.148425 0.102678 0.074815
0.16524 0.101183 0.0740063
0.184298 0.0990616 0.0738079
0.205249 0.0974899 0.0738079
0.227741 0.096437 0.0738079
0.252491 0.0946822 0.0740063
0.279484 0.0933089 0.0745556
0.307927 0.0914321 0.074815
0.338552 0.0894942 0.0756847
0.371984 0.0881208 0.0758068
0.407172 0.086244 0.0768139
0.444434 0.084123 0.0768749
0.482811 0.082002 0.0779431
0.521737 0.0798657 0.078996
0.558434 0.0766766 0.0800641
0.592309 0.0738689 0.0814984
0.621683 0.0733043 0.0851911
0.649241 0.0725567 0.089128
0.675807 0.0720073 0.094255
0.702739 0.0720073 0.100313
0.730999 0.0720073 0.107942
0.762249 0.0720073 0.117815
0.794995 0.0720073 0.129381
0.827741 0.0720073 0.145129
0.859617 0.0720073 0.166506
0.889616 0.0720073 0.19913
0.919005 0.0720073 0.261753
0.086244 0.112245 0.0867475
0.0936141 0.111177 0.0888685
0.100114 0.111238 0.0890059
0.107744 0.114305 0.0857557
0.118746 0.114748 0.0814984
0.131807 0.114748 0.079118
0.146487 0.114626 0.076997
0.164187 0.113375 0.0750591
0.183246 0.111238 0.0737469
0.204807 0.109682 0.0729992
0.227741 0.10837 0.0729992
0.252491 0.106874 0.0734417
0.279484 0.105501 0.0737469
0.308171 0.103624 0.0740063
0.339498 0.102373 0.0746319
0.372305 0.100618 0.0747539
0.40824 0.0992447 0.0757458
0.445487 0.0973678 0.0760052
0.483864 0.0952468 0.0768749
0.522805 0.0931258 0.0779431
0.559487 0.0909895 0.078996
0.593622 0.0878004 0.0800641
0.62475 0.0848707 0.0811322
0.654063 0.081239 0.0821851
0.682002 0.0772412 0.0842451
0.709056 0.0742504 0.0889448
0.737621 0.0724956 0.0955062
0.768124 0.0720073 0.105135
0.799741 0.0720073 0.11751
0.831373 0.0720073 0.133501
0.862119 0.0720073 0.155123
0.891493 0.0720073 0.187762
0.919249 0.0720073 0.248753
0.0873121 0.122118 0.0899367
0.0946822 0.121126 0.0920577
0.101183 0.120439 0.0941787
0.108614 0.122362 0.0924392
0.117494 0.125551 0.0881819
0.130739 0.126741 0.0836194
0.145312 0.126741 0.0805066
0.162249 0.126619 0.0780652
0.181872 0.125368 0.0759442
0.203738 0.123812 0.0740673
0.227436 0.122438 0.0729992
0.252811 0.120989 0.072694
0.279805 0.119615 0.072694
0.309056 0.118059 0.0735027
0.340551 0.116808 0.0736858
0.373678 0.11574 0.0740063
0.409308 0.114 0.0746929
0.44686 0.112612 0.0756847
0.485237 0.11075 0.0758068
0.524178 0.108812 0.0768749
0.560616 0.106798 0.0779431
0.594995 0.104372 0.078996
0.625803 0.101549 0.0800641
0.655116 0.0988632 0.0811322
0.683314 0.0946212 0.0826886
0.711498 0.0898604 0.0848096
0.742061 0.0831769 0.0869306
0.773877 0.0773022 0.0919966
0.80531 0.0729381 0.101442
0.835813 0.0720073 0.117693
0.865431 0.0720073 0.140261
0.893004 0.0720073 0.173312
0.920317 0.0720073 0.233692
0.0883803 0.133867 0.0938735
0.0958114 0.132815 0.0956283
0.102617 0.132372 0.0978714
0.110063 0.132677 0.0996872
0.117739 0.135866 0.0959945
0.12874 0.139055 0.0914321
0.144244 0.140246 0.0861219
0.161059 0.140612 0.0825666
0.180117 0.14049 0.0794995
0.201617 0.139803 0.076997
0.22562 0.13875 0.074876
0.25211 0.137682 0.0730602
0.280491 0.136248 0.0723735
0.310109 0.134554 0.0724346
0.341619 0.133486 0.0726329
0.375372 0.132433 0.0735637
0.410742 0.131365 0.0736248
0.448676 0.129686 0.0746319
0.487373 0.128496 0.0747539
0.526299 0.126558 0.0758068
0.562737 0.125246 0.0766308
0.596124 0.123125 0.0775616
0.627863 0.120363 0.0786297
0.656184 0.118181 0.0800641
0.684367 0.11487 0.0812543
0.712932 0.110613 0.0833753
0.743114 0.105486 0.0858778
0.775692 0.0981155 0.0883192
0.808621 0.0873579 0.0918746
0.839872 0.0774395 0.101137
0.868742 0.0720073 0.120882
0.895567 0.0720073 0.155444
0.921752 0.0720073 0.214511
0.0894331 0.147677 0.0987411
0.0968643 0.147051 0.100313
0.104311 0.145998 0.102556
0.11194 0.145113 0.105745
0.119875 0.147799 0.104936
0.129 0.151492 0.100679
0.142245 0.154803 0.0951247
0.159991 0.156435 0.0897536
0.179049 0.157427 0.0851301
0.199924 0.157427 0.0819409
0.223926 0.157244 0.0789349
0.249989 0.156619 0.0763714
0.279118 0.15555 0.0745556
0.309682 0.154116 0.0730602
0.342245 0.152865 0.0724346
0.376867 0.151812 0.0724956
0.412863 0.150744 0.0725567
0.450553 0.149676 0.0731823
0.489494 0.148623 0.0736858
0.528435 0.14699 0.0745556
0.564874 0.145678 0.0753796
0.598245 0.143862 0.0758679
0.628992 0.141863 0.076936
0.658244 0.139742 0.0780041
0.685878 0.137118 0.0800641
0.714183 0.133806 0.0816815
0.744564 0.129366 0.0840009
0.776745 0.12311 0.0865034
0.809689 0.114305 0.0901198
0.841367 0.100496 0.094377
0.871504 0.0828107 0.103441
0.898741 0.0720073 0.132326
0.92343 0.0720073 0.192386
0.0910048 0.162997 0.10399
0.098436 0.162493 0.105623
0.105867 0.161868 0.107866
0.113497 0.160998 0.111055
0.12224 0.161242 0.113741
0.131304 0.164736 0.11075
0.142489 0.169375 0.106126
0.157992 0.173236 0.099443
0.177996 0.175494 0.093492
0.199237 0.176486 0.0888075
0.221988 0.176989 0.0851301
0.248676 0.177493 0.0819409
0.276997 0.177249 0.078996
0.308049 0.176181 0.0768749
0.341497 0.175616 0.0746166
0.377371 0.174548 0.0735637
0.414496 0.173495 0.0724956
0.4533 0.171984 0.0720073
0.492119 0.171359 0.0724956
0.530861 0.170306 0.0731823
0.566995 0.169238 0.0737469
0.600366 0.167361 0.0744945
0.631113 0.16611 0.0753796
0.659373 0.164111 0.0768749
0.687495 0.16199 0.0780041
0.715679 0.159304 0.0801251
0.74612 0.155489 0.0822461
0.777813 0.150362 0.0843824
0.810254 0.142992 0.0879988
0.842054 0.130922 0.092256
0.872374 0.11162 0.0973831
0.900877 0.083299 0.111635
0.925002 0.0720073 0.166506
0.0931258 0.18056 0.110369
0.0999924 0.179553 0.111498
0.107561 0.179431 0.113741
0.115618 0.178561 0.11693
0.124376 0.178302 0.120119
0.134249 0.179675 0.121187
0.144808 0.184298 0.117311
0.158236 0.190051 0.111559
0.175998 0.194553 0.10425
0.198245 0.196811 0.0978103
0.221744 0.198428 0.0930037
0.247303 0.200061 0.0888685
0.275685 0.200366 0.0856794
0.306249 0.200671 0.0821851
0.339864 0.200488 0.0797436
0.375738 0.200122 0.0773175
0.41387 0.199054 0.0752422
0.453864 0.197559 0.0735637
0.494423 0.196933 0.0723125
0.534051 0.195865 0.0716259
0.56968 0.195056 0.0724346
0.602747 0.194308 0.0731823
0.633249 0.192432 0.0738079
0.661494 0.19118 0.074876
0.689128 0.189181 0.0763714
0.717311 0.187045 0.0780041
0.747311 0.184237 0.0801251
0.779187 0.179858 0.0822461
0.811063 0.173053 0.0853132
0.842374 0.162112 0.0895705
0.87306 0.144671 0.0952468
0.901305 0.113176 0.102815
0.926558 0.0720073 0.135576
0.0952468 0.199237 0.116747
0.101747 0.19881 0.118441
0.109743 0.198245 0.120119
0.117937 0.197681 0.123308
0.127123 0.197238 0.126497
0.136995 0.197177 0.129992
0.147997 0.201236 0.129
0.160555 0.207248 0.12369
0.176745 0.213611 0.116991
0.196872 0.218677 0.10956
0.220737 0.221622 0.102495
0.247181 0.223743 0.0978714
0.275242 0.22562 0.0931258
0.305547 0.227054 0.0897536
0.338369 0.227863 0.0859998
0.374243 0.227863 0.0829328
0.41236 0.227497 0.0801251
0.452873 0.227115 0.0773785
0.494743 0.226612 0.0752422
0.535302 0.225559 0.0731212
0.572244 0.224491 0.0721294
0.60531 0.223804 0.0716869
0.63537 0.222736 0.0723735
0.663615 0.221302 0.0731823
0.691249 0.220233 0.0742504
0.719432 0.218235 0.0758831
0.748745 0.216114 0.0780041
0.780255 0.212238 0.0801251
0.812116 0.205737 0.0829938
0.843183 0.195056 0.0870069
0.873381 0.178119 0.0923781
0.901381 0.149111 0.0996872
0.927626 0.091371 0.115755
0.0973678 0.220432 0.123125
0.104494 0.219745 0.125246
0.112245 0.219303 0.127062
0.120058 0.218738 0.129686
0.12987 0.218173 0.13312
0.140185 0.217746 0.137057
0.151186 0.219547 0.139803
0.163745 0.226184 0.136065
0.178561 0.233555 0.130251
0.19736 0.240681 0.122438
0.219745 0.246235 0.11487
0.246174 0.250248 0.107439
0.275242 0.252369 0.102434
0.305547 0.255177 0.0980545
0.338109 0.257115 0.0939956
0.373861 0.25861 0.0899977
0.411994 0.259297 0.0868086
0.45243 0.259358 0.0829328
0.494179 0.259983 0.0801862
0.534936 0.259495 0.0778668
0.573251 0.258671 0.0749981
0.60705 0.258045 0.0721294
0.637491 0.256992 0.0713054
0.665751 0.255924 0.0717479
0.69337 0.25536 0.0728161
0.721004 0.25449 0.0738689
0.750805 0.251865 0.0758831
0.781308 0.248295 0.0780041
0.812497 0.241794 0.0808728
0.843565 0.2318 0.084184
0.873503 0.214176 0.0893111
0.901381 0.185107 0.0971847
0.927993 0.12842 0.109941
0.0995041 0.243488 0.130251
0.106935 0.243183 0.132372
0.114488 0.242496 0.134493
0.122744 0.242054 0.136812
0.131991 0.241489 0.140246
0.142931 0.241245 0.144503
0.154742 0.241611 0.149126
0.167239 0.246494 0.148806
0.18175 0.255497 0.142992
0.19881 0.263996 0.136629
0.219867 0.271611 0.128496
0.245182 0.277867 0.120241
0.274998 0.282246 0.113497
0.30631 0.284428 0.1075
0.338872 0.288243 0.103243
0.373861 0.291112 0.0990005
0.411994 0.292988 0.0950027
0.45243 0.294545 0.0907454
0.493874 0.295613 0.0868696
0.534936 0.296422 0.0837415
0.573251 0.296742 0.0800031
0.60737 0.296742 0.0768139
0.638865 0.296117 0.0736248
0.667872 0.295048 0.0711833
0.695491 0.294484 0.0710002
0.723125 0.293919 0.0720684
0.751995 0.292241 0.0737469
0.782681 0.288487 0.0758831
0.813504 0.282734 0.0780041
0.844312 0.272114 0.0819409
0.873503 0.25449 0.0868696
0.901381 0.223545 0.094255
0.927993 0.166995 0.106752
0.102434 0.269306 0.137682
0.109056 0.269245 0.139803
0.116625 0.268299 0.141939
0.125307 0.268116 0.144244
0.134936 0.267308 0.147677
0.145876 0.267308 0.151934
0.157931 0.267308 0.156939
0.171115 0.269673 0.160494
0.185245 0.27805 0.157061
0.201999 0.288487 0.150439
0.221927 0.298116 0.143191
0.246113 0.306615 0.134874
0.274052 0.313237 0.126375
0.306371 0.317617 0.119066
0.340734 0.320684 0.113619
0.375555 0.324804 0.108568
0.412802 0.328618 0.104311
0.453239 0.331609 0.0992447
0.494682 0.334295 0.0950027
0.535561 0.336049 0.0909438
0.573251 0.337118 0.0866865
0.607675 0.337987 0.0826276
0.639307 0.338491 0.0785687
0.668803 0.338293 0.0749371
0.696803 0.337606 0.0712444
0.725002 0.337301 0.0701915
0.753491 0.335866 0.0716259
0.783749 0.333043 0.0730602
0.814557 0.32668 0.0758068
0.844556 0.316991 0.0788128
0.873625 0.29836 0.0839399
0.901381 0.267048 0.0911269
0.927993 0.206867 0.103563
0.104753 0.297612 0.145998
0.112062 0.297612 0.148119
0.119615 0.297368 0.15024
0.128313 0.29662 0.15256
0.138125 0.296498 0.155993
0.14905 0.296178 0.16025
0.161486 0.295995 0.164874
0.175616 0.296925 0.170748
0.189868 0.302983 0.170871
0.206058 0.314183 0.164996
0.22536 0.325734 0.15787
0.247745 0.335805 0.149752
0.274372 0.345235 0.141253
0.305364 0.351995 0.132753
0.339986 0.357244 0.125246
0.377676 0.360494 0.119936
0.41474 0.365621 0.114748
0.454307 0.37055 0.109438
0.495613 0.373739 0.10425
0.535927 0.376806 0.0992447
0.574121 0.379492 0.0947433
0.60824 0.381491 0.0898756
0.639872 0.38349 0.0852522
0.669245 0.384924 0.0804913
0.69749 0.385367 0.0758679
0.726055 0.384115 0.0706798
0.755367 0.382864 0.069749
0.785 0.380301 0.0709392
0.814878 0.374868 0.072755
0.844755 0.364294 0.0758068
0.873625 0.346609 0.0807507
0.901381 0.314305 0.0879377
0.927993 0.250736 0.100374
0.107805 0.329122 0.154498
0.115251 0.329061 0.156619
0.122805 0.328176 0.15874
0.131502 0.328115 0.161059
0.141314 0.328115 0.164492
0.152239 0.32781 0.16875
0.164675 0.327489 0.173739
0.17937 0.328115 0.180056
0.194751 0.33167 0.183932
0.210681 0.342107 0.180682
0.229618 0.354177 0.173693
0.251179 0.365866 0.166247
0.276555 0.376669 0.157992
0.305623 0.386419 0.148684
0.339864 0.394049 0.140063
0.376806 0.399496 0.132555
0.417807 0.403738 0.126314
0.456306 0.40911 0.120058
0.497612 0.415045 0.114748
0.537621 0.419242 0.109438
0.575174 0.423178 0.103929
0.609308 0.426307 0.0979324
0.640436 0.429419 0.0926833
0.66981 0.43212 0.0873732
0.697932 0.433677 0.0821241
0.726741 0.433555 0.0762493
0.756436 0.4318 0.0705577
0.786191 0.429053 0.0690623
0.81593 0.423606 0.0706188
0.845685 0.414801 0.0735637
0.874556 0.397238 0.0776226
0.901381 0.364981 0.0847486
0.927993 0.299107 0.0971847
0.110994 0.362997 0.164004
0.118441 0.362997 0.166125
0.125994 0.36286 0.168246
0.134676 0.36199 0.170565
0.144488 0.36199 0.173999
0.155749 0.36199 0.178241
0.168872 0.36199 0.183246
0.183551 0.362432 0.190051
0.2 0.363989 0.197498
0.216434 0.37174 0.19762
0.234867 0.384482 0.191241
0.255741 0.397925 0.183505
0.279988 0.410239 0.175006
0.308736 0.421118 0.165682
0.340246 0.430869 0.157
0.376806 0.438544 0.147555
0.416983 0.443992 0.138994
0.460304 0.448432 0.132616
0.499748 0.455619 0.126375
0.539559 0.460929 0.120867
0.576242 0.466239 0.114504
0.610376 0.471244 0.108125
0.641489 0.475486 0.102129
0.670802 0.479301 0.096376
0.699001 0.481483 0.0894942
0.727184 0.481987 0.0826276
0.756497 0.481361 0.0756237
0.786252 0.478233 0.0702525
0.815991 0.473243 0.0690013
0.845747 0.464683 0.0706188
0.874632 0.448981 0.0744945
0.902373 0.417929 0.0806287
0.927993 0.35198 0.0930037
0.114244 0.400305 0.173678
0.121614 0.400244 0.175814
0.129183 0.399298 0.177996
0.137865 0.399298 0.181186
0.147738 0.399298 0.184619
0.158999 0.399298 0.188937
0.172488 0.39968 0.193927
0.187869 0.400366 0.200748
0.204807 0.401297 0.208743
0.222934 0.405921 0.213809
0.241062 0.417105 0.210498
0.261799 0.43093 0.202808
0.285618 0.443992 0.194247
0.312428 0.455985 0.185748
0.343496 0.466865 0.175494
0.378119 0.476555 0.165743
0.417121 0.484245 0.156191
0.459617 0.490608 0.147494
0.503868 0.494987 0.140124
0.54255 0.501427 0.133684
0.578363 0.507805 0.127062
0.612177 0.513863 0.119875
0.642557 0.518868 0.113054
0.671427 0.523049 0.105623
0.699001 0.52636 0.0981308
0.727184 0.527932 0.0906233
0.756497 0.52781 0.0825055
0.786938 0.52549 0.0738689
0.816999 0.520806 0.0695048
0.84593 0.513115 0.0690013
0.874632 0.49868 0.0706188
0.902373 0.470802 0.0773175
0.927993 0.409369 0.0897536
0.118379 0.439734 0.185367
0.124926 0.438865 0.187564
0.132494 0.438865 0.189746
0.141176 0.438865 0.192187
0.151247 0.438865 0.195621
0.163241 0.438865 0.200183
0.176745 0.439246 0.205875
0.192615 0.440299 0.212802
0.210239 0.441367 0.221241
0.228992 0.442985 0.23093
0.248249 0.45124 0.23212
0.268742 0.464927 0.225055
0.292119 0.477989 0.216251
0.318181 0.490745 0.20737
0.348119 0.502617 0.197116
0.381613 0.512551 0.186496
0.419364 0.522118 0.176623
0.460746 0.529549 0.165866
0.504112 0.534997 0.15613
0.546685 0.539422 0.148562
0.581247 0.546624 0.140993
0.614313 0.552682 0.133562
0.644251 0.557992 0.125628
0.672374 0.562432 0.117433
0.699626 0.565621 0.109377
0.727184 0.567803 0.100755
0.756497 0.568246 0.0914931
0.786816 0.567559 0.081117
0.816999 0.563745 0.0715038
0.84593 0.556924 0.0690013
0.874632 0.545495 0.0690013
0.902373 0.521859 0.0731823
0.927993 0.466484 0.0854963
0.121752 0.480308 0.19762
0.129183 0.480308 0.199741
0.136751 0.480308 0.202808
0.145434 0.480308 0.205371
0.155489 0.480491 0.209613
0.167681 0.480491 0.214176
0.181186 0.480674 0.22005
0.19736 0.481743 0.227314
0.216114 0.482811 0.236301
0.235996 0.484428 0.246616
0.25655 0.488746 0.254124
0.277424 0.499428 0.250248
0.300175 0.511986 0.242054
0.325811 0.524559 0.232746
0.354803 0.536248 0.222309
0.387182 0.54699 0.21149
0.422934 0.556435 0.199878
0.463111 0.56405 0.18793
0.505241 0.571374 0.176806
0.546929 0.576562 0.165866
0.585245 0.580926 0.157183
0.616434 0.586999 0.148623
0.64593 0.592111 0.140429
0.673121 0.59675 0.131121
0.699992 0.599924 0.121935
0.727626 0.602564 0.112001
0.756497 0.603616 0.101625
0.786252 0.60293 0.0901198
0.816754 0.600549 0.0775006
0.846128 0.595117 0.069749
0.874632 0.586313 0.0690013
0.90219 0.566613 0.069749
0.927993 0.520806 0.0810559
0.126253 0.521492 0.212741
0.133684 0.521492 0.215122
0.141253 0.521614 0.217365
0.149935 0.521737 0.220752
0.159991 0.521737 0.225238
0.172305 0.522499 0.229801
0.18674 0.522744 0.235874
0.20293 0.523186 0.243992
0.221988 0.524239 0.253239
0.242985 0.525612 0.263935
0.26511 0.527749 0.276249
0.287236 0.534554 0.279622
0.309987 0.545983 0.271992
0.334997 0.557183 0.262684
0.36286 0.567742 0.252247
0.394369 0.578119 0.240681
0.428992 0.58674 0.228748
0.467552 0.595117 0.215625
0.507622 0.602243 0.202365
0.548058 0.608438 0.18912
0.585245 0.612741 0.177005
0.619928 0.6168 0.166934
0.647868 0.621744 0.157122
0.674189 0.625742 0.147066
0.70074 0.629496 0.136751
0.727626 0.632364 0.125566
0.756497 0.633875 0.113375
0.786252 0.634058 0.100755
0.816495 0.632242 0.0867475
0.846754 0.628183 0.0724956
0.874754 0.620493 0.0690013
0.901442 0.605936 0.0690013
0.927993 0.568994 0.0760052
0.131563 0.561242 0.229938
0.138994 0.561242 0.232807
0.146563 0.561242 0.235309
0.155245 0.562112 0.238682
0.165301 0.562249 0.243183
0.177935 0.562249 0.248814
0.192493 0.562615 0.255177
0.209613 0.563684 0.263493
0.228992 0.564736 0.273548
0.250614 0.565805 0.284749
0.273869 0.567178 0.297368
0.297551 0.570428 0.308492
0.321248 0.578241 0.306996
0.346242 0.588052 0.298253
0.373495 0.597299 0.287816
0.404242 0.606561 0.276249
0.437797 0.614801 0.263554
0.473671 0.622873 0.249317
0.512123 0.629252 0.234058
0.550118 0.635431 0.219303
0.586313 0.640497 0.203693
0.619364 0.644434 0.189746
0.649989 0.647364 0.177493
0.675807 0.651499 0.16643
0.701503 0.654688 0.154116
0.728054 0.657557 0.141817
0.756191 0.659815 0.128557
0.785931 0.660868 0.114122
0.815991 0.659998 0.098497
0.84625 0.657374 0.0806287
0.874754 0.650996 0.0696269
0.901442 0.638865 0.0690013
0.927687 0.609934 0.0717479
0.137255 0.598367 0.25124
0.144366 0.598367 0.253803
0.152239 0.598367 0.256992
0.160937 0.59855 0.260563
0.171237 0.599374 0.265248
0.183688 0.599374 0.270863
0.199237 0.599741 0.277989
0.216495 0.600427 0.286931
0.236988 0.601495 0.297368
0.259739 0.602564 0.308934
0.284108 0.603616 0.321874
0.3093 0.605371 0.33637
0.334859 0.608988 0.345998
0.359747 0.61706 0.33962
0.386984 0.625376 0.329747
0.416114 0.633112 0.318181
0.448493 0.64062 0.305501
0.482734 0.647562 0.290562
0.518624 0.65362 0.27425
0.553674 0.659617 0.256992
0.587625 0.664744 0.23888
0.620127 0.668803 0.220554
0.649744 0.671992 0.203616
0.677806 0.67425 0.188815
0.702373 0.678004 0.175753
0.728435 0.680995 0.161563
0.755871 0.683116 0.14638
0.785245 0.684565 0.130068
0.815366 0.684489 0.112627
0.84538 0.682628 0.0928664
0.874632 0.677745 0.0721294
0.901442 0.667994 0.0690013
0.927001 0.645243 0.0690013
0.143618 0.63212 0.276814
0.1505 0.63212 0.280064
0.15874 0.632242 0.283619
0.167742 0.632563 0.287175
0.178058 0.633127 0.2925
0.191424 0.633433 0.298436
0.206485 0.633555 0.305684
0.224811 0.634562 0.315053
0.245869 0.634623 0.325612
0.269734 0.635676 0.337865
0.295247 0.636744 0.351675
0.321859 0.638056 0.366171
0.349615 0.640177 0.381796
0.37612 0.644175 0.387747
0.402747 0.651179 0.378561
0.430869 0.657252 0.367559
0.461677 0.664179 0.355306
0.493675 0.670054 0.340368
0.52668 0.675364 0.324056
0.559304 0.681239 0.304555
0.590738 0.68574 0.284184
0.620996 0.690562 0.262684
0.649744 0.693874 0.24062
0.676936 0.697063 0.220005
0.703929 0.698802 0.202243
0.729061 0.701991 0.186053
0.756252 0.704997 0.169055
0.785245 0.706432 0.150057
0.815 0.707179 0.129931
0.844755 0.706004 0.1075
0.874067 0.702556 0.0812543
0.901442 0.693629 0.0691844
0.927001 0.675364 0.0690013
0.151003 0.663493 0.308995
0.158434 0.663493 0.312184
0.166125 0.663493 0.315999
0.175875 0.663996 0.319936
0.186496 0.66424 0.32549
0.199863 0.6645 0.331685
0.215869 0.665003 0.339498
0.234745 0.665431 0.348867
0.256992 0.665995 0.360494
0.281483 0.66656 0.372747
0.30811 0.667628 0.386236
0.335866 0.668681 0.401114
0.364233 0.66949 0.416236
0.393118 0.671122 0.43093
0.420859 0.674739 0.433127
0.447868 0.680186 0.423117
0.476493 0.686 0.411994
0.506676 0.69131 0.398062
0.536873 0.696498 0.381994
0.566873 0.701427 0.363241
0.595239 0.706493 0.341253
0.623301 0.71075 0.317494
0.649989 0.714992 0.291875
0.676493 0.718303 0.264744
0.702998 0.721004 0.239002
0.729992 0.722683 0.217441
0.756252 0.725872 0.197253
0.784741 0.728191 0.17525
0.814496 0.729244 0.151751
0.844251 0.729183 0.126314
0.873121 0.726375 0.0972457
0.901381 0.718563 0.0700694
0.927001 0.702495 0.0690013
0.160067 0.693187 0.349065
0.167559 0.693187 0.3523
0.175616 0.693309 0.356115
0.185122 0.693751 0.360555
0.196612 0.693751 0.366125
0.209995 0.694179 0.372488
0.226368 0.69456 0.380423
0.246372 0.694743 0.389548
0.269245 0.695186 0.400549
0.295369 0.69575 0.413245
0.322683 0.696254 0.426047
0.350988 0.697307 0.439994
0.380804 0.697627 0.454307
0.4103 0.698436 0.469429
0.439734 0.699245 0.481743
0.467109 0.702495 0.482628
0.494118 0.707805 0.473182
0.521935 0.712489 0.461494
0.548867 0.717189 0.446677
0.575936 0.721614 0.430365
0.601678 0.72668 0.409751
0.626993 0.730938 0.385306
0.651926 0.73518 0.358312
0.676616 0.739437 0.327245
0.701991 0.742748 0.294499
0.729061 0.74493 0.262501
0.757183 0.747127 0.234806
0.784558 0.74963 0.208316
0.813443 0.751553 0.180316
0.843183 0.752377 0.150378
0.872618 0.750317 0.117556
0.900755 0.743938 0.0783703
0.926436 0.729061 0.0690013
0.170871 0.722499 0.39762
0.178363 0.722499 0.40087
0.186999 0.722499 0.405112
0.196368 0.722866 0.409369
0.208118 0.722866 0.414496
0.222187 0.723186 0.420874
0.238865 0.723491 0.427985
0.259739 0.723873 0.437308
0.283742 0.723873 0.447364
0.309987 0.723873 0.458366
0.338857 0.72488 0.470985
0.36817 0.724941 0.483177
0.398367 0.725246 0.495735
0.428992 0.726055 0.509117
0.458747 0.726253 0.521874
0.487861 0.727504 0.532876
0.514488 0.730129 0.534615
