LUT/LumixLab/NEWTRO.cube
TITLE "Generated by Resolve"
#LUMIXPHOTOSTYLE PORT
LUT_3D_SIZE 5
0.0859998 0.082002 0.0780041
0.182986 0.0720073 0.0764935
0.381994 0.0720073 0.0910048
0.658 0.0720073 0.117494
0.917006 0.0720073 0.289006
0.0910048 0.162997 0.10399
0.177996 0.175494 0.093492
0.414496 0.173495 0.0724956
0.687495 0.16199 0.0780041
0.925002 0.0720073 0.166506
0.110994 0.362997 0.164004
0.2 0.363989 0.197498
0.416983 0.443992 0.138994
0.699001 0.481483 0.0894942
0.927993 0.35198 0.0930037
0.151003 0.663493 0.308995
0.256992 0.665995 0.360494
0.476493 0.686 0.411994
0.702998 0.721004 0.239002
0.927001 0.702495 0.0690013
0.373007 0.915007 0.751995
0.496498 0.915007 0.758495
0.650004 0.914 0.773007
0.757 0.912001 0.795499
0.917006 0.921996 0.648005
0.0760052 0.0964981 0.164996
0.175998 0.0905013 0.166491
0.388495 0.0784924 0.181491
0.665003 0.0720073 0.216495
0.917006 0.0720073 0.434989
0.0785077 0.18999 0.166995
0.186496 0.182498 0.177493
0.419989 0.170993 0.180499
0.69099 0.158984 0.198489
0.924498 0.0720073 0.317998
0.102007 0.408988 0.218997
0.210498 0.400992 0.250492
0.432486 0.458488 0.234989
0.704997 0.48249 0.200488
0.927993 0.345495 0.234989
0.147997 0.678996 0.385992
0.263981 0.680003 0.432486
0.501991 0.687495 0.523491
0.706996 0.723491 0.372992
0.927001 0.700496 0.198489
0.370504 0.915999 0.762997
0.496498 0.915496 0.769497
0.652003 0.914504 0.781994
0.758999 0.912993 0.803006
0.917998 0.921996 0.682002
0.0760052 0.130999 0.333989
0.180499 0.105501 0.401495
0.391989 0.117998 0.415991
0.670497 0.119005 0.489494
0.917998 0.0720073 0.631998
0.0760052 0.236484 0.335485
0.173495 0.215488 0.424491
0.414496 0.215991 0.442481
0.684489 0.213489 0.509483
0.924498 0.0720073 0.6065
0.0760052 0.485985 0.426993
0.195483 0.488991 0.451987
0.467994 0.488991 0.500984
0.711498 0.479988 0.523491
0.927993 0.330983 0.570993
0.101503 0.712993 0.558999
0.243488 0.712001 0.579492
0.533486 0.708003 0.622995
0.714992 0.729503 0.605997
0.927001 0.697002 0.539986
0.357 0.917998 0.785992
0.488991 0.917998 0.790494
0.652995 0.915999 0.800992
0.762997 0.914504 0.818494
0.917998 0.921996 0.736004
0.0760052 0.191501 0.610498
0.15349 0.153002 0.676493
0.442985 0.141497 0.681498
0.685496 0.175494 0.703502
0.921996 0.0720073 0.753002
0.0760052 0.30898 0.621988
0.142992 0.283986 0.684001
0.456489 0.253986 0.695003
0.693492 0.29749 0.710994
0.925002 0.138994 0.751995
0.0760052 0.570489 0.654002
0.143496 0.595987 0.684001
0.455985 0.565484 0.715999
0.708995 0.568994 0.723995
0.925994 0.393484 0.747997
0.0760052 0.741497 0.708995
0.203494 0.745495 0.716991
0.507485 0.743999 0.727001
0.727504 0.738491 0.740001
0.927001 0.689998 0.736996
0.303502 0.921492 0.820996
0.448997 0.921004 0.824002
0.644495 0.919997 0.829999
0.765499 0.917998 0.841001
0.917998 0.921996 0.800992
0.0760052 0.603006 0.889998
0.0760052 0.5785 0.906493
0.277989 0.491005 0.923003
0.699001 0.401999 0.923506
0.919997 0.500999 0.919997
0.0760052 0.656504 0.891493
0.0760052 0.64799 0.906493
0.260487 0.606989 0.923003
0.695003 0.544991 0.923995
0.919997 0.591989 0.919997
0.0760052 0.729992 0.893004
0.0760052 0.730999 0.906004
0.224994 0.723003 0.923995
0.686 0.693492 0.925002
0.919997 0.693004 0.919997
0.0760052 0.813001 0.893004
0.0760052 0.818998 0.904005
0.170993 0.825498 0.921996
0.666499 0.805493 0.925002
0.919997 0.783505 0.920501
0.0760052 0.930999 0.917006
0.179492 0.932006 0.917998
0.440986 0.932006 0.919005
0.702495 0.930999 0.919997
0.921004 0.923003 0.921004
