LUT/LumixLab/NEWTRO.cube
TITLE "Generated by Resolve"
#LUMIXPHOTOSTYLE PORT
LUT_3D_SIZE 9
0.0859998 0.082002 0.0780041
0.123751 0.0767529 0.0760052
0.182986 0.0720073 0.0764935
0.267247 0.0720073 0.0834974
0.381994 0.0720073 0.0910048
0.527489 0.0720073 0.101747
0.658 0.0720073 0.117494
0.783749 0.0720073 0.151995
0.917006 0.0720073 0.289006
0.086244 0.112245 0.0867475
0.118746 0.114748 0.0814984
0.183246 0.111238 0.0737469
0.279484 0.105501 0.0737469
0.40824 0.0992447 0.0757458
0.559487 0.0909895 0.078996
0.682002 0.0772412 0.0842451
0.799741 0.0720073 0.11751
0.919249 0.0720073 0.248753
0.0910048 0.162997 0.10399
0.12224 0.161242 0.113741
0.177996 0.175494 0.093492
0.276997 0.177249 0.078996
0.414496 0.173495 0.0724956
0.566995 0.169238 0.0737469
0.687495 0.16199 0.0780041
0.810254 0.142992 0.0879988
0.925002 0.0720073 0.166506
0.0995041 0.243488 0.130251
0.131991 0.241489 0.140246
0.18175 0.255497 0.142992
0.274998 0.282246 0.113497
0.411994 0.292988 0.0950027
0.573251 0.296742 0.0800031
0.695491 0.294484 0.0710002
0.813504 0.282734 0.0780041
0.927993 0.166995 0.106752
0.110994 0.362997 0.164004
0.144488 0.36199 0.173999
0.2 0.363989 0.197498
0.279988 0.410239 0.175006
0.416983 0.443992 0.138994
0.576242 0.466239 0.114504
0.699001 0.481483 0.0894942
0.815991 0.473243 0.0690013
0.927993 0.35198 0.0930037
0.126253 0.521492 0.212741
0.159991 0.521737 0.225238
0.221988 0.524239 0.253239
0.309987 0.545983 0.271992
0.428992 0.58674 0.228748
0.585245 0.612741 0.177005
0.70074 0.629496 0.136751
0.816495 0.632242 0.0867475
0.927993 0.568994 0.0760052
0.151003 0.663493 0.308995
0.186496 0.66424 0.32549
0.256992 0.665995 0.360494
0.364233 0.66949 0.416236
0.476493 0.686 0.411994
0.595239 0.706493 0.341253
0.702998 0.721004 0.239002
0.814496 0.729244 0.151751
0.927001 0.702495 0.0690013
0.2 0.785245 0.516991
0.239246 0.785245 0.529488
0.320989 0.785504 0.552499
0.441245 0.785504 0.584237
0.554498 0.785748 0.615991
0.633753 0.79324 0.618494
0.706752 0.808743 0.560998
0.811505 0.822003 0.370001
0.925246 0.815 0.0885023
0.373007 0.915007 0.751995
0.416495 0.915007 0.754253
0.496498 0.915007 0.758495
0.585489 0.914 0.764752
0.650004 0.914 0.773007
0.702998 0.912993 0.78175
0.757 0.912001 0.795499
0.820005 0.913497 0.801007
0.917006 0.921996 0.648005
0.0805066 0.0865034 0.112749
0.119493 0.0832532 0.110246
0.177996 0.0784924 0.111742
0.26949 0.0720073 0.115251
0.384497 0.0720073 0.123247
0.529 0.0720073 0.134249
0.658991 0.0720073 0.151492
0.784741 0.0720073 0.188998
0.917006 0.0720073 0.338247
0.082002 0.120989 0.109499
0.120989 0.116747 0.111742
0.183993 0.110002 0.109743
0.279744 0.103746 0.11075
0.409247 0.0974899 0.113741
0.560739 0.0889906 0.117998
0.683238 0.0755016 0.12549
0.799741 0.0720073 0.158495
0.919249 0.0720073 0.297993
0.0874952 0.173495 0.121752
0.12549 0.16849 0.128496
0.180499 0.177737 0.12224
0.281498 0.176989 0.111498
0.416739 0.172488 0.110491
0.56849 0.168246 0.114
0.688746 0.160998 0.1205
0.811002 0.141238 0.132998
0.925002 0.0720073 0.212497
0.0982528 0.255497 0.146746
0.134249 0.252247 0.155245
0.187488 0.255497 0.170489
0.278737 0.285496 0.142245
0.417487 0.294987 0.12575
0.577493 0.296483 0.115999
0.696498 0.294484 0.11574
0.813748 0.281483 0.12549
0.927993 0.165743 0.15349
0.110002 0.377234 0.180499
0.145739 0.37499 0.190249
0.204746 0.37499 0.213489
0.286488 0.412238 0.205737
0.422492 0.449241 0.169497
0.58024 0.470237 0.146487
0.700999 0.482231 0.127749
0.816999 0.472236 0.11725
0.927993 0.349981 0.140993
0.125994 0.532998 0.231998
0.161242 0.532998 0.244495
0.225742 0.534493 0.273243
0.31899 0.547494 0.310735
0.435492 0.589746 0.266987
0.588495 0.615488 0.21149
0.702251 0.630747 0.171237
0.817502 0.632242 0.12874
0.927993 0.567987 0.126741
0.151003 0.669001 0.333486
0.187243 0.669245 0.349996
0.260243 0.670497 0.383993
0.370733 0.673991 0.438239
0.484733 0.686244 0.452995
0.598489 0.70724 0.387243
0.70425 0.721996 0.281743
0.815 0.729503 0.188998
0.927001 0.701503 0.1075
0.199756 0.787747 0.536248
0.239994 0.787747 0.54699
0.322484 0.787747 0.568246
0.444495 0.787503 0.59649
0.558236 0.787747 0.625498
0.637491 0.793256 0.635996
0.708247 0.809003 0.587488
0.811505 0.822003 0.416983
0.925246 0.814755 0.129488
0.372 0.915007 0.755505
0.416495 0.915007 0.757504
0.496986 0.915007 0.762249
0.586236 0.914 0.768246
0.650996 0.914 0.77525
0.702998 0.912993 0.785
0.757992 0.912001 0.798245
0.820493 0.913497 0.805493
0.917006 0.921996 0.659998
0.0760052 0.0964981 0.164996
0.119493 0.0877546 0.16875
0.175998 0.0905013 0.166491
0.260243 0.0902419 0.172488
0.388495 0.0784924 0.181491
0.540246 0.0720073 0.193484
0.665003 0.0720073 0.216495
0.786496 0.0720073 0.26949
0.917006 0.0720073 0.434989
0.0760052 0.134997 0.157244
0.115251 0.12549 0.170993
0.179248 0.122499 0.169238
0.267994 0.119249 0.175998
0.399496 0.110246 0.182498
0.557748 0.0982376 0.190494
0.684245 0.0782483 0.202243
0.800504 0.0720073 0.244999
0.919249 0.0720073 0.400748
0.0785077 0.18999 0.166995
0.119738 0.186984 0.170245
0.186496 0.182498 0.177493
0.286748 0.175738 0.176989
0.419989 0.170993 0.180499
0.57174 0.166247 0.186984
0.69099 0.158984 0.198489
0.811994 0.138491 0.219989
0.924498 0.0720073 0.317998
0.0827497 0.286488 0.185992
0.127245 0.280491 0.191241
0.196735 0.271733 0.207492
0.287495 0.293492 0.200488
0.429236 0.298482 0.187488
0.584237 0.295735 0.186236
0.698497 0.293736 0.195743
0.814755 0.278492 0.212741
0.927993 0.16199 0.250233
0.102007 0.408988 0.218997
0.142 0.405737 0.228244
0.210498 0.400992 0.250492
0.300984 0.416236 0.276493
0.432486 0.458488 0.234989
0.588235 0.476493 0.213245
0.704997 0.48249 0.200488
0.817746 0.470481 0.205234
0.927993 0.345495 0.234989
0.121004 0.556497 0.277241
0.159747 0.555734 0.289494
0.230488 0.554986 0.317479
0.334737 0.558495 0.368978
0.449744 0.593744 0.352239
0.594995 0.620249 0.291234
0.705501 0.633249 0.247486
0.818998 0.631251 0.207492
0.927993 0.564996 0.218982
0.147997 0.678996 0.385992
0.18674 0.6795 0.401236
0.263981 0.680003 0.432486
0.381735 0.681498 0.480735
0.501991 0.687495 0.523491
0.605493 0.708247 0.473732
0.706996 0.723491 0.372992
0.816251 0.730495 0.27248
0.927001 0.700496 0.198489
0.197498 0.792752 0.570489
0.238499 0.792752 0.578988
0.324742 0.792248 0.595743
0.449744 0.791501 0.61825
0.56524 0.791501 0.643
0.644495 0.7935 0.663249
0.711254 0.80975 0.628992
0.812497 0.822995 0.500237
0.925994 0.813993 0.209491
0.370504 0.915999 0.762997
0.41474 0.915999 0.765255
0.496498 0.915496 0.769497
0.586999 0.915007 0.774746
0.652003 0.914504 0.781994
0.704494 0.914 0.790494
0.758999 0.912993 0.803006
0.822248 0.913497 0.814252
0.917998 0.921996 0.682002
0.0760052 0.112001 0.234241
0.109743 0.0992447 0.266239
0.182498 0.0959945 0.258488
0.265736 0.102251 0.263996
0.376989 0.110506 0.276738
0.536248 0.0987411 0.303746
0.67425 0.0760052 0.33724
0.793256 0.0720073 0.402991
0.917006 0.0720073 0.551995
0.0760052 0.147738 0.231495
0.105241 0.137743 0.266743
0.184985 0.12874 0.265492
0.270237 0.134493 0.270237
0.384741 0.140246 0.283986
0.545495 0.129244 0.309483
0.6795 0.111498 0.34049
0.805493 0.072755 0.389487
0.919249 0.0720073 0.533242
0.0760052 0.209491 0.239994
0.105745 0.211734 0.253498
0.180987 0.197498 0.27924
0.281743 0.195987 0.283742
0.405234 0.19649 0.299245
0.564248 0.18674 0.318242
0.68925 0.173739 0.343236
0.811994 0.142245 0.380987
0.924498 0.0720073 0.480491
0.0760052 0.313237 0.268498
0.119249 0.311986 0.274739
0.190234 0.309239 0.286992
0.30074 0.304982 0.306233
0.443488 0.300237 0.311238
0.58999 0.295232 0.320729
0.701747 0.291981 0.340734
0.815747 0.274235 0.37174
0.927993 0.156237 0.420981
0.0760052 0.456489 0.303746
0.116487 0.459739 0.311986
0.200992 0.450736 0.327489
0.320485 0.441245 0.362234
0.449744 0.472984 0.355734
0.600748 0.483742 0.338979
0.709239 0.481483 0.342733
0.81825 0.466987 0.363729
0.927993 0.338491 0.40499
0.0992447 0.590997 0.362493
0.144991 0.589487 0.372732
0.225986 0.587243 0.396231
0.348989 0.585245 0.438483
0.473991 0.598489 0.478737
0.604746 0.627237 0.423743
0.710246 0.63624 0.38349
0.820752 0.629496 0.357733
0.927245 0.560739 0.385229
0.135256 0.694499 0.467994
0.177737 0.694499 0.480232
0.261738 0.694499 0.50399
0.390738 0.693996 0.539742
0.521492 0.695247 0.580484
0.616251 0.710246 0.573983
0.710246 0.726253 0.501732
0.818494 0.730755 0.41648
0.927001 0.699245 0.358984
0.189502 0.799741 0.612741
0.23299 0.799741 0.618738
0.322484 0.798749 0.630747
0.454994 0.798001 0.646738
0.573236 0.796994 0.665248
0.652995 0.796994 0.686244
0.716747 0.80975 0.672496
0.813748 0.824002 0.591241
0.926253 0.813001 0.351232
0.365255 0.917006 0.774243
0.410239 0.917006 0.775753
0.49424 0.916243 0.779492
0.587243 0.915999 0.785
0.652995 0.915007 0.791241
0.706004 0.915007 0.798993
0.760998 0.914 0.809995
0.824994 0.912749 0.82475
0.917998 0.921996 0.709499
0.0760052 0.130999 0.333989
0.0979934 0.114504 0.402243
0.180499 0.105501 0.401495
0.277241 0.109499 0.401236
0.391989 0.117998 0.415991
0.534249 0.130755 0.440742
0.670497 0.119005 0.489494
0.800992 0.0752422 0.549737
0.917998 0.0720073 0.631998
0.0760052 0.164736 0.335988
0.0927443 0.15349 0.403738
0.178744 0.140749 0.412482
0.283497 0.142 0.409995
0.399741 0.150744 0.424735
0.540993 0.162997 0.448737
0.674739 0.150744 0.496986
0.803998 0.111238 0.551736
0.920256 0.0720073 0.625254
0.0760052 0.236484 0.335485
0.0857404 0.236484 0.390997
0.173495 0.215488 0.424491
0.294743 0.205997 0.428244
0.414496 0.215991 0.442481
0.555245 0.228244 0.466484
0.684489 0.213489 0.509483
0.808499 0.179736 0.552483
0.924498 0.0720073 0.6065
0.0760052 0.342733 0.38024
0.10724 0.348989 0.397742
0.179736 0.349981 0.414984
0.295491 0.330983 0.45774
0.439246 0.334737 0.470237
0.580987 0.338735 0.49424
0.698497 0.324483 0.52224
0.814496 0.289738 0.549737
0.927993 0.148989 0.580499
0.0760052 0.485985 0.426993
0.118486 0.487984 0.436484
0.195483 0.488991 0.451987
0.314733 0.488991 0.474495
0.467994 0.488991 0.500984
0.61149 0.487739 0.512489
0.711498 0.479988 0.523491
0.819242 0.461982 0.542733
0.927993 0.330983 0.570993
0.0760052 0.617487 0.480735
0.112245 0.623499 0.491493
0.196735 0.624491 0.506737
0.338491 0.619989 0.529244
0.498985 0.615991 0.562493
0.61474 0.635493 0.556985
0.716747 0.638743 0.535988
0.8215 0.628 0.537987
0.927001 0.554986 0.558236
0.101503 0.712993 0.558999
0.152239 0.712993 0.565988
0.243488 0.712001 0.579492
0.38674 0.710002 0.599237
0.533486 0.708003 0.622995
0.630488 0.711498 0.64625
0.714992 0.729503 0.605997
0.820752 0.731243 0.559487
0.927001 0.697002 0.539986
0.172 0.808743 0.653239
0.216999 0.808743 0.656992
0.310994 0.807752 0.6645
0.451484 0.805753 0.675502
0.577996 0.804501 0.688746
0.659998 0.802747 0.705242
0.723003 0.80975 0.710002
0.815747 0.824994 0.656748
0.926253 0.811749 0.519997
0.357 0.917998 0.785992
0.403738 0.917998 0.788006
0.488991 0.917998 0.790494
0.585 0.917006 0.795743
0.652995 0.915999 0.800992
0.706996 0.915755 0.808255
0.762997 0.914504 0.818494
0.828 0.912993 0.835752
0.917998 0.921996 0.736004
0.0760052 0.154742 0.468742
0.0802472 0.134752 0.553491
0.170748 0.122744 0.560494
0.291234 0.118502 0.557488
0.413489 0.127749 0.56875
0.552987 0.140505 0.585245
0.671244 0.160754 0.610742
0.797742 0.131502 0.652003
0.919249 0.0720073 0.692241
0.0760052 0.187747 0.474235
0.0779889 0.173999 0.551995
0.167987 0.159991 0.566995
0.293492 0.152499 0.566995
0.420996 0.160494 0.57525
0.559243 0.173739 0.591485
0.674739 0.195239 0.615747
0.8 0.16524 0.653742
0.921248 0.0720073 0.690242
0.0760052 0.263981 0.47924
0.0760052 0.260731 0.544732
0.162234 0.241489 0.574487
0.292988 0.224247 0.585489
0.436988 0.230488 0.587991
0.572244 0.246494 0.602991
0.682002 0.271489 0.624491
0.803754 0.233982 0.657252
0.925505 0.073991 0.683497
0.0760052 0.38674 0.506996
0.0764935 0.40473 0.543236
0.156497 0.400992 0.567239
0.288487 0.366995 0.601236
0.459983 0.355734 0.606744
0.590249 0.377234 0.619486
0.6925 0.39498 0.637751
0.80975 0.352239 0.660243
0.927001 0.171496 0.677745
0.0760052 0.521492 0.554742
0.10425 0.531243 0.569497
0.183993 0.533745 0.581735
0.300984 0.537484 0.598489
0.464744 0.52224 0.627741
0.608499 0.528496 0.635996
0.705501 0.528237 0.649241
0.815991 0.493233 0.66125
0.927001 0.320241 0.671748
0.0760052 0.637995 0.596246
0.117739 0.641001 0.603998
0.200748 0.643244 0.613748
0.331243 0.644739 0.626001
0.491234 0.644739 0.637995
0.625742 0.643488 0.650996
0.721492 0.638743 0.65449
0.822003 0.624994 0.657496
0.927001 0.547738 0.665492
0.0760052 0.726741 0.639246
0.105486 0.731991 0.645243
0.198245 0.732494 0.65124
0.345495 0.730495 0.659495
0.522744 0.726253 0.668498
0.642496 0.721996 0.683742
0.720745 0.733745 0.677745
0.824002 0.730251 0.658244
0.927001 0.69424 0.656748
0.131258 0.820249 0.692744
0.181491 0.819242 0.694743
0.279484 0.81825 0.699504
0.431495 0.816251 0.706493
0.573739 0.813748 0.715251
0.663996 0.810742 0.727001
0.73225 0.809995 0.744503
0.818006 0.826246 0.706996
0.925994 0.809995 0.643503
0.340505 0.919249 0.800992
0.388495 0.919249 0.802243
0.477989 0.919005 0.805005
0.579751 0.918257 0.808743
0.650752 0.917998 0.813001
0.70724 0.917006 0.819242
0.764492 0.915999 0.827756
0.830243 0.914 0.843244
0.917998 0.921996 0.764996
0.0760052 0.191501 0.610498
0.0760052 0.173999 0.654734
0.15349 0.153002 0.676493
0.284245 0.140505 0.680751
0.442985 0.141497 0.681498
0.5785 0.155001 0.690501
0.685496 0.175494 0.703502
0.794751 0.211002 0.721248
0.921996 0.0720073 0.753002
0.0760052 0.226749 0.615
0.0760052 0.213489 0.654994
0.15024 0.192493 0.679744
0.283482 0.177737 0.684993
0.449241 0.176486 0.68574
0.583993 0.190738 0.693751
0.688243 0.213245 0.706004
0.796002 0.249485 0.723003
0.923506 0.0752422 0.752499
0.0760052 0.30898 0.621988
0.0760052 0.303731 0.655985
0.142992 0.283986 0.684001
0.280491 0.261982 0.692744
0.456489 0.253986 0.695003
0.595239 0.269993 0.700999
0.693492 0.29749 0.710994
0.799252 0.330739 0.726253
0.925002 0.138994 0.751995
0.0760052 0.450233 0.625498
0.0760052 0.457237 0.653986
0.133989 0.449241 0.68574
0.273991 0.419989 0.699489
0.459236 0.397742 0.707744
0.610239 0.406989 0.709239
0.700999 0.434485 0.71725
0.803754 0.452995 0.731243
0.925246 0.248493 0.7505
0.0760052 0.570489 0.654002
0.0760052 0.585733 0.670237
0.143496 0.595987 0.684001
0.269734 0.589487 0.699489
0.455985 0.565484 0.715999
0.622492 0.552483 0.718746
0.708995 0.568994 0.723995
0.809491 0.568994 0.735744
0.925994 0.393484 0.747997
0.0760052 0.663249 0.68249
0.0929885 0.671489 0.692241
0.182483 0.67274 0.69749
0.310491 0.67425 0.704997
0.468238 0.675502 0.712489
0.620493 0.662989 0.728496
0.71725 0.662989 0.731502
0.815991 0.653742 0.739498
0.926497 0.553491 0.743252
0.0760052 0.741497 0.708995
0.112749 0.744991 0.713252
0.203494 0.745495 0.716991
0.342733 0.744991 0.721752
0.507485 0.743999 0.727001
0.634745 0.742245 0.732754
0.727504 0.738491 0.740001
0.825498 0.728496 0.739254
0.927001 0.689998 0.736996
0.0760052 0.829252 0.73875
0.0887465 0.834745 0.743496
0.194491 0.833494 0.745754
0.357244 0.831495 0.749004
0.537484 0.828244 0.753246
0.656748 0.824506 0.759243
0.739498 0.819501 0.771496
0.820996 0.828504 0.760494
0.925994 0.808255 0.728252
0.303502 0.921492 0.820996
0.352987 0.921492 0.822003
0.448997 0.921004 0.824002
0.564248 0.920501 0.826246
0.644495 0.919997 0.829999
0.704753 0.919005 0.834257
0.765499 0.917998 0.841001
0.833494 0.915755 0.853498
0.917998 0.921996 0.800992
0.0760052 0.276005 0.727749
0.0760052 0.259251 0.749996
0.111482 0.219745 0.783993
0.256489 0.200244 0.790249
0.442237 0.186999 0.794247
0.612238 0.185504 0.795499
0.705501 0.205493 0.801495
0.803998 0.246754 0.809491
0.921248 0.190753 0.829252
0.0760052 0.318242 0.730999
0.0760052 0.305486 0.751492
0.106737 0.268742 0.786252
0.253986 0.246738 0.792493
0.442481 0.230243 0.796994
0.614237 0.225498 0.797742
0.707744 0.247242 0.802747
0.805249 0.291493 0.810498
0.921248 0.227237 0.829252
0.0760052 0.408988 0.7355
0.0760052 0.403494 0.754498
0.0969863 0.379492 0.790249
0.248234 0.353491 0.796994
0.440482 0.329992 0.802243
0.615747 0.318486 0.80325
0.712001 0.338979 0.805493
0.807004 0.385489 0.812497
0.922255 0.304738 0.829999
0.0760052 0.535485 0.741497
0.0760052 0.538491 0.758495
0.0857404 0.537484 0.792248
0.238239 0.514733 0.801495
0.434241 0.487984 0.807996
0.615747 0.467735 0.809995
0.716991 0.477241 0.809247
0.809247 0.514733 0.814755
0.922255 0.425483 0.829999
0.0760052 0.636744 0.744747
0.0760052 0.641993 0.759503
0.076997 0.650492 0.790997
0.226993 0.638498 0.803494
0.423239 0.621241 0.810742
0.612741 0.601999 0.815747
0.723247 0.597498 0.813748
0.812497 0.616739 0.816999
0.923247 0.545983 0.829999
0.0760052 0.699504 0.762005
0.0760052 0.706493 0.77174
0.0882429 0.719997 0.790494
0.220233 0.718242 0.798505
0.409735 0.7075 0.809247
0.605493 0.6925 0.81825
0.724743 0.679744 0.819745
0.815747 0.686992 0.820493
0.923247 0.638498 0.829496
0.0760052 0.762997 0.785
0.0760052 0.770245 0.79324
0.152239 0.773999 0.799496
0.28574 0.773754 0.802991
0.452491 0.773754 0.806745
0.603998 0.772244 0.811749
0.718746 0.756497 0.824002
0.819745 0.752743 0.824247
0.924254 0.712245 0.827497
0.0760052 0.841245 0.808743
0.0939956 0.844495 0.813748
0.19324 0.844251 0.814755
0.337484 0.843503 0.816999
0.506737 0.842252 0.819242
0.637003 0.841001 0.821744
0.728496 0.837751 0.824506
0.826246 0.831495 0.830503
0.925246 0.803754 0.820493
0.189502 0.92575 0.853498
0.239002 0.92575 0.853498
0.342245 0.925505 0.854505
0.491493 0.924743 0.855756
0.610239 0.923751 0.857755
0.688243 0.922744 0.859998
0.758999 0.921752 0.863493
0.835492 0.919005 0.871
0.919005 0.921996 0.848753
0.0760052 0.603006 0.889998
0.0760052 0.597253 0.895506
0.0760052 0.5785 0.906493
0.0797436 0.525505 0.921996
0.277989 0.491005 0.923003
0.531487 0.450248 0.923995
0.699001 0.401999 0.923506
0.822995 0.36875 0.921248
0.919997 0.500999 0.919997
0.0760052 0.623499 0.891005
0.0760052 0.619242 0.896498
0.0760052 0.605753 0.906493
0.0760052 0.566995 0.921752
0.27248 0.536751 0.923003
0.527489 0.501488 0.923995
0.697749 0.454246 0.923995
0.822995 0.418997 0.921492
0.919997 0.535744 0.919997
0.0760052 0.656504 0.891493
0.0760052 0.654246 0.896498
0.0760052 0.64799 0.906493
0.0760052 0.627497 0.921004
0.260487 0.606989 0.923003
0.518746 0.581491 0.923995
0.695003 0.544991 0.923995
0.822248 0.508995 0.922255
0.919997 0.591989 0.919997
0.0760052 0.693996 0.891997
0.0760052 0.693751 0.897246
0.0760052 0.691752 0.906493
0.0760052 0.684749 0.920256
0.244984 0.671748 0.923995
0.505989 0.656001 0.923995
0.691493 0.632242 0.923995
0.820996 0.60499 0.923003
0.919997 0.648997 0.919997
0.0760052 0.729992 0.893004
0.0760052 0.730251 0.897505
0.0760052 0.730999 0.906004
0.0760052 0.730251 0.919005
0.224994 0.723003 0.923995
0.487984 0.710246 0.923995
0.686 0.693492 0.925002
0.819501 0.671244 0.923247
0.919997 0.693004 0.919997
0.0760052 0.767498 0.893004
0.0760052 0.769497 0.897246
0.0760052 0.772 0.905241
0.0760052 0.775494 0.917006
0.201236 0.772244 0.923003
0.464485 0.761501 0.923995
0.678492 0.746242 0.925002
0.816999 0.725505 0.924254
0.919997 0.7355 0.919997
0.0760052 0.813001 0.893004
0.0760052 0.815244 0.896742
0.0760052 0.818998 0.904005
0.0760052 0.82475 0.914748
0.170993 0.825498 0.921996
0.429984 0.818006 0.923003
0.666499 0.805493 0.925002
0.812497 0.785 0.925002
0.919997 0.783505 0.920501
0.0760052 0.864744 0.899245
0.0760052 0.867002 0.901503
0.0760052 0.871504 0.906249
0.0760052 0.877745 0.912749
0.168978 0.881254 0.91725
0.386984 0.878996 0.918502
0.643992 0.871992 0.921248
0.800992 0.856748 0.923995
0.919997 0.843992 0.921004
0.0760052 0.930999 0.917006
0.112245 0.932006 0.917998
0.179492 0.932006 0.917998
0.285985 0.932006 0.917998
0.440986 0.932006 0.919005
0.594247 0.932006 0.919249
0.702495 0.930999 0.919997
0.809247 0.929244 0.919997
0.921004 0.923003 0.921004
