LUT/LumixLab/Nisebeni.cube
TITLE "Generated by Resolve"
#LUMIXPHOTOSTYLE CNED2
LUT_3D_SIZE 5
0.0350042 0 0
0.207965 0 0
0.438087 0 0
0.645502 0 0
0.8224 0 0
0.00106813 0.163455 0
0.217075 0.187747 0
0.486473 0.197528 0
0.711345 0.218448 0
0.886 0.249393 0.0204471
0.0200351 0.466285 0
0.226383 0.480644 0
0.478889 0.472084 0
0.684428 0.471901 0
0.845212 0.487663 0
0.0270848 0.698085 0
0.2215 0.699687 0
0.471107 0.687953 0
0.680201 0.69163 0
0.845884 0.712749 0
0.0777905 0.912444 0.0164797
0.266865 0.908827 0.0130465
0.509957 0.890242 0
0.709957 0.884123 0
0.86038 0.888579 0
0.0273442 0 0.170504
0.200259 0 0.148302
0.435615 0 0.120546
0.649241 0 0.129107
0.826993 0 0.163836
0.00512703 0.167727 0.14667
0.228428 0.200061 0.179538
0.495796 0.207675 0.18735
0.715419 0.222919 0.202747
0.883268 0.246433 0.226734
0.0249943 0.471565 0.168414
0.231754 0.486473 0.183474
0.484077 0.477745 0.174563
0.684779 0.472282 0.168902
0.840665 0.482704 0.179477
0.0259861 0.696925 0.169772
0.222416 0.700679 0.173373
0.473594 0.690669 0.163134
0.679789 0.691203 0.163775
0.837247 0.703319 0.175875
0.0708629 0.904997 0.219104
0.260044 0.901473 0.215442
0.503334 0.883055 0.19649
0.695994 0.868879 0.181872
0.837674 0.863752 0.176608
0.0127871 0 0.448737
0.186053 0 0.425483
0.429648 0 0.405631
0.647532 0 0.419409
0.826719 0 0.457145
0 0.15668 0.428412
0.218311 0.189197 0.462943
0.494102 0.205936 0.480598
0.710887 0.218067 0.49337
0.875731 0.238315 0.515114
0.0059968 0.451423 0.44155
0.216831 0.470405 0.461707
0.488563 0.482734 0.474678
0.685252 0.472908 0.463981
0.834409 0.475959 0.466957
0.0193942 0.689967 0.457145
0.217731 0.695705 0.463004
0.476509 0.69395 0.460868
0.684443 0.696376 0.463203
0.834913 0.700862 0.467903
0.0629129 0.896559 0.507515
0.252522 0.8934 0.503914
0.49749 0.876783 0.48574
0.690715 0.863218 0.470848
0.828458 0.853788 0.4607
0.00144961 0 0.680491
0.178164 0 0.66009
0.429328 0 0.648219
0.65069 0 0.66659
0.831861 0 0.708537
0 0.159274 0.675685
0.214328 0.185031 0.703899
0.489036 0.20058 0.720943
0.7075 0.214542 0.736019
0.87158 0.233951 0.757534
0 0.43444 0.667597
0.188876 0.440269 0.67393
0.466285 0.45861 0.693874
0.678904 0.466148 0.701778
0.830182 0.471489 0.707576
0 0.664576 0.674556
0.189548 0.665309 0.675029
0.463767 0.680217 0.691295
0.693278 0.706203 0.719921
0.841245 0.707958 0.721569
0.0558328 0.889082 0.74699
0.24361 0.883894 0.740841
0.492821 0.87187 0.726864
0.692836 0.865705 0.719768
0.833631 0.859602 0.712642
0 0 0.852811
0.177523 0 0.838224
0.435447 0 0.834394
0.659785 0 0.856809
0.842939 0 0.901808
0.00729381 0.170275 0.867033
0.222156 0.193637 0.893019
0.492912 0.204944 0.905348
0.709682 0.217075 0.918547
0.872816 0.235447 0.938994
0 0.43946 0.852461
0.188357 0.439826 0.852476
0.448859 0.439765 0.852003
0.668025 0.454398 0.867964
0.82536 0.466361 0.881209
0 0.653773 0.841657
0.170352 0.644648 0.830915
0.434363 0.648295 0.834531
0.677653 0.689265 0.880247
0.838514 0.705135 0.897765
0.0413214 0.873625 0.909316
0.215991 0.854063 0.886946
0.459617 0.835798 0.865888
0.680842 0.85272 0.884688
0.838697 0.865309 0.898436
