LUT/LumixLab/Nisebeni.cube
TITLE "Generated by Resolve"
#LUMIXPHOTOSTYLE CNED2
LUT_3D_SIZE 9
0.0350042 0 0
0.0889601 0 0
0.207965 0 0
0.335958 0 0
0.438087 0 0
0.537057 0 0
0.645502 0 0
0.743297 0 0
0.8224 0 0
0.0281224 0.0435187 0
0.0878004 0.0483253 0
0.218616 0.0407874 0
0.361975 0.0353246 0
0.478996 0.0407263 0
0.589441 0.0511025 0
0.705135 0.0630045 0
0.80824 0.0810559 0.00239567
0.890623 0.10573 0.0252232
0.00106813 0.163455 0
0.0757305 0.184009 0
0.217075 0.187747 0
0.36614 0.188495 0
0.486473 0.197528 0
0.59762 0.208682 0
0.711345 0.218448 0
0.809827 0.231479 0.00408942
0.886 0.249393 0.0204471
0 0.320439 0
0.0750896 0.344244 0
0.217136 0.348775 0
0.364385 0.347524 0
0.479866 0.351293 0
0.584573 0.355413 0
0.691585 0.357839 0
0.78407 0.364309 0
0.855253 0.376761 0
0.0200351 0.466285 0
0.0911574 0.483375 0
0.226383 0.480644 0
0.36788 0.473198 0
0.478889 0.472084 0
0.580087 0.472389 0
0.684428 0.471901 0
0.775113 0.476387 0
0.845212 0.487663 0
0.0297246 0.586603 0
0.0959793 0.59855 0
0.227695 0.59205 0
0.367041 0.582269 0
0.476677 0.57966 0
0.57734 0.579385 0
0.681773 0.579004 0
0.773312 0.584436 0
0.844846 0.597253 0
0.0270848 0.698085 0
0.0913405 0.707881 0
0.2215 0.699687 0
0.360708 0.689723 0
0.471107 0.687953 0
0.573571 0.689632 0
0.680201 0.69163 0
0.773571 0.699062 0
0.845884 0.712749 0
0.0400397 0.806531 0
0.103792 0.815869 0
0.232822 0.806531 0
0.372351 0.796963 0
0.483467 0.796002 0
0.585885 0.79765 0
0.691829 0.798917 0
0.783383 0.804379 0
0.852277 0.814343 0
0.0777905 0.912444 0.0164797
0.141253 0.921675 0.0256199
0.266865 0.908827 0.0130465
0.402396 0.895018 0
0.509957 0.890242 0
0.608438 0.887633 0
0.709957 0.884123 0
0.796521 0.884138 0
0.86038 0.888579 0
0.0344091 0 0.0283665
0.0883803 0 0.0272068
0.207218 0 0.00740063
0.335622 0 0
0.439719 0 0
0.54081 0 0
0.650294 0 0
0.748547 0 0
0.828229 0 0.0165713
0.0287022 0.0441138 0.022385
0.0904707 0.0511788 0.0292973
0.223758 0.0463264 0.0245823
0.367864 0.0417029 0.0201267
0.485267 0.0475471 0.0260166
0.595972 0.0581979 0.0363165
0.711757 0.0702068 0.0482948
0.814359 0.0877241 0.0657664
0.895705 0.111299 0.0893568
0.00741588 0.170123 0.000656138
0.082826 0.191608 0.0213169
0.225315 0.196674 0.0264286
0.374395 0.197436 0.0271763
0.493935 0.205631 0.0352178
0.604212 0.215839 0.0453651
0.71696 0.224567 0.0540322
0.813855 0.235874 0.0653697
0.888197 0.251789 0.0812848
0.00523384 0.328725 0
0.0825513 0.352255 0.0211643
0.224933 0.357214 0.0261692
0.371588 0.355337 0.0242313
0.485527 0.357427 0.0263371
0.589166 0.360403 0.0293278
0.695232 0.361822 0.0307317
0.786664 0.367132 0.0360418
0.856703 0.378332 0.047013
0.0258488 0.472465 0.0196231
0.0964218 0.489021 0.0359808
0.231525 0.486198 0.0332952
0.372763 0.478477 0.0256504
0.482979 0.476524 0.0236515
0.583749 0.476356 0.0237125
0.687419 0.475151 0.0224765
0.777096 0.478553 0.0258946
0.846052 0.488563 0.0357519
0.0337224 0.59086 0.0280308
0.0998093 0.602655 0.0396582
0.231586 0.596262 0.0334783
0.370947 0.586496 0.0237583
0.480293 0.583597 0.0210574
0.580743 0.583078 0.0205081
0.68455 0.58201 0.01944
0.774792 0.586038 0.0234684
0.845319 0.597772 0.0349584
0.0296483 0.700832 0.0236973
0.0941787 0.710933 0.033753
0.224781 0.703227 0.0260929
0.364248 0.693568 0.0167697
0.474693 0.691844 0.0150149
0.576806 0.693141 0.0163119
0.682414 0.694026 0.0172122
0.773922 0.699443 0.0226291
0.844495 0.711223 0.0340887
0.041474 0.808042 0.0364233
0.105577 0.817792 0.0459449
0.235279 0.809186 0.0375677
0.375006 0.799847 0.0282292
0.485832 0.798566 0.027039
0.587289 0.799161 0.0277104
0.691341 0.798383 0.0269017
0.78056 0.801282 0.0298161
0.847715 0.809339 0.0377508
0.0787823 0.913497 0.0764019
0.141512 0.92195 0.0849012
0.266865 0.908827 0.0717021
0.40235 0.894987 0.0578164
0.509255 0.889479 0.0523384
0.60621 0.885191 0.048127
0.705653 0.879393 0.0423896
0.790631 0.877668 0.0406043
0.853819 0.881407 0.0443885
0.0273442 0 0.170504
0.0808423 0 0.16878
0.200259 0 0.148302
0.329824 0 0.127382
0.435615 0 0.120546
0.538933 0 0.122942
0.649241 0 0.129107
0.747646 0 0.142031
0.826993 0 0.163836
0.0225528 0.037583 0.165438
0.0861219 0.0465248 0.174563
0.222217 0.0446784 0.172519
0.367407 0.0411994 0.168994
0.485161 0.0474403 0.175341
0.595895 0.0581369 0.18616
0.711513 0.0699626 0.198291
0.813169 0.0864576 0.215137
0.892943 0.108309 0.237476
0.00512703 0.167727 0.14667
0.0819104 0.190646 0.16997
0.228428 0.200061 0.179538
0.377554 0.200885 0.180301
0.495796 0.207675 0.18735
0.604273 0.21593 0.195727
0.715419 0.222919 0.202747
0.810819 0.232578 0.212634
0.883268 0.246433 0.226734
0.00665293 0.330236 0.148516
0.0841382 0.353964 0.172702
0.227543 0.360037 0.178744
0.374945 0.358999 0.177768
0.487663 0.359792 0.1785
0.58883 0.360052 0.178714
0.692607 0.358984 0.177478
0.782544 0.362661 0.181277
0.851286 0.372427 0.191272
0.0249943 0.471565 0.168414
0.0953689 0.487907 0.185092
0.231754 0.486473 0.183474
0.374395 0.480262 0.177172
0.484077 0.477745 0.174563
0.583062 0.475624 0.172503
0.684779 0.472282 0.168902
0.772869 0.47396 0.170596
0.840665 0.482704 0.179477
0.0311284 0.588098 0.175204
0.0974746 0.600168 0.187625
0.229938 0.594491 0.181598
0.370275 0.585794 0.172763
0.479942 0.58323 0.170123
0.579675 0.581918 0.16878
0.682246 0.579507 0.166186
0.771084 0.581994 0.168688
0.839979 0.591943 0.178866
0.0259861 0.696925 0.169772
0.090898 0.707424 0.180316
0.222416 0.700679 0.173373
0.36257 0.691752 0.164355
0.473594 0.690669 0.163134
0.575433 0.691661 0.164096
0.679789 0.691203 0.163775
0.769253 0.694362 0.166766
0.837247 0.703319 0.175875
0.0357214 0.801907 0.180392
0.100572 0.812421 0.191196
0.231861 0.805508 0.184054
0.372335 0.796963 0.175174
0.483192 0.795712 0.174014
0.583917 0.795499 0.173709
0.685924 0.792477 0.170687
0.772229 0.792203 0.170321
0.835828 0.796353 0.174395
0.0708629 0.904997 0.219104
0.133257 0.913069 0.227359
0.260044 0.901473 0.215442
0.396628 0.888777 0.202396
0.503334 0.883055 0.19649
0.599084 0.87744 0.190738
0.695994 0.868879 0.181872
0.77763 0.863493 0.176379
0.837674 0.863752 0.176608
0.0188144 0 0.32697
0.0716259 0 0.324315
0.191821 0 0.304158
0.323293 0 0.284916
0.430991 0 0.279927
0.535866 0 0.284306
0.646967 0 0.291234
0.745937 0 0.30515
0.825162 0 0.327245
0.0148013 0.0293889 0.322698
0.0799725 0.0399634 0.333547
0.2177 0.0398413 0.333516
0.364492 0.0381018 0.331472
0.482994 0.0451362 0.338811
0.59443 0.0565805 0.350637
0.710079 0.068452 0.363073
0.81117 0.0843214 0.379644
0.889891 0.105013 0.401297
0 0.159274 0.303273
0.0738231 0.181979 0.326879
0.223011 0.194232 0.339681
0.376532 0.199817 0.345281
0.495109 0.206989 0.35288
0.602655 0.214221 0.360311
0.712108 0.219348 0.365469
0.806455 0.227878 0.374334
0.87808 0.240818 0.388022
0 0.319539 0.302815
0.0743877 0.343526 0.327779
0.223102 0.355276 0.339864
0.376776 0.361044 0.34583
0.488731 0.360983 0.345632
0.588815 0.360082 0.344778
0.689952 0.356115 0.340383
0.777813 0.357534 0.341802
0.845716 0.3664 0.351019
0.0206912 0.467018 0.329534
0.0914015 0.483665 0.346944
0.229572 0.484138 0.347341
0.374594 0.480537 0.343481
0.486168 0.480064 0.34284
0.584802 0.477577 0.340276
0.683757 0.471214 0.333562
0.769268 0.470069 0.33225
0.835798 0.477424 0.340047
0.0273747 0.584131 0.337133
0.0936294 0.596063 0.349722
0.227008 0.591363 0.344747
0.370169 0.585718 0.338735
0.481834 0.585351 0.338186
0.581857 0.58436 0.337011
0.682307 0.579644 0.332052
0.768978 0.579736 0.332052
0.836454 0.588129 0.340749
0.0217288 0.692424 0.33106
0.0868391 0.70309 0.34226
0.219135 0.697169 0.335958
0.361028 0.690135 0.328481
0.473945 0.691096 0.329397
0.57641 0.69276 0.33106
0.679423 0.690837 0.328847
0.767178 0.692134 0.330144
0.833616 0.699382 0.337865
0.0309911 0.796887 0.341451
0.0962387 0.807797 0.352865
0.228351 0.801755 0.346426
0.369985 0.794446 0.338613
0.481468 0.793866 0.338109
0.58233 0.793805 0.337926
0.683574 0.78996 0.333898
0.768383 0.788037 0.331716
0.830289 0.790341 0.334127
0.0645457 0.898268 0.379461
0.127031 0.906386 0.387961
0.254719 0.895735 0.376486
0.392294 0.884108 0.364202
0.499168 0.878569 0.358312
0.594842 0.872862 0.35227
0.691157 0.86363 0.342428
0.771603 0.856931 0.335561
0.83035 0.855787 0.33431
0.0127871 0 0.448737
0.0653697 0 0.445411
0.186053 0 0.425483
0.319753 0 0.408194
0.429648 0 0.405631
0.535775 0 0.411399
0.647532 0 0.419409
0.746899 0 0.434012
0.826719 0 0.457145
0.0106508 0.0250248 0.446326
0.0775311 0.0373846 0.45948
0.215686 0.0377203 0.4598
0.363897 0.0374914 0.459327
0.48336 0.0455787 0.467826
0.595407 0.0577096 0.480812
0.711254 0.0697948 0.493538
0.811719 0.0849928 0.509911
0.889921 0.105135 0.53164
0 0.15668 0.428412
0.0703441 0.178286 0.451362
0.218311 0.189197 0.462943
0.374243 0.197391 0.471519
0.494102 0.205936 0.480598
0.601984 0.213535 0.488792
0.710887 0.218067 0.49337
0.804425 0.225711 0.501457
0.875731 0.238315 0.515114
0 0.309346 0.419883
0.0625162 0.330816 0.442634
0.212467 0.343816 0.456519
0.370748 0.354543 0.467872
0.487449 0.359655 0.473091
0.588205 0.359487 0.472724
0.688945 0.355062 0.467933
0.775692 0.355276 0.468009
0.842817 0.363287 0.476493
0.0059968 0.451423 0.44155
0.0751202 0.466209 0.457267
0.216831 0.470405 0.461707
0.370565 0.476204 0.467628
0.488563 0.482734 0.474678
0.586801 0.479805 0.47126
0.685252 0.472908 0.463981
0.769207 0.470054 0.460685
0.834409 0.475959 0.466957
0.0204166 0.57673 0.458152
0.0873121 0.589303 0.471473
0.224018 0.588159 0.470268
0.369818 0.585382 0.466957
0.483742 0.587472 0.469078
0.585718 0.588632 0.470176
0.686336 0.5841 0.465263
0.771603 0.582666 0.463798
0.837308 0.58912 0.470558
0.0193942 0.689967 0.457145
0.0849165 0.70106 0.469093
0.217731 0.695705 0.463004
0.361318 0.690501 0.457328
0.476509 0.69395 0.460868
0.58085 0.697673 0.464805
0.684443 0.696376 0.463203
0.770565 0.695888 0.462776
0.834913 0.700862 0.467903
0.0298924 0.795758 0.46923
0.0950332 0.806546 0.480873
0.227268 0.800626 0.474342
0.369619 0.79411 0.46714
0.482551 0.795102 0.468071
0.584634 0.796384 0.469306
0.686198 0.792874 0.465507
0.769558 0.78938 0.461753
0.829786 0.789853 0.462165
0.0629129 0.896559 0.507515
0.12488 0.904128 0.51574
0.252522 0.8934 0.503914
0.390341 0.882048 0.491539
0.49749 0.876783 0.48574
0.593805 0.871778 0.480262
0.690715 0.863218 0.470848
0.770611 0.855909 0.462898
0.828458 0.853788 0.4607
0.00735485 0 0.561303
0.0602884 0 0.558251
0.181827 0 0.53875
0.317281 0 0.523079
0.429618 0 0.52314
0.53666 0 0.530312
0.64918 0 0.539239
0.74902 0 0.554788
0.829267 0 0.579049
0.00914015 0.0234684 0.563272
0.0771496 0.0370336 0.578271
0.215228 0.0372778 0.578317
0.364172 0.0378576 0.578668
0.484688 0.0470893 0.588647
0.597192 0.0597238 0.602487
0.713008 0.0717784 0.615442
0.81326 0.0867475 0.6318
0.890883 0.106264 0.653376
0 0.157549 0.547677
0.0700084 0.177996 0.570153
0.215228 0.185916 0.578622
0.370718 0.193622 0.586786
0.491966 0.203693 0.597696
0.600565 0.21207 0.606729
0.709575 0.216709 0.611765
0.803006 0.224231 0.619867
0.873945 0.236439 0.633097
0 0.308827 0.537392
0.0593729 0.327504 0.557839
0.204059 0.334768 0.56553
0.36141 0.344457 0.575936
0.481544 0.353292 0.585443
0.584512 0.35552 0.587747
0.686244 0.352193 0.584024
0.773373 0.352804 0.584527
0.840284 0.360586 0.59295
0 0.439063 0.546838
0.0603799 0.450431 0.559243
0.198779 0.450904 0.559609
0.357565 0.462135 0.57174
0.480797 0.474342 0.584802
0.584878 0.477775 0.588479
0.684596 0.472267 0.582269
0.76875 0.469627 0.579156
0.833402 0.474922 0.584955
0.00497444 0.560342 0.559304
0.069749 0.570459 0.570382
0.204211 0.566781 0.566232
0.357717 0.572305 0.571923
0.480003 0.583474 0.58407
0.589105 0.592386 0.593698
0.689418 0.587533 0.588235
0.774609 0.586023 0.586343
0.839506 0.591608 0.592508
0.0113069 0.681407 0.566873
0.0768749 0.69247 0.579049
0.212436 0.690028 0.576089
0.360418 0.689586 0.575509
0.477455 0.695033 0.581186
0.583871 0.701045 0.587777
0.689464 0.701946 0.588556
0.775631 0.701488 0.587869
0.838834 0.705226 0.591959
0.0272984 0.793042 0.585885
0.0927443 0.804135 0.597925
0.226276 0.799603 0.592721
0.3691 0.793606 0.585885
0.483253 0.795941 0.588296
0.586954 0.798993 0.591546
0.690135 0.797269 0.589624
0.773556 0.79382 0.585519
0.8327 0.793103 0.58471
0.0620432 0.895689 0.627146
0.123339 0.902525 0.634577
0.250629 0.891417 0.622156
0.388373 0.879973 0.609186
0.496086 0.875334 0.60383
0.593927 0.871992 0.600076
0.692561 0.865293 0.592508
0.773037 0.85864 0.585046
0.830427 0.856001 0.582177
0.00144961 0 0.680491
0.0549935 0 0.678218
0.178164 0 0.66009
0.315373 0 0.646189
0.429328 0 0.648219
0.537224 0 0.656336
0.65069 0 0.66659
0.751263 0 0.68336
0.831861 0 0.708537
0.00834669 0.0226749 0.688685
0.0771954 0.0371557 0.704738
0.215549 0.037705 0.705119
0.364767 0.0385901 0.706035
0.486015 0.0486305 0.716915
0.598642 0.061387 0.731014
0.714137 0.0731212 0.74403
0.814298 0.0879835 0.760479
0.8916 0.107149 0.781704
0 0.159274 0.675685
0.0715953 0.179767 0.69839
0.214328 0.185031 0.703899
0.367681 0.190402 0.709743
0.489036 0.20058 0.720943
0.598001 0.209369 0.730571
0.7075 0.214542 0.736019
0.800946 0.22208 0.744488
0.87158 0.233951 0.757534
0 0.310124 0.664759
0.0594186 0.327611 0.683955
0.197345 0.327565 0.683894
0.350057 0.332189 0.688609
0.470985 0.341878 0.699229
0.576669 0.347051 0.704936
0.680659 0.346197 0.703685
0.769055 0.34818 0.70576
0.836393 0.35642 0.714824
0 0.43444 0.667597
0.0555123 0.445258 0.679683
0.188876 0.440269 0.67393
0.342397 0.445716 0.679606
0.466285 0.45861 0.693874
0.57525 0.467369 0.703441
0.678904 0.466148 0.701778
0.764858 0.465461 0.700816
0.830182 0.471489 0.707576
0 0.545663 0.669291
0.0538949 0.553506 0.677943
0.182589 0.54345 0.66659
0.335027 0.547707 0.670939
0.463554 0.565637 0.690745
0.578622 0.581033 0.707683
0.687068 0.585046 0.712062
0.773892 0.585336 0.712169
0.839139 0.591302 0.718624
0 0.664576 0.674556
0.0586862 0.672984 0.683864
0.189548 0.665309 0.675029
0.338231 0.665537 0.675227
0.463767 0.680217 0.691295
0.579004 0.695827 0.708476
0.693278 0.706203 0.719921
0.778653 0.70489 0.718196
0.841245 0.707958 0.721569
0.0175784 0.782712 0.701091
0.0814984 0.792096 0.711467
0.214862 0.787335 0.705821
0.362036 0.786007 0.704173
0.480369 0.792905 0.711574
0.58616 0.79823 0.717464
0.691798 0.799161 0.718273
0.776745 0.797406 0.716045
0.83566 0.796429 0.715023
0.0558328 0.889082 0.74699
0.115785 0.894469 0.752834
0.24361 0.883894 0.740841
0.3841 0.87541 0.731228
0.492821 0.87187 0.726864
0.59202 0.869993 0.724727
0.692836 0.865705 0.719768
0.775341 0.86125 0.714443
0.833631 0.859602 0.712642
0 0 0.781338
0.0514534 0 0.779553
0.176547 0 0.763561
0.315923 0 0.752209
0.431037 0 0.755703
0.539727 0 0.764889
0.653758 0 0.775982
0.755413 0 0.794278
0.836316 0 0.820066
0.00970474 0.0241855 0.79617
0.0793927 0.0395819 0.813428
0.218051 0.0404822 0.814176
0.367529 0.0416571 0.815167
0.489052 0.052018 0.826658
0.601877 0.0649882 0.841215
0.717144 0.0764782 0.853773
0.817166 0.0912032 0.87013
0.894041 0.109895 0.891173
0.000732433 0.163287 0.785718
0.0751659 0.183673 0.808545
0.217075 0.188067 0.813275
0.368902 0.191806 0.817258
0.489418 0.201083 0.827482
0.598077 0.209537 0.836774
0.707271 0.214374 0.842115
0.800458 0.221637 0.850065
0.870939 0.233341 0.862959
0 0.31342 0.773831
0.0614481 0.32987 0.792279
0.197253 0.32755 0.789563
0.344625 0.326375 0.787839
0.463767 0.334081 0.796246
0.570382 0.340261 0.803159
0.67628 0.341482 0.804288
0.765911 0.344823 0.807935
0.833844 0.353719 0.817838
0 0.43534 0.774227
0.0555581 0.44538 0.785504
0.186526 0.437797 0.776684
0.332616 0.435172 0.773541
0.453986 0.445289 0.784726
0.564508 0.455741 0.796139
0.671809 0.458473 0.798947
0.759976 0.460212 0.800732
0.826535 0.467597 0.809064
0 0.541894 0.770718
0.0493019 0.548638 0.778241
0.177554 0.538064 0.765972
0.324025 0.535821 0.763287
0.449287 0.550164 0.77908
0.565667 0.566979 0.797787
0.679866 0.577264 0.809171
0.769924 0.581079 0.813367
0.836225 0.588205 0.82121
0 0.654444 0.768994
0.0466773 0.660151 0.77525
0.173495 0.648005 0.761425
0.315877 0.641291 0.753582
0.442191 0.656779 0.770687
0.564218 0.679759 0.796262
0.685145 0.697398 0.815915
0.777142 0.703334 0.822339
0.84062 0.707362 0.826825
0.00738537 0.771908 0.794705
0.068513 0.778195 0.801907
0.196246 0.767224 0.789151
0.337865 0.759793 0.780728
0.457664 0.768215 0.789929
0.571908 0.782742 0.805982
0.687144 0.794171 0.818708
0.779293 0.80029 0.825299
0.837263 0.798276 0.822812
0.0470283 0.879698 0.842542
0.104906 0.88278 0.846006
0.228565 0.867643 0.828763
0.368002 0.857969 0.817594
0.481102 0.859159 0.818677
0.586389 0.863935 0.823957
0.69102 0.863783 0.823514
0.776059 0.862135 0.821378
0.836072 0.862364 0.821576
0 0 0.852811
0.0508583 0 0.852323
0.177523 0 0.838224
0.319295 0 0.82977
0.435447 0 0.834394
0.545037 0 0.844785
0.659785 0 0.856809
0.761913 0 0.875792
0.842939 0 0.901808
0.0137942 0.0285649 0.874708
0.0843214 0.0449226 0.892912
0.223072 0.0459754 0.893843
0.373053 0.0477302 0.895659
0.494743 0.0582742 0.90721
0.607614 0.0713054 0.921859
0.72282 0.0827344 0.934356
0.822568 0.0971695 0.950622
0.898833 0.11519 0.970642
0.00729381 0.170275 0.867033
0.0814679 0.190509 0.889921
0.222156 0.193637 0.893019
0.373114 0.19646 0.895933
0.492912 0.204944 0.905348
0.600748 0.212497 0.913771
0.709682 0.217075 0.918547
0.802518 0.223941 0.926131
0.872816 0.235447 0.938994
0 0.319463 0.854307
0.0658427 0.33463 0.871305
0.200366 0.330983 0.866819
0.345541 0.327428 0.862531
0.462562 0.33283 0.868528
0.568811 0.338613 0.874739
0.675669 0.340871 0.877073
0.765927 0.3449 0.881529
0.834241 0.354223 0.891936
0 0.43946 0.852461
0.058381 0.448463 0.862547
0.188357 0.439826 0.852476
0.330465 0.432898 0.844327
0.448859 0.439765 0.852003
0.558877 0.449638 0.862699
0.668025 0.454398 0.867964
0.757839 0.457923 0.871839
0.82536 0.466361 0.881209
0 0.544427 0.846876
0.0507973 0.550286 0.853468
0.17879 0.539437 0.84097
0.320531 0.532082 0.832593
0.441901 0.542168 0.843519
0.55758 0.558221 0.861357
0.674266 0.571206 0.875898
0.766949 0.57789 0.883162
0.834333 0.586191 0.892393
0 0.653773 0.841657
0.0449073 0.658305 0.84654
0.170352 0.644648 0.830915
0.310216 0.635203 0.820127
0.434363 0.648295 0.834531
0.555184 0.669963 0.8589
0.677653 0.689265 0.880247
0.773465 0.699382 0.891508
0.838514 0.705135 0.897765
0.00378424 0.768109 0.864073
0.0632944 0.772625 0.868955
0.186282 0.756481 0.850675
0.322408 0.743038 0.835233
0.438788 0.747707 0.840391
0.554726 0.76405 0.858534
0.676783 0.782895 0.879408
0.773526 0.794018 0.891829
0.836088 0.79707 0.895201
0.0413214 0.873625 0.909316
0.0978103 0.875181 0.911009
0.215991 0.854063 0.886946
0.349584 0.83798 0.868696
0.459617 0.835798 0.865888
0.567315 0.843168 0.874174
0.680842 0.85272 0.884688
0.773602 0.859495 0.892103
0.838697 0.865309 0.898436
