LUT/LumixLab/Nisebeni.cube
TITLE "Generated by Resolve"
#LUMIXPHOTOSTYLE CNED2
LUT_3D_SIZE 33
0.0350042 0 0
0.0466316 0 0
0.0577707 0 0
0.070573 0 0
0.0889601 0 0
0.114473 0 0
0.143496 0 0
0.174899 0 0
0.207965 0 0
0.241718 0 0
0.274891 0 0
0.306508 0 0
0.335958 0 0
0.362966 0 0
0.388525 0 0
0.413489 0 0
0.438087 0 0
0.46247 0 0
0.486717 0 0
0.511284 0 0
0.537057 0 0
0.563577 0 0
0.590921 0 0
0.618372 0 0
0.645502 0 0
0.672084 0 0
0.697551 0 0
0.721401 0 0
0.743297 0 0
0.763668 0 0
0.783276 0 0
0.802869 0 0
0.8224 0 0
0.0348974 0.0041352 0
0.0466621 0.00427253 0
0.0577554 0.00457771 0
0.070222 0.00424201 0
0.0883345 0.00228885 0
0.113649 0 0
0.142657 0 0
0.17435 0 0
0.207736 0 0
0.241779 0 0
0.275242 0 0
0.307332 0 0
0.337728 0 0
0.366217 0 0
0.393072 0 0
0.418921 0 0
0.444434 0 0
0.470085 0 0
0.496101 0 0
0.522408 0 0
0.549004 0 0
0.57615 0 0
0.604028 0 0
0.632151 0 0
0.660014 0 0
0.687007 0 0
0.712749 0 0
0.737102 0 0
0.759625 0 0
0.780514 0 0
0.800717 0 0
0.820478 0 0
0.840314 0.00422675 0
0.0351263 0.0158999 0
0.0466621 0.0157931 0
0.0575418 0.0158846 0
0.0700847 0.0156405 0
0.0885023 0.0140078 0
0.114229 0.0104982 0
0.143679 0.00613413 0
0.175631 0.00112917 0
0.209659 0 0
0.2448 0 0
0.279667 0 0
0.312932 0 0
0.344366 0 0
0.373709 0 0
0.401999 0 0
0.429572 0 0
0.456458 0 0
0.482994 0 0
0.509667 0 0
0.5364 0 0
0.563653 0 0
0.591287 0 0
0.619532 0 0
0.64831 0 0
0.67657 0 0
0.704021 0 0
0.73019 0.00350958 0
0.754864 0.00773632 0
0.777859 0.0128481 0
0.799298 0.018616 0
0.819684 0.0245823 0
0.839673 0.0307012 0
0.859693 0.0368963 0
0.0336309 0.027985 0
0.0455177 0.0282444 0
0.0568093 0.0287785 0
0.0697337 0.0289311 0
0.0885939 0.0277867 0
0.115312 0.0253452 0
0.145998 0.0222934 0
0.17937 0.0188144 0
0.214466 0.0149233 0
0.250462 0.0111696 0
0.286625 0.00843824 0
0.321492 0.00660716 0
0.354376 0.00570687 0
0.384848 0.0055848 0
0.413794 0.00611887 0
0.441855 0.00726329 0
0.469596 0.00915541 0
0.496696 0.0110475 0
0.523598 0.013077 0
0.550668 0.0152743 0
0.578332 0.0176242 0
0.606577 0.0201419 0
0.635554 0.0228428 0
0.664408 0.0254063 0
0.692912 0.0282902 0
0.720668 0.0317082 0
0.747234 0.0357214 0
0.772366 0.0404669 0
0.795621 0.0458991 0
0.817044 0.0516518 0
0.837552 0.0577401 0.000579843
0.857664 0.0640269 0.00657664
0.877836 0.0703746 0.0124971
0.0281224 0.0435187 0
0.0406043 0.0443885 0
0.0529641 0.0460517 0
0.0674601 0.0478981 0
0.0878004 0.0483253 0
0.115404 0.0468452 0
0.147066 0.0448463 0
0.181781 0.0428168 0
0.218616 0.0407874 0
0.256336 0.0389105 0
0.293263 0.0370031 0
0.328618 0.0357061 0
0.361975 0.0353246 0
0.393042 0.0358587 0
0.422507 0.0369421 0
0.451179 0.0387579 0
0.478996 0.0407263 0
0.506523 0.0431067 0
0.533959 0.045716 0
0.561456 0.0484016 0
0.589441 0.0511025 0
0.618112 0.0541085 0
0.647166 0.0568856 0
0.676356 0.0598154 0
0.705135 0.0630045 0
0.733028 0.0665751 0
0.759976 0.0710155 0
0.785061 0.0757153 0
0.80824 0.0810559 0.00239567
0.82974 0.0869001 0.00793469
0.850294 0.0930648 0.0131228
0.870436 0.0993668 0.019028
0.890623 0.10573 0.0252232
0.0195773 0.0655833 0
0.033341 0.0677958 0
0.0467842 0.0706035 0
0.0623941 0.0736248 0
0.0842908 0.0757153 0
0.113741 0.0762188 0
0.146822 0.0757305 0
0.182361 0.0746014 0
0.219974 0.0734112 0
0.25803 0.0719005 0
0.295521 0.0706035 0
0.331289 0.0697642 0
0.36492 0.0696727 0
0.396536 0.0708019 0
0.426505 0.0724498 0
0.45539 0.0744945 0
0.483543 0.0768444 0
0.511299 0.079469 0
0.538979 0.0823377 0
0.567086 0.0856947 0
0.595361 0.0887007 0
0.623972 0.0916457 0
0.653117 0.0945296 0
0.682338 0.0975052 0
0.711192 0.100771 0
0.739406 0.104707 0
0.766049 0.108812 0
0.791058 0.11342 0.00352483
0.814038 0.118563 0.0083772
0.83537 0.124224 0.0131075
0.855772 0.13022 0.0187228
0.875853 0.136461 0.0247654
0.895613 0.142367 0.0306249
0.0115206 0.0931411 0
0.0272221 0.0973831 0
0.0423285 0.101946 0
0.0590524 0.106157 0
0.081651 0.108995 0
0.111696 0.110124 0
0.145617 0.110552 0
0.181933 0.110246 0
0.219715 0.109239 0
0.258091 0.10808 0
0.295964 0.107195 0
0.332219 0.106889 0
0.366506 0.107515 0
0.398215 0.108736 0
0.428321 0.110536 0
0.45745 0.112856 0
0.485908 0.115541 0
0.513924 0.118441 0
0.542031 0.121782 0
0.569909 0.12488 0
0.598199 0.127932 0
0.626871 0.130938 0
0.656046 0.133852 0
0.685237 0.136797 0
0.714229 0.140215 0
0.741924 0.143587 0
0.768307 0.147417 0.00148013
0.793103 0.151781 0.00564584
0.815869 0.156695 0.0102235
0.83714 0.162295 0.0149996
0.857023 0.167712 0.0200961
0.876417 0.17322 0.0253452
0.895842 0.178759 0.0309148
0.0061799 0.126986 0
0.0223545 0.131701 0
0.038056 0.136889 0
0.0554818 0.141833 0
0.0786755 0.145296 0
0.10927 0.147021 0
0.143603 0.14789 0
0.180316 0.148013 0
0.218692 0.147646 0
0.257511 0.14696 0
0.295644 0.146365 0
0.332418 0.146624 0
0.366766 0.147295 0
0.398703 0.148775 0
0.429007 0.15079 0
0.458213 0.153201 0
0.486915 0.156146 0
0.515038 0.159167 0
0.54287 0.162219 0
0.570748 0.165316 0
0.598978 0.168276 0
0.627482 0.171099 0
0.656672 0.17406 0
0.685649 0.176761 0
0.714122 0.179614 0
0.741573 0.182712 0
0.767559 0.186114 0.000717174
0.791852 0.189929 0.00436408
0.81442 0.194629 0.00877394
0.83505 0.199527 0.0128176
0.854566 0.204547 0.0174563
0.873442 0.209476 0.0223697
0.892256 0.214343 0.0269932
0.00106813 0.163455 0
0.0177768 0.168673 0
0.0338445 0.174243 0
0.0517433 0.17969 0
0.0757305 0.184009 0
0.106767 0.186191 0
0.141375 0.187335 0
0.178393 0.187793 0
0.217075 0.187747 0
0.256413 0.187625 0
0.295048 0.187579 0
0.331731 0.187732 0
0.36614 0.188495 0
0.398123 0.190005 0
0.428473 0.192081 0
0.457908 0.194736 0
0.486473 0.197528 0
0.514397 0.200336 0
0.542016 0.203159 0
0.569635 0.205951 0
0.59762 0.208682 0
0.626169 0.211551 0
0.654856 0.213947 0
0.683375 0.216144 0
0.711345 0.218448 0
0.738369 0.221088 0
0.764019 0.224109 0
0.788128 0.227741 0.000518807
0.809827 0.231479 0.00408942
0.829755 0.23563 0.00798047
0.848783 0.240116 0.0116121
0.867323 0.244663 0.0158999
0.886 0.249393 0.0204471
0 0.201572 0
0.0139925 0.207385 0
0.0306096 0.213519 0
0.0490425 0.219516 0
0.0730602 0.223865 0
0.104417 0.226383 0
0.139422 0.22797 0
0.176761 0.228763 0
0.215763 0.229068 0
0.255299 0.229145 0
0.293858 0.229023 0
0.330632 0.229267 0
0.365118 0.230106 0
0.397086 0.231601 0
0.427604 0.23386 0
0.456626 0.236057 0
0.48484 0.238483 0
0.512566 0.241062 0
0.539971 0.243656 0
0.567407 0.246281 0
0.595041 0.2486 0
0.622858 0.250675 0
0.651148 0.252628 0
0.679316 0.254444 0
0.706813 0.256245 0
0.73341 0.258412 0
0.75848 0.260807 0
0.781888 0.263661 0
0.803235 0.267018 0
0.822751 0.270695 0.000762951
0.841199 0.274571 0.00445563
0.85948 0.278843 0.00846876
0.877638 0.282994 0.01178
0 0.240909 0
0.0121157 0.247318 0
0.0290379 0.253758 0
0.0475624 0.259846 0
0.0718242 0.264454 0
0.103319 0.26714 0
0.13843 0.268833 0
0.176181 0.270054 0
0.215167 0.270375 0
0.254582 0.270298 0
0.293141 0.270176 0
0.329809 0.270314 0
0.364202 0.271046 0
0.396185 0.272572 0
0.426246 0.274327 0
0.455055 0.276295 0
0.482918 0.278325 0
0.510155 0.280385 0
0.537285 0.282658 0
0.56434 0.284871 0
0.591501 0.286671 0
0.618784 0.288167 0
0.646418 0.289418 0
0.674067 0.290654 0
0.70135 0.292226 0
0.727459 0.293858 0
0.752041 0.295705 0
0.774929 0.297993 0
0.79585 0.300893 0
0.815061 0.30425 0
0.833494 0.30808 0
0.851194 0.311727 0
0.868955 0.31545 0.00349432
0 0.281041 0
0.0124514 0.287312 0
0.0294347 0.293828 0
0.0480049 0.299977 0
0.0723278 0.304646 0
0.103883 0.307393 0
0.139284 0.309407 0
0.176669 0.310246 0
0.215503 0.310384 0
0.254734 0.31014 0
0.293172 0.309865 0
0.329793 0.309957 0
0.364096 0.310597 0
0.395514 0.311498 0
0.425132 0.312779 0
0.45359 0.314366 0
0.481147 0.31606 0
0.508278 0.317983 0
0.534676 0.319478 0
0.560998 0.320882 0
0.587686 0.322179 0
0.614633 0.323308 0
0.642023 0.324285 0
0.669306 0.325124 0
0.695933 0.325963 0
0.72163 0.327153 0
0.745953 0.328725 0
0.768582 0.330724 0
0.789319 0.333425 0
0.808286 0.336507 0
0.826246 0.339834 0
0.843793 0.343313 0
0.861341 0.346792 0
0 0.320439 0
0.0151369 0.326772 0
0.0321355 0.333318 0
0.0506294 0.339422 0
0.0750896 0.344244 0
0.106401 0.346731 0
0.141268 0.348165 0
0.17847 0.348821 0
0.217136 0.348775 0
0.256092 0.348226 0
0.294408 0.347829 0
0.330571 0.347417 0
0.364385 0.347524 0
0.395514 0.348119 0
0.42472 0.348959 0
0.452644 0.34995 0
0.479866 0.351293 0
0.50634 0.352514 0
0.532448 0.353674 0
0.558373 0.35465 0
0.584573 0.355413 0
0.611185 0.356176 0
0.6383 0.356847 0
0.665232 0.357305 0
0.691585 0.357839 0
0.716945 0.358663 0
0.740993 0.359945 0
0.763561 0.361883 0
0.78407 0.364309 0
0.802762 0.367086 0
0.820493 0.370169 0
0.837842 0.373419 0
0.855253 0.376761 0
0.00242618 0.358999 0
0.0199741 0.365148 0
0.0367132 0.37145 0
0.0552377 0.3776 0
0.0792248 0.381903 0
0.110246 0.3841 0
0.144686 0.385092 0
0.181399 0.385229 0
0.219669 0.384756 0
0.25861 0.384192 0
0.29633 0.383154 0
0.332021 0.382239 0
0.36527 0.38172 0
0.395941 0.381826 0
0.424872 0.382361 0
0.452674 0.383215 0
0.479271 0.383886 0
0.505272 0.384588 0
0.531014 0.385351 0
0.55671 0.386069 0
0.582895 0.386816 0
0.609125 0.387152 0
0.635782 0.387335 0
0.662486 0.387549 0
0.68867 0.3879 0
0.713939 0.388632 0
0.737911 0.389807 0
0.760128 0.391379 0
0.780392 0.393545 0
0.798978 0.396201 0
0.816602 0.399145 0
0.833906 0.402365 0
0.851255 0.405646 0
0.00842298 0.396262 0
0.0257267 0.402213 0
0.0424201 0.408499 0
0.0602274 0.41387 0
0.08365 0.417609 0
0.114275 0.419379 0
0.148379 0.42002 0
0.184878 0.419928 0
0.222599 0.41886 0
0.260685 0.41738 0
0.297993 0.4159 0
0.33341 0.414679 0
0.366354 0.41384 0
0.396826 0.413733 0
0.425299 0.413764 0
0.452583 0.414069 0
0.478996 0.414511 0
0.504768 0.414969 0
0.530221 0.415427 0
0.555825 0.416052 0
0.581613 0.416358 0
0.607691 0.416526 0
0.634165 0.416526 0
0.660639 0.41648 0
0.686702 0.416693 0
0.711925 0.41735 0
0.735653 0.41828 0
0.757748 0.419715 0
0.777874 0.421729 0
0.796338 0.424262 0
0.813977 0.427222 0
0.83122 0.430365 0
0.848402 0.433463 0
0.0145266 0.43212 0
0.0314794 0.437736 0
0.0475166 0.443336 0
0.0649577 0.448325 0
0.0878767 0.451545 0
0.117845 0.452613 0
0.151553 0.452827 0
0.187472 0.452125 0
0.224826 0.45066 0
0.262516 0.448753 0
0.299367 0.446784 0
0.334417 0.445151 0
0.36733 0.444297 0
0.397391 0.443732 0
0.425635 0.443503 0
0.452628 0.443488 0
0.478798 0.443687 0
0.504417 0.443976 0
0.529915 0.444495 0
0.555138 0.444694 0
0.580713 0.444755 0
0.606622 0.444755 0
0.633005 0.444633 0
0.659571 0.444694 0
0.685435 0.444709 0
0.710384 0.44506 0
0.73402 0.445884 0
0.756054 0.447242 0
0.776181 0.449256 0
0.79472 0.451881 0
0.812192 0.454658 0
0.829282 0.457633 0
0.846448 0.460716 0
0.0200351 0.466285 0
0.0362707 0.471168 0
0.051667 0.476081 0
0.0686046 0.480552 0
0.0911574 0.483375 0
0.121004 0.484321 0
0.15404 0.483818 0
0.189395 0.482506 0
0.226383 0.480644 0
0.263844 0.478477 0
0.300649 0.476463 0
0.33547 0.474601 0
0.36788 0.473198 0
0.397757 0.472419 0
0.425864 0.472053 0
0.45272 0.471901 0
0.478889 0.472084 0
0.504326 0.472175 0
0.529488 0.472313 0
0.55462 0.472419 0
0.580087 0.472389 0
0.605875 0.472236 0
0.632319 0.472175 0
0.65861 0.471946 0
0.684428 0.471901 0
0.709316 0.472206 0
0.732891 0.472953 0
0.75491 0.474296 0
0.775113 0.476387 0
0.7935 0.478843 0
0.810956 0.481621 0
0.828046 0.484581 0
0.845212 0.487663 0
0.0240482 0.498161 0
0.0399329 0.502693 0
0.0549477 0.50721 0
0.0714885 0.511254 0
0.0937057 0.513726 0
0.122988 0.514061 0
0.155779 0.513298 0
0.190875 0.511711 0
0.227527 0.509499 0
0.264851 0.507195 0
0.301381 0.504875 0
0.336019 0.502815 0
0.368277 0.501228 0
0.39794 0.500237 0
0.425879 0.499687 0
0.452811 0.499611 0
0.478721 0.499519 0
0.504036 0.499489 0
0.529076 0.499489 0
0.554116 0.499489 0
0.579522 0.499382 0
0.605447 0.499397 0
0.631632 0.499046 0
0.657862 0.498741 0
0.68365 0.498665 0
0.708522 0.498939 0
0.732296 0.499916 0
0.754269 0.501213 0
0.774319 0.503136 0
0.792706 0.505592 0
0.810193 0.508385 0
0.827344 0.511437 0
0.844739 0.514748 0
0.0269169 0.528496 0
0.0423743 0.53257 0
0.0571908 0.536873 0
0.073518 0.540703 0
0.0953078 0.542718 0
0.124254 0.542702 0
0.156786 0.541665 0
0.191714 0.539895 0
0.228428 0.537743 0
0.2654 0.535058 0
0.301656 0.532448 0
0.336141 0.530221 0
0.368307 0.528542 0
0.398016 0.527596 0
0.42591 0.526986 0
0.452537 0.526574 0
0.47834 0.526375 0
0.503609 0.526299 0
0.528603 0.526253 0
0.55375 0.52636 0
0.579141 0.526238 0
0.604822 0.525994 0
0.631006 0.525628 0
0.657237 0.525338 0
0.683009 0.525246 0
0.708095 0.52575 0
0.731685 0.526528 0
0.753719 0.527871 0
0.773816 0.52987 0
0.792264 0.532387 0
0.809812 0.535256 0
0.827192 0.538552 0
0.84448 0.541756 0
0.0288396 0.557839 0
0.0441749 0.561791 0
0.0585794 0.565652 0
0.0745251 0.569085 0
0.0961318 0.570901 0
0.124865 0.570657 0
0.157229 0.569436 0
0.192096 0.56759 0
0.228458 0.565057 0
0.265324 0.56228 0
0.301472 0.559533 0
0.335821 0.557168 0
0.367987 0.555474 0
0.397589 0.554421 0
0.425361 0.553689 0
0.451942 0.553231 0
0.477699 0.552972 0
0.502922 0.552834 0
0.528054 0.552941 0
0.553079 0.552926 0
0.578439 0.552758 0
0.60412 0.552499 0
0.630304 0.552163 0
0.656565 0.551888 0
0.682597 0.552087 0
0.70753 0.552438 0
0.731212 0.553292 0
0.753292 0.554711 0
0.773465 0.556786 0
0.792218 0.559625 0
0.809888 0.562631 0
0.827176 0.565835 0
0.844602 0.569177 0
0.0297246 0.586603 0
0.0446937 0.590143 0
0.0588846 0.59379 0
0.0745861 0.596948 0
0.0959793 0.59855 0
0.12462 0.598215 0
0.156939 0.596933 0
0.191501 0.594766 0
0.227695 0.59205 0
0.264454 0.589151 0
0.300542 0.586328 0
0.335042 0.584131 0
0.367041 0.582269 0
0.396506 0.581048 0
0.424247 0.580285 0
0.450813 0.579812 0
0.476677 0.57966 0
0.502007 0.579644 0
0.526986 0.579583 0
0.551965 0.579522 0
0.57734 0.579385 0
0.603082 0.579187 0
0.62948 0.57908 0
0.655879 0.578958 0
0.681773 0.579004 0
0.706813 0.579461 0
0.730602 0.580453 0
0.752834 0.582025 0
0.773312 0.584436 0
0.791989 0.587198 0
0.809781 0.590326 0
0.827237 0.593713 0
0.844846 0.597253 0
0.0295262 0.614649 0
0.0442969 0.61799 0
0.0583658 0.6215 0
0.07393 0.624521 0
0.0953689 0.626154 0
0.123781 0.625574 0
0.155825 0.623987 0
0.190295 0.621714 0
0.226413 0.618921 0
0.263111 0.615961 0
0.29929 0.613245 0
0.333562 0.610788 0
0.365545 0.608911 0
0.39501 0.607691 0
0.422751 0.606928 0
0.449409 0.606561 0
0.475303 0.606439 0
0.500572 0.606348 0
0.525597 0.606348 0
0.550637 0.606348 0
0.576074 0.606271 0
0.602014 0.606287 0
0.628443 0.606226 0
0.654917 0.60618 0
0.680964 0.606394 0
0.706142 0.606989 0
0.730053 0.608118 0
0.752636 0.610071 0
0.773114 0.612482 0
0.791974 0.615442 0
0.809903 0.618723 0
0.827482 0.622248 0
0.845335 0.626078 0
0.0286259 0.642573 0
0.0431983 0.645731 0
0.0570993 0.649058 0
0.072755 0.652171 0
0.0938735 0.653452 0
0.122164 0.652735 0
0.15407 0.651026 0
0.188449 0.648646 0
0.224537 0.645808 0
0.261357 0.642954 0
0.297337 0.64004 0
0.331594 0.637568 0
0.363592 0.635691 0
0.393072 0.634501 0
0.421042 0.633982 0
0.447669 0.633585 0
0.473503 0.633402 0
0.498833 0.633356 0
0.523919 0.633433 0
0.549142 0.633616 0
0.574838 0.633829 0
0.600793 0.633875 0
0.627268 0.633844 0
0.653864 0.633951 0
0.680095 0.634348 0
0.705592 0.635309 0
0.729793 0.636744 0
0.752331 0.638651 0
0.772915 0.641184 0
0.791867 0.644236 0
0.809903 0.647639 0
0.827741 0.651438 0
0.845518 0.655177 0
0.0275273 0.670329 0
0.0421607 0.673548 0
0.0559701 0.676783 0
0.0713054 0.67953 0
0.0923018 0.68069 0
0.120485 0.67985 0
0.1523 0.678035 0
0.186786 0.675776 0
0.222797 0.672847 0
0.259403 0.669764 0
0.295384 0.666865 0
0.329686 0.664408 0
0.36173 0.662593 0
0.39144 0.661646 0
0.419257 0.660975 0
0.44596 0.660639 0
0.471901 0.660578 0
0.497353 0.660685 0
0.522622 0.660945 0
0.548028 0.661341 0
0.573724 0.661555 0
0.599847 0.661784 0
0.626535 0.661982 0
0.653315 0.662287 0
0.679789 0.662959 0
0.705394 0.664027 0
0.729625 0.665492 0
0.752285 0.667536 0
0.772976 0.670176 0
0.791989 0.673304 0
0.810254 0.676951 0
0.827878 0.680537 0
0.845579 0.684184 0
0.0270848 0.698085 0
0.0414893 0.70106 0
0.0551919 0.704173 0
0.0704509 0.706844 0
0.0913405 0.707881 0
0.119387 0.706905 0
0.151293 0.70518 0
0.185534 0.702647 0
0.2215 0.699687 0
0.258106 0.69659 0
0.294102 0.69369 0
0.32842 0.691264 0
0.360708 0.689723 0
0.390326 0.688685 0
0.41828 0.688136 0
0.445075 0.687922 0
0.471107 0.687953 0
0.496895 0.688426 0
0.522286 0.688807 0
0.547723 0.68925 0
0.573571 0.689632 0
0.599817 0.689982 0
0.626657 0.690349 0
0.653712 0.690944 0
0.680201 0.69163 0
0.705806 0.692714 0
0.730114 0.69427 0
0.752789 0.69633 0
0.773571 0.699062 0
0.792691 0.702312 0
0.810727 0.705715 0
0.828305 0.709239 0
0.845884 0.712749 0
0.0276646 0.725597 0
0.0419471 0.728405 0
0.0555581 0.731441 0
0.0707408 0.734035 0
0.0916915 0.735134 0
0.119692 0.734112 0
0.151308 0.732082 0
0.185458 0.729442 0
0.221378 0.726436 0
0.257984 0.723354 0
0.29424 0.720729 0
0.328634 0.718395 0
0.3608 0.716716 0
0.390509 0.715755 0
0.41857 0.715343 0
0.445548 0.715312 0
0.471946 0.71574 0
0.497627 0.716121 0
0.52311 0.716594 0
0.548623 0.717113 0
0.574578 0.717601 0
0.600946 0.718105 0
0.627985 0.718685 0
0.654932 0.719173 0
0.681437 0.719875 0
0.707057 0.720958 0
0.73138 0.72253 0
0.754147 0.724697 0
0.774914 0.727428 0
0.793805 0.730404 0
0.811673 0.733639 0
0.829145 0.737026 0
0.846616 0.740429 0
0.0297704 0.75285 0
0.0439765 0.755596 0
0.0575723 0.758602 0
0.0728313 0.761288 0
0.0936141 0.762219 0
0.121447 0.760998 0
0.152987 0.758892 0
0.187091 0.756222 0
0.222995 0.753185 0
0.25977 0.750286 0
0.295872 0.747509 0
0.330358 0.745281 0
0.362661 0.743725 0
0.392477 0.742901 0
0.42063 0.74258 0
0.447852 0.742824 0
0.474113 0.743114 0
0.49987 0.743557 0
0.525414 0.744106 0
0.550973 0.744686 0
0.577142 0.745403 0
0.603449 0.74583 0
0.630304 0.746227 0
0.657267 0.746715 0
0.683772 0.747433 0
0.709361 0.748486 0
0.733745 0.750118 0
0.756329 0.752071 0
0.776883 0.754574 0
0.795666 0.757458 0
0.813367 0.760494 0
0.83061 0.763653 0
0.847944 0.766888 0
0.0337835 0.779858 0
0.0479591 0.782574 0
0.061738 0.785794 0
0.0768749 0.788342 0
0.0975357 0.789151 0
0.125277 0.787854 0
0.15671 0.785626 0
0.190875 0.783032 0
0.226856 0.780102 0
