LUT/LumixLab/Ontario.cube
TITLE "Ontario by rossandhisjpegs"
#LUMIXPHOTOSTYLE NAT
LUT_3D_SIZE 5
DOMAIN_MIN 0.0 0.0 0.0
DOMAIN_MAX 1.0 1.0 1.0
0.019608 0.023529 0.023529
0.164706 0.019608 0.015686
0.364706 0.027451 0.015686
0.593137 0.035294 0.027451
0.807843 0.043137 0.035294
0.011765 0.111764 0.019608
0.118628 0.107598 0.019608
0.418628 0.086275 0.017647
0.719853 0.095098 0.031373
0.950980 0.118628 0.039216
0.007843 0.323529 0.027451
0.114216 0.367647 0.023529
0.443138 0.391177 0.033334
0.825490 0.406863 0.019608
0.988235 0.435294 0.017647
0.045098 0.624510 0.052941
0.179412 0.668382 0.073529
0.477941 0.716666 0.074020
0.794118 0.743873 0.092157
0.971569 0.746078 0.104902
0.105882 0.882353 0.160784
0.337255 0.909804 0.172549
0.564706 0.949020 0.158824
0.804902 0.961764 0.152941
0.956863 0.960784 0.164706
0.007843 0.046078 0.230392
0.232598 0.024264 0.155392
0.382353 0.027451 0.027451
0.587255 0.035294 0.036029
0.795098 0.043137 0.047059
0.015686 0.119363 0.100735
0.114828 0.113909 0.113909
0.387132 0.095466 0.059436
0.673529 0.110968 0.055331
0.907843 0.138235 0.059804
0.011765 0.334804 0.106373
0.140196 0.380514 0.141789
0.444118 0.408578 0.123529
0.825858 0.415809 0.107721
0.988235 0.454412 0.158823
0.055883 0.620588 0.199020
0.198959 0.675061 0.235968
0.495221 0.724142 0.236765
0.788664 0.753922 0.187010
0.971569 0.750980 0.217647
0.143137 0.878431 0.306863
0.351226 0.933088 0.309804
0.577941 0.950981 0.324510
0.800980 0.964706 0.288481
0.956863 0.964706 0.278431
0.007843 0.092157 0.529411
0.074510 0.087255 0.566176
0.550000 0.043137 0.329412
0.703431 0.039216 0.112745
0.884313 0.047059 0.074510
0.007843 0.167647 0.344118
0.031250 0.166666 0.406005
0.500000 0.095098 0.325980
0.711765 0.112745 0.151470
0.916667 0.149019 0.129412
0.011765 0.377451 0.325490
0.108333 0.412745 0.377451
0.438235 0.443137 0.432353
0.767892 0.454167 0.392892
0.978432 0.496079 0.387255
0.052451 0.675490 0.427451
0.229780 0.698529 0.469240
0.526225 0.731372 0.499020
0.779902 0.765319 0.461274
0.979412 0.765686 0.490686
0.170588 0.907843 0.513726
0.318137 0.924510 0.535294
0.592157 0.956863 0.546079
0.796079 0.968627 0.538235
0.960784 0.964706 0.511765
0.007843 0.150000 0.796079
0.018627 0.157108 0.835049
0.422059 0.126471 0.812255
0.868627 0.067647 0.517892
0.972549 0.059804 0.356863
0.007843 0.221568 0.635294
0.019608 0.228677 0.695098
0.285907 0.196079 0.786765
0.874265 0.115993 0.561765
0.980392 0.145098 0.432353
0.009804 0.456373 0.593137
0.040074 0.489216 0.649020
0.299265 0.508824 0.739216
0.831985 0.464706 0.659804
0.975491 0.493137 0.563235
0.015686 0.711764 0.640441
0.169363 0.743076 0.690196
0.456863 0.766054 0.736642
0.774448 0.777451 0.758456
0.979412 0.788235 0.749265
0.093137 0.941176 0.740196
0.284314 0.952941 0.772304
0.543137 0.960784 0.776471
0.814951 0.969362 0.784313
0.968627 0.973529 0.757843
0.007843 0.176471 0.886275
0.018627 0.172549 0.886275
0.223529 0.162745 0.882353
0.881373 0.109804 0.910784
0.968627 0.094118 0.737255
0.007843 0.279412 0.852941
0.019608 0.287990 0.890196
0.167157 0.258334 0.901471
0.868628 0.166912 0.918627
0.976471 0.174510 0.810785
0.007843 0.513726 0.803922
0.025000 0.542647 0.859314
0.259804 0.552941 0.930392
0.783334 0.480882 0.953431
0.980392 0.498040 0.892157
0.078431 0.765686 0.843137
0.181618 0.792157 0.888481
0.381863 0.800000 0.925000
0.712745 0.800980 0.960049
0.976471 0.777451 0.922549
0.058824 0.949020 0.854902
0.238235 0.956863 0.882353
0.466666 0.964706 0.913725
0.798039 0.972549 0.941176
0.976471 0.980392 0.956863
