LUT/LumixLab/Ontario.cube
TITLE "Ontario by rossandhisjpegs"
#LUMIXPHOTOSTYLE NAT
LUT_3D_SIZE 33
DOMAIN_MIN 0.0 0.0 0.0
DOMAIN_MAX 1.0 1.0 1.0
0.019608 0.023529 0.023529
0.031250 0.023529 0.019731
0.046569 0.019608 0.019608
0.065932 0.019608 0.015686
0.081373 0.019608 0.015686
0.100123 0.015686 0.015686
0.119363 0.015686 0.015686
0.139460 0.018750 0.015686
0.164706 0.019608 0.015686
0.184926 0.019608 0.015686
0.208088 0.019608 0.015686
0.233824 0.023529 0.015686
0.258333 0.023529 0.015686
0.283824 0.023529 0.015686
0.308578 0.023529 0.015686
0.335662 0.027451 0.015686
0.364706 0.027451 0.015686
0.393750 0.027451 0.015686
0.418628 0.031373 0.015686
0.449510 0.031373 0.019608
0.476471 0.031373 0.019608
0.507353 0.031373 0.019608
0.534314 0.035294 0.023529
0.565196 0.035294 0.023529
0.593137 0.035294 0.027451
0.626103 0.035294 0.027451
0.653921 0.039216 0.028186
0.680882 0.039216 0.031373
0.707843 0.039216 0.031373
0.734436 0.039584 0.031741
0.761519 0.043137 0.035294
0.784682 0.043137 0.035294
0.807843 0.043137 0.035294
0.015809 0.031250 0.019731
0.027328 0.031250 0.019612
0.042762 0.027566 0.015809
0.062010 0.027328 0.015686
0.081373 0.023422 0.015686
0.100123 0.023406 0.015686
0.119363 0.020320 0.015686
0.142429 0.019608 0.015686
0.164706 0.019608 0.015686
0.188848 0.019608 0.015686
0.212010 0.023491 0.015686
0.235172 0.023529 0.015686
0.262133 0.023529 0.015686
0.287672 0.023529 0.015686
0.314583 0.027397 0.015686
0.341544 0.027451 0.015686
0.370527 0.027451 0.015686
0.399387 0.031308 0.015686
0.426348 0.031373 0.015686
0.457230 0.031373 0.019608
0.486566 0.032797 0.019608
0.515074 0.035294 0.020956
0.545956 0.035294 0.023529
0.576716 0.035294 0.023529
0.608579 0.036244 0.027451
0.638576 0.039216 0.027451
0.668651 0.039216 0.031373
0.696324 0.039216 0.031373
0.723285 0.043014 0.031848
0.750245 0.043137 0.035294
0.776961 0.043137 0.035294
0.803922 0.046936 0.035294
0.827083 0.047059 0.035294
0.011765 0.038971 0.015686
0.023292 0.038971 0.015686
0.035049 0.038741 0.015686
0.057966 0.035049 0.015686
0.077206 0.031587 0.015686
0.097020 0.031128 0.015686
0.119363 0.027941 0.015686
0.139652 0.027206 0.015686
0.164706 0.023529 0.015686
0.188848 0.023529 0.015686
0.212010 0.023529 0.015686
0.239009 0.023529 0.015686
0.264553 0.027206 0.015686
0.291521 0.027451 0.015686
0.318490 0.027451 0.015686
0.345458 0.027451 0.015686
0.376225 0.031250 0.015686
0.405385 0.031373 0.015686
0.434069 0.031373 0.017402
0.464951 0.035148 0.019608
0.495833 0.035294 0.019608
0.526716 0.035294 0.023368
0.557598 0.035294 0.023529
0.588236 0.038971 0.024632
0.620098 0.039216 0.027451
0.653921 0.039216 0.028255
0.681081 0.039905 0.031373
0.711765 0.042930 0.031373
0.738726 0.043137 0.035080
0.769018 0.043482 0.035294
0.796093 0.046829 0.035294
0.819485 0.047059 0.035294
0.846324 0.047059 0.035294
0.011765 0.050612 0.015686
0.015931 0.050256 0.015686
0.027551 0.046913 0.015686
0.046324 0.046358 0.015686
0.069485 0.042769 0.015686
0.092647 0.039404 0.015686
0.115441 0.038550 0.015686
0.138603 0.034926 0.015686
0.164706 0.031005 0.015686
0.188848 0.031005 0.015686
0.214706 0.027451 0.015686
0.239093 0.027451 0.015686
0.266176 0.027451 0.015686
0.293260 0.027451 0.015686
0.322342 0.029450 0.015686
0.349510 0.031201 0.015686
0.381985 0.031373 0.015686
0.412990 0.033039 0.015686
0.441789 0.035294 0.017402
0.474116 0.035294 0.019608
0.507108 0.035294 0.019608
0.538358 0.038848 0.023529
0.569240 0.039216 0.023529
0.603676 0.039216 0.027451
0.635539 0.040104 0.027451
0.669363 0.042850 0.031086
0.700245 0.043137 0.031373
0.730760 0.043137 0.031928
0.758043 0.046737 0.035294
0.788270 0.047059 0.035294
0.815318 0.047281 0.035294
0.838848 0.050624 0.035417
0.862010 0.050980 0.039216
0.011765 0.061765 0.015686
0.015563 0.061765 0.015686
0.023069 0.058334 0.015686
0.035049 0.057889 0.015686
0.054841 0.054841 0.015686
0.081005 0.051026 0.015686
0.107445 0.047212 0.015686
0.131250 0.046186 0.015686
0.159927 0.039706 0.015686
0.185279 0.035907 0.015686
0.212010 0.034804 0.015686
0.239093 0.034804 0.015686
0.268321 0.034804 0.015686
0.295589 0.031373 0.015686
0.325980 0.031373 0.015686
0.353431 0.031373 0.015686
0.386274 0.035049 0.015686
0.418628 0.035294 0.015686
0.453431 0.035294 0.019608
0.484314 0.038726 0.019608
0.518627 0.039216 0.021078
0.551180 0.039216 0.023529
0.584313 0.040288 0.024755
0.619118 0.042785 0.027451
0.650981 0.043137 0.028431
0.685555 0.043888 0.031373
0.719118 0.046569 0.031373
0.749464 0.047059 0.035294
0.777390 0.047488 0.035294
0.807521 0.050536 0.035294
0.834559 0.050980 0.035508
0.858211 0.054412 0.039216
0.881373 0.054902 0.039216
0.011765 0.069975 0.015686
0.011765 0.069975 0.015686
0.019363 0.069975 0.015686
0.030695 0.069420 0.015686
0.046691 0.066468 0.019118
0.066054 0.065442 0.019608
0.095826 0.061634 0.016306
0.123529 0.057732 0.015686
0.153554 0.053830 0.015686
0.180515 0.047377 0.015686
0.208510 0.046025 0.015686
0.237956 0.042524 0.015686
0.268628 0.042524 0.015686
0.299146 0.039947 0.015686
0.329780 0.038603 0.015686
0.360662 0.038603 0.015686
0.393505 0.038603 0.015686
0.427899 0.039216 0.017524
0.461152 0.040663 0.019608
0.495592 0.042524 0.019608
0.530377 0.042524 0.023529
0.564951 0.043137 0.023529
0.599755 0.043137 0.027451
0.634559 0.046446 0.027451
0.669884 0.046599 0.030913
0.704167 0.047783 0.031373
0.735049 0.050367 0.032108
0.765931 0.050980 0.035294
0.796737 0.054289 0.035294
0.823774 0.054902 0.035604
0.850697 0.058211 0.039216
0.877573 0.058927 0.039216
0.900736 0.062132 0.039216
0.011765 0.081618 0.015686
0.011765 0.081618 0.015686
0.015686 0.081618 0.015686
0.023828 0.081618 0.015686
0.038971 0.080882 0.019516
0.057721 0.078194 0.019608
0.081480 0.076960 0.019608
0.111764 0.073039 0.018873
0.144853 0.069117 0.015686
0.176187 0.064668 0.015686
0.203676 0.058579 0.015686
0.234559 0.055262 0.015686
0.267433 0.053431 0.015686
0.299510 0.050245 0.015686
0.332184 0.050245 0.015686
0.364851 0.050245 0.015686
0.401226 0.050245 0.015686
0.437600 0.050245 0.019608
0.473775 0.051639 0.019608
0.508893 0.053431 0.021201
0.545588 0.053431 0.023529
0.581487 0.053431 0.024877
0.616192 0.054657 0.027451
0.650896 0.057353 0.028554
0.685784 0.057353 0.031373
0.722794 0.061274 0.031373
0.754412 0.061872 0.035294
0.784559 0.065196 0.035294
0.812255 0.065687 0.035294
0.842769 0.069416 0.035662
0.869853 0.073039 0.039216
0.896201 0.076960 0.039216
0.919363 0.080147 0.039216
0.011765 0.096323 0.015686
0.011765 0.096323 0.015686
0.015686 0.096323 0.018750
0.019321 0.096323 0.019608
0.031633 0.096323 0.019608
0.050000 0.095600 0.019608
0.069240 0.092402 0.019608
0.096323 0.089151 0.019608
0.133088 0.087837 0.016667
0.168995 0.083943 0.015686
0.199878 0.077673 0.015686
0.233824 0.073847 0.015686
0.267157 0.070021 0.015686
0.301329 0.066196 0.015686
0.336037 0.064951 0.015686
0.372181 0.064951 0.015686
0.410478 0.064951 0.017218
0.447549 0.064951 0.019608
0.485294 0.064951 0.019608
0.522652 0.068872 0.023529
0.558578 0.068872 0.023529
0.597182 0.068872 0.027451
0.631863 0.070098 0.027451
0.666544 0.072794 0.031373
0.701991 0.073775 0.031373
0.738971 0.076715 0.032231
0.769853 0.079940 0.035294
0.800735 0.081116 0.035294
0.831511 0.084559 0.035294
0.858579 0.087703 0.039216
0.885486 0.091598 0.039216
0.912377 0.095492 0.039216
0.935539 0.099387 0.039216
0.011765 0.111764 0.019608
0.015563 0.111764 0.019608
0.015686 0.111764 0.019608
0.019240 0.114706 0.019608
0.027819 0.114706 0.019608
0.042892 0.114706 0.019608
0.061520 0.113909 0.019608
0.085448 0.110784 0.019608
0.118628 0.107598 0.019608
0.157230 0.106158 0.018627
0.194853 0.105208 0.015686
0.232476 0.101961 0.015686
0.267157 0.099142 0.015686
0.305178 0.094730 0.015686
0.343382 0.090931 0.015686
0.379902 0.087653 0.015686
0.418628 0.086275 0.017647
0.459191 0.084896 0.019608
0.497365 0.083763 0.021323
0.535417 0.087255 0.023529
0.574019 0.087255 0.024632
0.612285 0.087592 0.027451
0.647304 0.091177 0.027451
0.684099 0.091177 0.031373
0.719853 0.095098 0.031373
0.755055 0.095956 0.032231
0.788235 0.099020 0.035294
0.819118 0.102941 0.035294
0.849632 0.103431 0.035294
0.876685 0.107230 0.036550
0.903738 0.111029 0.039216
0.930760 0.114828 0.039216
0.950980 0.118628 0.039216
0.011765 0.127206 0.019608
0.015563 0.130024 0.019608
0.015686 0.131127 0.019608
0.019240 0.131127 0.019608
0.024494 0.133946 0.019608
0.039093 0.133946 0.019608
0.057353 0.137339 0.019608
0.080641 0.137006 0.019608
0.110631 0.134651 0.023529
0.145711 0.133153 0.022736
0.186251 0.131962 0.019730
0.228688 0.130993 0.015686
0.271078 0.128921 0.015686
0.308578 0.126593 0.015686
0.347802 0.124380 0.015686
0.385784 0.121814 0.015686
0.428309 0.118015 0.016238
0.470833 0.114216 0.019608
0.509436 0.110899 0.021323
0.548039 0.109313 0.023529
0.586642 0.108670 0.025000
0.624866 0.107598 0.027451
0.662745 0.110416 0.027451
0.697427 0.112312 0.031373
0.733915 0.114614 0.031373
0.770094 0.116058 0.032231
0.804657 0.119891 0.035294
0.835539 0.122353 0.035294
0.865932 0.126241 0.035294
0.893383 0.130024 0.035397
0.920274 0.133946 0.039216
0.947059 0.137867 0.039216
0.960784 0.141789 0.039216
0.011765 0.146569 0.019608
0.015563 0.149264 0.019608
0.015686 0.152941 0.019608
0.019240 0.153186 0.019608
0.025888 0.156955 0.019608
0.041912 0.159383 0.019608
0.057353 0.161029 0.019608
0.079779 0.163725 0.021714
0.109130 0.163725 0.023529
0.141567 0.161788 0.023529
0.179412 0.159804 0.023529
0.220588 0.159804 0.019730
0.266912 0.159804 0.012776
0.311282 0.159076 0.011765
0.352206 0.155882 0.011765
0.393505 0.155882 0.012990
0.436029 0.155269 0.015686
0.479818 0.154657 0.016261
0.521078 0.150735 0.019608
0.560777 0.146316 0.021928
0.600980 0.144118 0.023529
0.639583 0.140319 0.025682
0.675107 0.138970 0.027451
0.712109 0.138212 0.029435
0.747855 0.137500 0.031373
0.785294 0.138358 0.031373
0.816912 0.141421 0.035294
0.850559 0.145343 0.035294
0.879013 0.146906 0.035294
0.908824 0.150743 0.035294
0.935784 0.155959 0.035371
0.959765 0.159842 0.036520
0.968627 0.163725 0.036520
0.011765 0.168505 0.019608
0.015563 0.172427 0.019608
0.015686 0.176264 0.022020
0.019240 0.178680 0.022181
0.026961 0.182521 0.022181
0.041912 0.186363 0.022181
0.059444 0.190203 0.020090
0.079779 0.191739 0.022671
0.109467 0.194608 0.023529
0.140686 0.194608 0.026348
0.176417 0.190686 0.027451
0.215904 0.190686 0.026103
0.258686 0.190686 0.021844
0.307843 0.190686 0.012810
0.354412 0.193260 0.011765
0.399387 0.190686 0.011765
0.443750 0.190686 0.015686
0.489480 0.190054 0.015686
0.531372 0.189338 0.019608
0.572369 0.189338 0.019608
0.612500 0.187990 0.023529
0.652451 0.184953 0.023529
0.689706 0.184069 0.024877
0.727206 0.182721 0.027451
0.763970 0.182384 0.028799
0.800735 0.181667 0.029362
0.834444 0.182721 0.031373
0.866422 0.184471 0.031584
0.897135 0.187990 0.032721
0.924265 0.190690 0.032721
0.950980 0.194731 0.035294
0.971281 0.198529 0.035294
0.975123 0.204902 0.035294
0.011765 0.195588 0.023529
0.011765 0.199464 0.023529
0.015533 0.203339 0.023529
0.019240 0.205882 0.023529
0.026961 0.209804 0.023529
0.043980 0.214966 0.023529
0.061274 0.220833 0.023529
0.083701 0.221569 0.023529
0.111642 0.225490 0.023529
0.144608 0.225490 0.027451
0.177175 0.225490 0.030913
0.212868 0.225490 0.029902
0.255392 0.224020 0.026532
0.298790 0.224893 0.022779
0.348866 0.226869 0.012837
0.399587 0.227941 0.011765
0.451471 0.227941 0.015686
0.499065 0.227941 0.017524
0.541514 0.227941 0.019608
0.583962 0.227941 0.019608
0.624571 0.227941 0.023529
0.666544 0.227941 0.023529
0.705147 0.230392 0.023529
0.742647 0.230392 0.023943
0.779412 0.230392 0.025613
0.816712 0.233165 0.027451
0.850980 0.234773 0.027451
0.881863 0.236995 0.027681
0.912745 0.240870 0.028922
0.943260 0.244746 0.028922
0.963725 0.250153 0.028922
0.976471 0.253998 0.028922
0.978922 0.260294 0.028922
0.009436 0.225000 0.023529
0.011765 0.228799 0.023529
0.011765 0.232598 0.023529
0.017130 0.236397 0.023529
0.030392 0.240687 0.023529
0.045834 0.244608 0.023529
0.063166 0.251716 0.023529
0.083701 0.255515 0.023529
0.113726 0.258119 0.023529
0.144608 0.260294 0.027451
0.178914 0.260294 0.031373
0.215744 0.260294 0.033701
0.255392 0.262622 0.030377
0.296323 0.258701 0.029780
0.342647 0.261604 0.024962
0.392647 0.265453 0.015931
0.450613 0.266544 0.014522
0.506239 0.267636 0.017524
0.553102 0.268872 0.019608
0.595554 0.270466 0.019608
0.638006 0.270466 0.021078
0.678064 0.270466 0.023529
0.716666 0.272794 0.023529
0.755270 0.272794 0.023529
0.794271 0.274969 0.023529
0.831966 0.277064 0.023529
0.866422 0.280936 0.023529
0.897304 0.284808 0.023529
0.928187 0.288971 0.023529
0.958482 0.292770 0.023529
0.971201 0.296568 0.023529
0.980392 0.300368 0.025122
0.980392 0.305760 0.027451
0.007843 0.255882 0.023529
0.011765 0.259681 0.023529
0.011765 0.263725 0.023529
0.019240 0.267647 0.023529
0.030392 0.273499 0.023529
0.045834 0.278799 0.023529
0.062669 0.283012 0.023529
0.085425 0.288978 0.023529
0.116667 0.292831 0.023529
0.148047 0.296684 0.027451
0.182108 0.297304 0.031373
0.218995 0.297304 0.035294
0.257598 0.299755 0.032200
0.297917 0.300207 0.031373
0.342647 0.298545 0.031373
0.388971 0.301226 0.027574
0.443995 0.305147 0.017892
0.504780 0.309069 0.015686
0.557108 0.310034 0.019608
0.604940 0.311275 0.019608
0.649602 0.312991 0.019608
0.690173 0.312991 0.022082
0.729902 0.315196 0.023529
0.768022 0.315679 0.023529
0.805821 0.319118 0.023529
0.845335 0.321316 0.023529
0.878263 0.325168 0.023529
0.912745 0.329021 0.023184
0.943352 0.332874 0.021323
0.967647 0.336726 0.021323
0.978784 0.340579 0.021461
0.982652 0.344431 0.023529
0.984314 0.348284 0.023529
0.007843 0.286765 0.025613
0.011765 0.292705 0.025613
0.015441 0.296561 0.027451
0.021323 0.302084 0.027451
0.032705 0.306142 0.027451
0.046159 0.312052 0.025900
0.061274 0.317402 0.023529
0.083701 0.323686 0.023529
0.116667 0.329443 0.023529
0.150027 0.334804 0.026348
0.184766 0.335907 0.030147
0.220711 0.335907 0.034578
0.260616 0.339139 0.032843
0.301092 0.341912 0.031373
0.343558 0.341912 0.034383
0.390078 0.341912 0.031373
0.443138 0.344792 0.029535
0.497059 0.349510 0.019006
0.555024 0.352504 0.015686
0.607230 0.354423 0.018371
0.655882 0.355515 0.019608
0.699020 0.356231 0.019608
0.739706 0.357598 0.019608
0.777723 0.359436 0.021446
0.815809 0.361979 0.021446
0.856495 0.365441 0.019608
0.889805 0.369363 0.019608
0.922181 0.371526 0.019608
0.952803 0.377436 0.019608
0.975368 0.379239 0.019608
0.984314 0.383096 0.019608
0.986397 0.386952 0.021446
0.988235 0.390809 0.021446
0.007843 0.323529 0.027451
0.011765 0.329289 0.027451
0.017279 0.333211 0.027451
0.025122 0.339032 0.027451
0.038481 0.344608 0.027451
0.051716 0.349020 0.027451
0.063235 0.356127 0.023897
0.083701 0.362316 0.023529
0.114216 0.367647 0.023529
0.151348 0.375368 0.026899
0.186642 0.377819 0.028799
0.224633 0.379718 0.033946
0.263235 0.381617 0.035294
0.306127 0.386275 0.032169
0.348529 0.390197 0.031373
0.391973 0.392157 0.033334
0.443138 0.391177 0.033334
0.496262 0.394118 0.032414
0.547304 0.398039 0.024877
0.601348 0.400796 0.016054
0.654657 0.401960 0.016421
0.702206 0.401960 0.017647
0.745956 0.402573 0.019608
0.787868 0.405882 0.019608
0.825490 0.406863 0.019608
0.865074 0.410661 0.017647
0.899387 0.414461 0.017647
0.932169 0.418260 0.015686
0.960294 0.422059 0.013725
0.978983 0.425490 0.013909
0.986397 0.429412 0.015686
0.988235 0.431434 0.017647
0.988235 0.435294 0.017647
0.007843 0.362132 0.027451
0.013546 0.365997 0.027451
0.021086 0.373652 0.027451
0.032476 0.377646 0.027451
0.043995 0.383563 0.027451
0.055840 0.388971 0.027451
0.070956 0.396691 0.023529
0.086397 0.400946 0.023529
0.111366 0.408211 0.024908
0.148012 0.415931 0.027451
0.189951 0.419731 0.027451
0.228554 0.423529 0.033946
0.267157 0.426026 0.036443
0.308835 0.431127 0.034057
0.353240 0.435731 0.033211
0.395707 0.439587 0.034318
0.444057 0.441360 0.035294
0.497304 0.442402 0.037132
0.547549 0.443314 0.038304
0.594719 0.446324 0.031763
0.646982 0.449096 0.015901
0.697794 0.450245 0.013848
0.746691 0.450245 0.014422
0.789829 0.450831 0.015686
0.831250 0.454167 0.015686
0.872392 0.456652 0.015284
0.907131 0.460516 0.013848
0.939706 0.464380 0.011765
0.965686 0.468015 0.011765
0.980760 0.470049 0.011765
0.988235 0.472051 0.011765
0.988235 0.475858 0.015686
0.988235 0.479779 0.015686
0.009559 0.396813 0.027451
0.017279 0.404534 0.027451
0.025000 0.408471 0.027451
0.036642 0.416054 0.027451
0.048284 0.420129 0.027451
0.063235 0.427574 0.027451
0.078676 0.435294 0.025659
0.094118 0.439093 0.025245
0.115870 0.446814 0.027451
0.142754 0.453301 0.027451
0.187010 0.458333 0.030147
0.231128 0.463480 0.033946
0.271078 0.466575 0.038389
0.312707 0.470427 0.037906
0.357092 0.477451 0.035294
0.399563 0.482054 0.036206
0.447917 0.487867 0.038113
0.496132 0.488725 0.040020
0.546584 0.488725 0.041896
0.593873 0.488725 0.043834
0.641024 0.492647 0.040166
0.690073 0.495443 0.023775
0.738971 0.496569 0.011765
0.785294 0.496569 0.011765
0.832046 0.497120 0.011765
0.874877 0.500490 0.011765
0.910953 0.503018 0.011765
0.943014 0.506617 0.011765
0.965901 0.508609 0.011765
0.980760 0.510539 0.011765
0.988235 0.510785 0.011765
0.988235 0.514583 0.011765
0.988235 0.518382 0.011765
0.011765 0.435417 0.027451
0.021029 0.439289 0.028995
0.032476 0.446937 0.029044
0.043995 0.454657 0.027600
0.055515 0.458456 0.027451
0.070956 0.466177 0.027451
0.086397 0.472603 0.027451
0.105250 0.477696 0.027451
0.125735 0.485416 0.028646
0.147304 0.490319 0.030718
0.184804 0.496936 0.031373
0.231128 0.502083 0.036340
0.274127 0.506005 0.040212
0.316578 0.512255 0.043137
0.359030 0.517770 0.039216
0.404657 0.523774 0.039216
0.451777 0.528370 0.040809
0.500134 0.534203 0.043137
0.544646 0.535049 0.045749
0.593873 0.535049 0.047706
0.640196 0.535922 0.049525
0.685972 0.537925 0.050973
0.731250 0.539698 0.037760
0.777573 0.541299 0.019363
0.824877 0.542892 0.012960
0.873284 0.543401 0.011765
0.911152 0.545519 0.011765
0.941670 0.549142 0.011765
0.966177 0.549142 0.011765
0.980760 0.549142 0.011765
0.988235 0.549387 0.011765
0.988235 0.553064 0.011765
0.988235 0.556985 0.011765
0.017157 0.470098 0.031373
0.027252 0.477818 0.031373
0.036520 0.485539 0.031373
0.051715 0.493260 0.029152
0.063235 0.497059 0.028738
0.080147 0.504779 0.028922
0.098039 0.509314 0.030913
0.116866 0.516299 0.031373
0.137255 0.524019 0.032843
0.157185 0.528508 0.034605
0.185723 0.535539 0.036305
0.233701 0.539338 0.040181
0.279841 0.544056 0.046140
0.320450 0.550858 0.047932
0.363726 0.555729 0.044608
0.408578 0.562378 0.044608
0.454412 0.570098 0.045833
0.501225 0.575827 0.047748
0.546477 0.581372 0.049602
0.589951 0.581372 0.051577
0.638726 0.581372 0.055454
0.682598 0.581372 0.059329
0.725000 0.583824 0.060754
0.769853 0.583824 0.053600
0.816054 0.585294 0.036642
0.862500 0.587745 0.019302
0.904167 0.588021 0.014430
0.938235 0.589216 0.011765
0.965993 0.587745 0.011765
0.980760 0.587745 0.011765
0.988235 0.587990 0.011765
0.988235 0.591667 0.011765
0.988235 0.595588 0.011765
0.020956 0.508701 0.032721
0.032598 0.516422 0.031373
0.045504 0.524142 0.031373
0.059437 0.530641 0.031373
0.074877 0.535662 0.032721
0.091667 0.543382 0.032721
0.109681 0.547181 0.035294
0.128481 0.554902 0.036642
0.147427 0.561275 0.036642
0.168738 0.566421 0.040185
0.191597 0.571446 0.042333
0.235512 0.577056 0.047059
0.283686 0.581740 0.050858
0.326715 0.586585 0.052328
0.367525 0.593260 0.052328
0.411765 0.600980 0.050406
0.459498 0.608701 0.052328
0.504657 0.614583 0.052328
0.547549 0.620221 0.055492
0.592280 0.626896 0.056250
0.635769 0.627191 0.060172
0.680366 0.623774 0.063208
0.723774 0.626348 0.068015
0.764951 0.626348 0.071936
0.806526 0.626348 0.068720
0.853921 0.626348 0.058310
0.894616 0.630269 0.042165
0.930515 0.630269 0.029446
0.960907 0.630269 0.019393
0.979538 0.627696 0.013113
0.986887 0.630269 0.013113
0.988235 0.630311 0.013155
0.988235 0.634191 0.014461
0.028677 0.547303 0.035294
0.040319 0.555025 0.036481
0.055637 0.562745 0.036520
0.071078 0.566544 0.036520
0.086520 0.574264 0.040104
0.101961 0.580952 0.040441
0.120818 0.585784 0.041667
0.136765 0.592548 0.044363
0.159069 0.597304 0.045282
0.178653 0.604144 0.047526
0.200628 0.607981 0.050980
0.240196 0.612623 0.054779
0.290441 0.617433 0.058579
0.334436 0.624142 0.060049
0.375781 0.630637 0.060049
0.417647 0.638358 0.056702
0.464705 0.646691 0.058088
0.509720 0.652535 0.060049
0.550291 0.658287 0.061229
0.592280 0.665319 0.063971
0.634804 0.669332 0.065441
0.674755 0.669677 0.068819
0.719853 0.668030 0.072656
0.762378 0.665832 0.076838
0.801960 0.664951 0.082659
0.846201 0.664951 0.080882
0.884804 0.665457 0.077451
0.918872 0.668872 0.069309
0.952114 0.668872 0.056280
0.972174 0.668872 0.046454
0.983088 0.668872 0.045344
0.983211 0.668995 0.045344
0.987010 0.672794 0.048039
0.036397 0.585907 0.040319
0.048039 0.593627 0.041387
0.063358 0.600245 0.045274
0.078799 0.605147 0.047898
0.094240 0.611902 0.049265
0.110784 0.617107 0.053014
0.129044 0.623491 0.053186
0.147790 0.628186 0.056867
0.167892 0.634804 0.057108
0.189951 0.638913 0.060237
0.209191 0.642747 0.061030
0.250625 0.647304 0.064572
0.302083 0.653921 0.068459
0.343260 0.658823 0.070018
0.384681 0.666544 0.068252
0.425885 0.673162 0.065686
0.469731 0.681434 0.065809
0.513576 0.688603 0.067770
0.554779 0.693505 0.067770
0.593383 0.698978 0.071691
0.634804 0.703921 0.072748
0.673407 0.710673 0.075613
0.712890 0.710516 0.078776
0.757353 0.707476 0.082663
0.798039 0.703554 0.088082
0.839342 0.703554 0.092157
0.877083 0.703554 0.095221
0.911152 0.703554 0.091961
0.941896 0.706373 0.089093
0.964706 0.706373 0.082740
0.975368 0.706373 0.081740
0.975490 0.707476 0.081740
0.979289 0.710294 0.081740
0.045098 0.624510 0.052941
0.059590 0.629289 0.053891
0.072242 0.636091 0.057782
0.087500 0.641085 0.060509
0.105882 0.647549 0.064338
0.122304 0.652328 0.065686
0.140135 0.659069 0.069424
0.157108 0.663082 0.072671
0.179412 0.668382 0.073529
0.199479 0.672274 0.076471
0.222181 0.676164 0.077451
0.268352 0.682322 0.079381
0.315686 0.687868 0.080392
0.357506 0.693903 0.080392
0.397304 0.701225 0.078186
0.435907 0.708946 0.074387
0.477941 0.716666 0.074020
0.519976 0.724387 0.075490
0.558578 0.728738 0.075919
0.597181 0.734712 0.079411
0.635417 0.738603 0.079779
0.673407 0.743505 0.083334
0.712009 0.750000 0.085233
0.751164 0.748039 0.088358
0.794118 0.743873 0.092157
0.835662 0.743137 0.098253
0.872733 0.739216 0.103676
0.904259 0.739216 0.107016
0.933823 0.739583 0.107843
0.956618 0.742157 0.104902
0.967647 0.742157 0.104902
0.967739 0.742188 0.104902
0.971569 0.746078 0.104902
0.056618 0.662255 0.068383
0.071228 0.666081 0.069214
0.086642 0.673774 0.075981
0.102083 0.677654 0.079779
0.117525 0.682613 0.080897
0.133689 0.689093 0.084069
0.151754 0.693627 0.087991
0.168440 0.697549 0.091242
0.190074 0.704412 0.091912
0.209555 0.708211 0.094972
0.242279 0.712010 0.095834
0.291961 0.717719 0.095834
0.334390 0.723530 0.095834
0.374142 0.731250 0.093505
0.412263 0.738971 0.091429
0.447426 0.745063 0.085049
0.487132 0.751348 0.083211
0.527696 0.758667 0.083211
0.565441 0.765931 0.087133
0.600980 0.769730 0.087133
0.638726 0.774065 0.089139
0.673970 0.779902 0.091054
0.712009 0.784191 0.094976
0.749510 0.787745 0.095837
0.787040 0.786979 0.099663
0.830882 0.783153 0.103676
0.869608 0.780599 0.107475
0.900490 0.779902 0.115062
0.926961 0.776838 0.118995
0.950042 0.776838 0.122427
0.959980 0.777030 0.122427
0.960880 0.779902 0.123285
0.963848 0.779902 0.123285
0.068138 0.693137 0.083824
0.082843 0.700858 0.087623
0.095297 0.704657 0.091467
0.110539 0.708823 0.095290
0.129167 0.716176 0.099111
0.144608 0.719975 0.102934
0.160646 0.724510 0.104029
0.179412 0.728431 0.107353
0.200919 0.734742 0.110294
0.222219 0.739093 0.111275
0.268873 0.743122 0.111275
0.313113 0.750613 0.111275
0.351256 0.755147 0.110539
0.389147 0.762868 0.104289
0.423851 0.770588 0.099755
0.458556 0.778309 0.093160
0.496814 0.786029 0.090931
0.533578 0.793015 0.091276
0.569776 0.797227 0.094853
0.604779 0.802941 0.095152
0.642647 0.806863 0.098774
0.677811 0.810784 0.099027
0.712515 0.814706 0.102696
0.746691 0.818099 0.103799
0.786091 0.822549 0.106617
0.824594 0.819202 0.110539
