LUT/LumixLab/Ontario.cube
TITLE "Ontario by rossandhisjpegs"
#LUMIXPHOTOSTYLE NAT
LUT_3D_SIZE 9
DOMAIN_MIN 0.0 0.0 0.0
DOMAIN_MAX 1.0 1.0 1.0
0.019608 0.023529 0.023529
0.081373 0.019608 0.015686
0.164706 0.019608 0.015686
0.258333 0.023529 0.015686
0.364706 0.027451 0.015686
0.476471 0.031373 0.019608
0.593137 0.035294 0.027451
0.707843 0.039216 0.031373
0.807843 0.043137 0.035294
0.011765 0.061765 0.015686
0.054841 0.054841 0.015686
0.159927 0.039706 0.015686
0.268321 0.034804 0.015686
0.386274 0.035049 0.015686
0.518627 0.039216 0.021078
0.650981 0.043137 0.028431
0.777390 0.047488 0.035294
0.881373 0.054902 0.039216
0.011765 0.111764 0.019608
0.027819 0.114706 0.019608
0.118628 0.107598 0.019608
0.267157 0.099142 0.015686
0.418628 0.086275 0.017647
0.574019 0.087255 0.024632
0.719853 0.095098 0.031373
0.849632 0.103431 0.035294
0.950980 0.118628 0.039216
0.011765 0.195588 0.023529
0.026961 0.209804 0.023529
0.111642 0.225490 0.023529
0.255392 0.224020 0.026532
0.451471 0.227941 0.015686
0.624571 0.227941 0.023529
0.779412 0.230392 0.025613
0.912745 0.240870 0.028922
0.978922 0.260294 0.028922
0.007843 0.323529 0.027451
0.038481 0.344608 0.027451
0.114216 0.367647 0.023529
0.263235 0.381617 0.035294
0.443138 0.391177 0.033334
0.654657 0.401960 0.016421
0.825490 0.406863 0.019608
0.960294 0.422059 0.013725
0.988235 0.435294 0.017647
0.017157 0.470098 0.031373
0.063235 0.497059 0.028738
0.137255 0.524019 0.032843
0.279841 0.544056 0.046140
0.454412 0.570098 0.045833
0.638726 0.581372 0.055454
0.816054 0.585294 0.036642
0.965993 0.587745 0.011765
0.988235 0.595588 0.011765
0.045098 0.624510 0.052941
0.105882 0.647549 0.064338
0.179412 0.668382 0.073529
0.315686 0.687868 0.080392
0.477941 0.716666 0.074020
0.635417 0.738603 0.079779
0.794118 0.743873 0.092157
0.933823 0.739583 0.107843
0.971569 0.746078 0.104902
0.090686 0.755392 0.115196
0.144118 0.782353 0.129902
0.239093 0.805392 0.133823
0.387255 0.828125 0.123836
0.518382 0.854902 0.112500
0.650796 0.868628 0.114399
0.785417 0.877328 0.123039
0.923040 0.875981 0.134313
0.960294 0.872549 0.141666
0.105882 0.882353 0.160784
0.213725 0.894118 0.168627
0.337255 0.909804 0.172549
0.450490 0.931863 0.168627
0.564706 0.949020 0.158824
0.684314 0.958333 0.147549
0.804902 0.961764 0.152941
0.926961 0.968627 0.160784
0.956863 0.960784 0.164706
0.007843 0.030883 0.112255
0.107904 0.016115 0.082292
0.169975 0.018750 0.026961
0.253922 0.023529 0.019608
0.352941 0.027451 0.019608
0.464706 0.031373 0.023529
0.581373 0.035294 0.028431
0.695650 0.039216 0.035294
0.796078 0.043137 0.039216
0.011765 0.062255 0.054841
0.054350 0.054036 0.054465
0.141667 0.043612 0.031863
0.243114 0.038297 0.023529
0.362745 0.035049 0.022824
0.492119 0.038910 0.026854
0.627941 0.043137 0.032338
0.757039 0.047059 0.039216
0.862194 0.057415 0.043137
0.011765 0.110784 0.027941
0.033992 0.110784 0.031633
0.114706 0.110049 0.030025
0.266222 0.099372 0.023161
0.410233 0.088909 0.025245
0.560386 0.093000 0.031067
0.701379 0.100000 0.038082
0.830837 0.113526 0.042693
0.934804 0.126471 0.045711
0.011765 0.198039 0.029596
0.037807 0.213235 0.034804
0.117463 0.228294 0.036413
0.255392 0.229297 0.035179
0.453431 0.231863 0.021967
0.625123 0.232169 0.035784
0.774586 0.234314 0.051118
0.905009 0.244792 0.062684
0.978922 0.264216 0.073530
0.009804 0.329166 0.035294
0.044577 0.348529 0.048039
0.129657 0.371569 0.048039
0.268965 0.388573 0.049019
0.446079 0.398039 0.040931
0.657690 0.409803 0.025735
0.827451 0.413726 0.040686
0.960294 0.429626 0.052451
0.988235 0.442892 0.067647
0.021078 0.477941 0.059314
0.071078 0.504902 0.074242
0.143627 0.530407 0.082491
0.292088 0.550674 0.087860
0.458333 0.576562 0.064216
0.638726 0.588243 0.065388
0.816054 0.591667 0.058839
0.965993 0.595282 0.038542
0.988235 0.599510 0.053922
0.051960 0.628431 0.107843
0.107184 0.651578 0.126532
0.183333 0.672304 0.139185
0.336274 0.693398 0.146936
0.484191 0.720588 0.123039
0.635784 0.743490 0.102895
0.792494 0.750214 0.106863
0.930821 0.743505 0.126578
0.971569 0.749632 0.135294
0.086765 0.758885 0.180392
0.140196 0.786275 0.191613
0.268429 0.813343 0.195573
0.402941 0.832353 0.195259
0.524509 0.854902 0.173805
0.653431 0.872242 0.154818
0.785294 0.879902 0.144608
0.919546 0.879902 0.152512
0.960294 0.875981 0.160723
0.113725 0.878431 0.229902
0.225000 0.908885 0.222058
0.348039 0.917157 0.226471
0.460478 0.929412 0.226471
0.570588 0.947059 0.218382
0.684314 0.960784 0.199020
0.804044 0.964706 0.183334
0.923040 0.968627 0.183334
0.956863 0.960784 0.187255
0.007843 0.046078 0.230392
0.048285 0.034314 0.248652
0.232598 0.024264 0.155392
0.296691 0.022426 0.058946
0.382353 0.027451 0.027451
0.479044 0.031373 0.031373
0.587255 0.035294 0.036029
0.695956 0.039216 0.043137
0.795098 0.043137 0.047059
0.007843 0.077941 0.153432
0.019975 0.068796 0.168627
0.178033 0.036428 0.128431
0.253432 0.035662 0.050613
0.359804 0.038726 0.027451
0.483104 0.040503 0.031373
0.616085 0.046569 0.039216
0.741728 0.050980 0.046952
0.846079 0.062132 0.050980
0.015686 0.119363 0.100735
0.027911 0.115441 0.107506
0.114828 0.113909 0.113909
0.247212 0.108823 0.090686
0.387132 0.095466 0.059436
0.530882 0.102482 0.055147
0.673529 0.110968 0.055331
0.801501 0.122916 0.056863
0.907843 0.138235 0.059804
0.015686 0.205270 0.093015
0.046079 0.217524 0.109666
0.129595 0.232537 0.125214
0.256311 0.235784 0.112975
0.452880 0.231863 0.083027
0.613235 0.222059 0.098560
0.754504 0.217310 0.108456
0.882751 0.231357 0.114261
0.977819 0.271691 0.118137
0.011765 0.334804 0.106373
0.051961 0.352818 0.126961
0.140196 0.380514 0.141789
0.275429 0.396814 0.145650
0.444118 0.408578 0.123529
0.662010 0.412990 0.094057
0.825858 0.415809 0.107721
0.951716 0.437193 0.124694
0.988235 0.454412 0.158823
0.028554 0.481863 0.139093
0.075368 0.503615 0.165732
0.146691 0.534957 0.179044
0.312255 0.558211 0.193704
0.463480 0.584804 0.159681
0.636274 0.596921 0.151409
0.813848 0.597518 0.155300
0.964706 0.600475 0.131234
0.988235 0.607353 0.162132
0.055883 0.620588 0.199020
0.105239 0.644608 0.222426
0.198959 0.675061 0.235968
0.363725 0.697549 0.248744
0.495221 0.724142 0.236765
0.637623 0.748008 0.188726
0.788664 0.753922 0.187010
0.929902 0.747334 0.208854
0.971569 0.750980 0.217647
0.086765 0.747549 0.267647
0.140027 0.778049 0.282966
0.292187 0.821079 0.281802
0.421569 0.839308 0.290686
0.535968 0.855086 0.286274
0.653431 0.872549 0.261275
0.781771 0.881250 0.224786
0.916391 0.880331 0.225368
0.960784 0.876348 0.246201
0.143137 0.878431 0.306863
0.218137 0.902328 0.312868
0.351226 0.933088 0.309804
0.470098 0.939706 0.321569
0.577941 0.950981 0.324510
0.684314 0.958333 0.311642
0.800980 0.964706 0.288481
0.916544 0.972059 0.278309
0.956863 0.964706 0.278431
0.007843 0.066667 0.376961
0.019118 0.061275 0.396079
0.173775 0.042279 0.389828
0.379963 0.033824 0.236275
0.448530 0.027451 0.115441
0.534804 0.031373 0.056863
0.632353 0.035294 0.047059
0.733333 0.039216 0.051286
0.825980 0.045588 0.054902
0.007843 0.096078 0.288236
0.015196 0.088419 0.305477
0.095512 0.057368 0.335110
0.334689 0.036213 0.215686
0.420834 0.031373 0.107445
0.528623 0.039216 0.059137
0.646063 0.043459 0.049831
0.760891 0.054412 0.054902
0.859498 0.065687 0.058824
0.007843 0.141667 0.207843
0.015686 0.140732 0.219255
0.058579 0.136305 0.248530
0.289737 0.107062 0.208732
0.401961 0.095343 0.123591
0.529534 0.108103 0.084605
0.662378 0.118628 0.078922
0.787821 0.130836 0.078922
0.892157 0.147917 0.081863
0.017157 0.222488 0.189277
0.029167 0.231863 0.206802
0.117417 0.243627 0.229350
0.254113 0.250207 0.247702
0.431127 0.244853 0.217433
0.587255 0.233762 0.179496
0.723529 0.223913 0.148897
0.851287 0.250000 0.147059
0.955392 0.294117 0.151961
0.011765 0.357353 0.211765
0.048866 0.375000 0.238726
0.147059 0.389706 0.257292
0.278156 0.412714 0.272120
0.444731 0.424755 0.264215
0.661765 0.419608 0.237224
0.804902 0.429473 0.264706
0.928431 0.450582 0.284804
0.988235 0.471814 0.303186
0.026471 0.502451 0.248958
0.078921 0.523039 0.277520
0.171569 0.539568 0.298652
0.326876 0.569669 0.312661
0.471599 0.591697 0.314737
0.635149 0.607927 0.286190
0.813848 0.606434 0.280883
0.960110 0.611466 0.292448
0.988235 0.620650 0.330331
0.059804 0.639706 0.306250
0.107230 0.658333 0.332889
0.230882 0.678431 0.348866
0.385846 0.705392 0.359727
0.511949 0.724510 0.367892
0.639338 0.751471 0.333823
0.785294 0.758303 0.299540
0.926348 0.750888 0.320374
0.973407 0.757843 0.347549
0.087072 0.769608 0.367341
0.174671 0.788725 0.382736
0.286887 0.823177 0.384130
0.430392 0.846860 0.393428
0.549510 0.858824 0.402451
0.657353 0.872549 0.391850
0.781373 0.883824 0.362699
0.911458 0.880392 0.316016
0.960784 0.876471 0.370588
0.164706 0.892647 0.407353
0.230393 0.900184 0.417340
0.326716 0.932720 0.409804
0.472549 0.945098 0.424571
0.585539 0.952941 0.436029
0.688235 0.960784 0.432414
0.796446 0.965686 0.408823
0.911275 0.972549 0.394118
0.960784 0.964706 0.390196
0.007843 0.092157 0.529411
0.011765 0.089951 0.544853
0.074510 0.087255 0.566176
0.362255 0.056128 0.509314
0.550000 0.043137 0.329412
0.618627 0.037255 0.194853
0.703431 0.039216 0.112745
0.797549 0.043137 0.086029
0.884313 0.047059 0.074510
0.007843 0.119118 0.444608
0.011765 0.115196 0.460294
0.045404 0.098775 0.494608
0.291023 0.057016 0.487347
0.525980 0.048039 0.320711
0.618229 0.042892 0.199510
0.717647 0.044853 0.124265
0.819332 0.050766 0.105392
0.909558 0.061765 0.095588
0.007843 0.167647 0.344118
0.015196 0.167647 0.363235
0.031250 0.166666 0.406005
0.195282 0.135539 0.456740
0.500000 0.095098 0.325980
0.609681 0.102328 0.222794
0.711765 0.112745 0.151470
0.821078 0.129718 0.132966
0.916667 0.149019 0.129412
0.007843 0.258334 0.317647
0.015686 0.272396 0.340778
0.052451 0.283824 0.366054
0.169271 0.285080 0.410294
0.470466 0.253309 0.355637
0.594853 0.247028 0.268168
0.719669 0.241605 0.224020
0.839798 0.271078 0.201225
0.938970 0.315196 0.205147
0.011765 0.377451 0.325490
0.028554 0.394118 0.350613
0.108333 0.412745 0.377451
0.249387 0.432966 0.410294
0.438235 0.443137 0.432353
0.625981 0.447059 0.411275
0.767892 0.454167 0.392892
0.890931 0.471079 0.382353
0.978432 0.496079 0.387255
0.017157 0.536030 0.375490
0.071170 0.557843 0.405729
0.169608 0.572978 0.430821
0.312316 0.583854 0.450215
0.480270 0.601716 0.467157
0.631801 0.619118 0.450674
0.814093 0.618199 0.454106
0.939798 0.628431 0.478523
0.988235 0.639951 0.495588
0.052451 0.675490 0.427451
0.107230 0.692892 0.454412
0.229780 0.698529 0.469240
0.375735 0.710662 0.485294
0.526225 0.731372 0.499020
0.642157 0.751471 0.491605
0.779902 0.765319 0.461274
0.926838 0.759988 0.475490
0.979412 0.765686 0.490686
0.093873 0.798284 0.475000
0.187745 0.812194 0.490441
0.279044 0.828002 0.504412
0.410631 0.850490 0.504412
0.559314 0.864706 0.520833
0.667647 0.872396 0.525092
0.777451 0.883946 0.503002
0.905637 0.884038 0.468015
0.962500 0.879902 0.503922
0.170588 0.907843 0.513726
0.238236 0.915441 0.528922
0.318137 0.924510 0.535294
0.443628 0.949020 0.525490
0.592157 0.956863 0.546079
0.697304 0.960784 0.552941
0.796079 0.968627 0.538235
0.903922 0.972549 0.519118
0.960784 0.964706 0.511765
0.007843 0.119118 0.668627
0.011765 0.119118 0.683823
0.041667 0.123039 0.710171
0.164706 0.110294 0.707414
0.557598 0.066177 0.590196
0.717157 0.054902 0.421017
0.795588 0.048529 0.296569
0.874693 0.048529 0.209314
0.951961 0.050980 0.161765
0.007843 0.145895 0.589216
0.011765 0.140870 0.607023
0.021584 0.131373 0.636397
0.130568 0.110294 0.667088
0.519363 0.070098 0.588970
0.718145 0.060225 0.430752
0.814093 0.056327 0.317999
0.898491 0.056189 0.242915
0.965993 0.058824 0.208027
0.007843 0.194608 0.497182
0.011765 0.198162 0.519286
0.019608 0.197549 0.559191
0.103845 0.186642 0.614445
0.461642 0.117708 0.600735
0.703922 0.102941 0.444960
0.803676 0.113817 0.343536
0.892157 0.125613 0.281418
0.967279 0.141177 0.258823
0.007843 0.297549 0.461336
0.015686 0.309314 0.483892
0.027022 0.318995 0.513588
0.106924 0.317157 0.562745
0.375674 0.284314 0.617433
0.680882 0.255392 0.474449
0.782736 0.267157 0.387868
0.884314 0.268804 0.341177
0.970649 0.299510 0.326593
0.011765 0.417892 0.461520
0.015686 0.438235 0.490441
0.066177 0.454657 0.519363
0.169393 0.472059 0.551471
0.363358 0.476961 0.599510
0.651777 0.452757 0.537132
0.763481 0.463051 0.470159
0.877604 0.482659 0.447304
0.964706 0.507844 0.445588
0.011765 0.550000 0.482782
0.047549 0.569539 0.511941
0.121369 0.587822 0.539706
0.265257 0.608617 0.574510
0.449295 0.623499 0.604841
0.628569 0.629389 0.615081
0.784375 0.634344 0.599924
0.903546 0.642647 0.589216
0.980392 0.654412 0.589216
0.036887 0.700000 0.539706
0.093015 0.718719 0.566743
0.209712 0.733854 0.593627
0.326562 0.740809 0.614706
0.505637 0.743627 0.626164
0.653922 0.755162 0.637623
0.777451 0.771415 0.615931
0.930254 0.770711 0.623407
0.984314 0.776838 0.644485
0.075307 0.834620 0.601164
0.166973 0.845810 0.617647
0.269792 0.850490 0.626946
0.382177 0.857782 0.633823
0.537653 0.869363 0.634161
0.679894 0.876279 0.649203
0.780393 0.883824 0.643766
0.899839 0.888174 0.611972
0.965993 0.883824 0.637255
0.147549 0.930882 0.637255
0.222365 0.934804 0.648529
0.310416 0.937255 0.652941
0.422549 0.950552 0.660233
0.567157 0.960784 0.649020
0.706372 0.963174 0.667708
0.801103 0.968627 0.667647
0.899510 0.972549 0.646385
0.964706 0.968627 0.633333
0.007843 0.150000 0.796079
0.011765 0.150000 0.811397
0.018627 0.157108 0.835049
0.118627 0.158211 0.854289
0.422059 0.126471 0.812255
0.733823 0.075490 0.669731
0.868627 0.067647 0.517892
0.955392 0.067157 0.415564
0.972549 0.059804 0.356863
0.007843 0.173039 0.720098
0.011765 0.169117 0.735723
0.019363 0.165196 0.764154
0.091667 0.154779 0.804412
0.364767 0.132291 0.800245
0.726394 0.081955 0.684436
0.884313 0.075368 0.542402
0.966054 0.075475 0.446446
0.976471 0.071446 0.391667
0.007843 0.221568 0.635294
0.011765 0.226134 0.657383
0.019608 0.228677 0.695098
0.079412 0.226593 0.749020
0.285907 0.196079 0.786765
0.697549 0.119700 0.707353
0.874265 0.115993 0.561765
0.964246 0.133333 0.473530
0.980392 0.145098 0.432353
0.007843 0.328431 0.593137
0.014874 0.340012 0.614032
0.019608 0.347763 0.648989
0.087623 0.350858 0.701471
0.245221 0.339216 0.763971
0.652482 0.282782 0.747319
0.856771 0.279412 0.602329
0.953309 0.304718 0.518995
0.976471 0.321936 0.491177
0.009804 0.456373 0.593137
0.015686 0.473958 0.622059
0.040074 0.489216 0.649020
0.120711 0.503554 0.681863
0.299265 0.508824 0.739216
0.583946 0.469424 0.790258
0.831985 0.464706 0.659804
0.929228 0.477941 0.583517
0.975491 0.493137 0.563235
0.011765 0.584314 0.610294
0.019730 0.603799 0.640074
0.098131 0.623284 0.670864
0.235294 0.642157 0.702941
0.389645 0.651961 0.729534
0.573039 0.653922 0.766605
0.800368 0.634804 0.701991
0.896079 0.642080 0.649648
0.971446 0.661274 0.642647
0.015686 0.711764 0.640441
0.066943 0.730024 0.664584
0.169363 0.743076 0.690196
0.293413 0.756281 0.715165
0.456863 0.766054 0.736642
0.630882 0.773529 0.753738
0.774448 0.777451 0.758456
0.906617 0.777543 0.748897
0.979412 0.788235 0.749265
0.058334 0.845098 0.691054
0.114660 0.856863 0.713343
0.238971 0.871293 0.733885
0.346216 0.877007 0.751486
0.499020 0.880882 0.760907
0.661765 0.883870 0.761765
0.791544 0.887746 0.772579
0.896063 0.892095 0.750429
0.973407 0.891667 0.761642
0.093137 0.941176 0.740196
0.185662 0.949020 0.759314
0.284314 0.952941 0.772304
0.382843 0.956863 0.777083
0.543137 0.960784 0.776471
0.691544 0.968627 0.772059
0.814951 0.969362 0.784313
0.899510 0.973897 0.773039
0.968627 0.973529 0.757843
0.007843 0.172549 0.878431
0.011765 0.168627 0.878431
0.018627 0.168627 0.878431
0.089522 0.168627 0.880208
0.296324 0.154902 0.870833
0.671569 0.126655 0.882843
0.888235 0.093260 0.770221
0.964706 0.082843 0.636336
0.972549 0.078431 0.559804
0.007843 0.203922 0.837806
0.011765 0.200000 0.853056
0.018627 0.196997 0.875169
0.068160 0.181457 0.882782
0.235049 0.166666 0.876685
0.657843 0.138128 0.886765
0.897380 0.102068 0.798162
0.965135 0.093314 0.668137
0.972549 0.086704 0.594608
0.007843 0.252451 0.756495
0.011765 0.259314 0.779581
0.019608 0.263235 0.813940
0.060478 0.264139 0.865426
0.187194 0.246078 0.891422
0.616927 0.190012 0.894164
0.885263 0.137255 0.824908
0.965196 0.140426 0.695098
0.975981 0.164706 0.628922
0.007843 0.355392 0.713051
0.011765 0.369034 0.735822
0.019608 0.378339 0.770956
0.072243 0.382843 0.823713
0.190931 0.378094 0.882905
0.535355 0.331372 0.909873
0.866759 0.298974 0.863802
0.968627 0.314522 0.738013
0.976471 0.341483 0.682047
0.007843 0.488725 0.709559
0.015686 0.506128 0.736550
0.024510 0.519608 0.765380
0.110294 0.533640 0.804228
0.268505 0.535539 0.858578
0.492739 0.517892 0.923039
0.830515 0.464215 0.912990
0.968903 0.482813 0.780116
0.976471 0.507598 0.735784
0.014032 0.618137 0.728921
0.038993 0.637745 0.759643
0.114215 0.656372 0.790196
0.221140 0.669118 0.816238
0.337592 0.676869 0.842647
0.521009 0.673729 0.883824
0.760953 0.637255 0.922488
0.954948 0.638565 0.803638
0.975184 0.658149 0.772549
0.020834 0.737745 0.748039
0.075000 0.756863 0.775199
0.174602 0.771323 0.800613
0.279396 0.780883 0.823575
0.409314 0.786949 0.842647
0.584850 0.792157 0.860295
0.739706 0.792861 0.884835
0.917448 0.777022 0.830331
0.972672 0.785294 0.803799
0.035294 0.852941 0.778432
0.086589 0.865027 0.798353
0.207460 0.876027 0.817478
0.317486 0.882698 0.835187
0.447304 0.887746 0.848560
0.627145 0.891667 0.861849
0.780944 0.892969 0.871691
0.892961 0.895964 0.872817
0.976471 0.899510 0.871630
0.070588 0.945098 0.812745
0.131372 0.949020 0.824019
0.250858 0.955882 0.840074
0.356189 0.960784 0.855699
0.493627 0.964706 0.873039
0.665686 0.968627 0.881189
0.808701 0.972549 0.880269
0.910784 0.976471 0.887746
0.972549 0.976471 0.872059
0.007843 0.176471 0.886275
0.011765 0.172549 0.886275
0.018627 0.172549 0.886275
0.072549 0.172549 0.890196
0.223529 0.162745 0.882353
0.630392 0.135784 0.894118
0.881373 0.109804 0.910784
0.961274 0.105392 0.833333
0.968627 0.094118 0.737255
0.007843 0.218628 0.890196
0.011765 0.211704 0.890196
0.018627 0.203922 0.890196
0.052941 0.187255 0.890196
0.186765 0.172304 0.887990
0.615196 0.147549 0.897733
0.886764 0.121201 0.915563
0.968627 0.116728 0.868627
0.972549 0.105882 0.775981
0.007843 0.279412 0.852941
0.011765 0.287255 0.873407
0.019608 0.287990 0.890196
0.050123 0.278431 0.894118
0.167157 0.258334 0.901471
0.560785 0.204289 0.903431
0.868628 0.166912 0.918627
0.968995 0.174510 0.899510
0.976471 0.174510 0.810785
0.007843 0.382353 0.809314
0.011765 0.394118 0.832353
0.019608 0.403799 0.870098
0.060784 0.408333 0.905331
0.172794 0.394608 0.908333
0.484865 0.355392 0.920098
0.840809 0.313236 0.932843
0.972549 0.325980 0.930882
0.980392 0.341667 0.855882
0.007843 0.513726 0.803922
0.015686 0.531127 0.830883
0.025000 0.542647 0.859314
0.118137 0.555392 0.899020
0.259804 0.552941 0.930392
0.458333 0.533824 0.942647
0.783334 0.480882 0.953431
0.972549 0.478922 0.952696
0.980392 0.498040 0.892157
0.057843 0.649020 0.825000
0.077267 0.664706 0.854596
0.120956 0.679412 0.881373
0.217218 0.689767 0.902880
0.322549 0.692157 0.927451
0.494117 0.685233 0.949571
0.713725 0.656372 0.956863
0.971262 0.626961 0.964706
0.980392 0.642647 0.909804
0.078431 0.765686 0.843137
0.101961 0.781250 0.866177
0.181618 0.792157 0.888481
0.275613 0.800000 0.907720
0.381863 0.800000 0.925000
0.551470 0.803922 0.942279
0.712745 0.800980 0.960049
0.915196 0.770098 0.968627
0.976471 0.777451 0.922549
0.041667 0.868138 0.847059
0.116115 0.879412 0.859253
0.212255 0.887746 0.877451
0.313725 0.891667 0.893934
0.424265 0.895589 0.911764
0.600490 0.899510 0.929106
0.751961 0.903064 0.945956
0.884314 0.907353 0.960784
0.976471 0.899510 0.929902
0.058824 0.949020 0.854902
0.116176 0.949020 0.866667
0.238235 0.956863 0.882353
0.343137 0.960784 0.898039
0.466666 0.964706 0.913725
0.646569 0.968627 0.929412
0.798039 0.972549 0.941176
0.911275 0.976471 0.949510
0.976471 0.980392 0.956863
