LUT/LumixLab/Rustic Sapphire.cube
TITLE "Generated by Resolve"
#LUMIXPHOTOSTYLE NAT
LUT_3D_SIZE 5
0.0164797 0.0167849 0.018677
0.212375 0.0413825 0.0377966
0.540902 0.0899825 0.0636301
0.796628 0.151141 0.100832
0.966049 0.193927 0.117784
0.0494392 0.218067 0.110155
0.258289 0.248249 0.0901656
0.569558 0.282734 0.0899977
0.823835 0.328099 0.119265
0.980575 0.360555 0.132403
0.0903334 0.486458 0.218326
0.142458 0.500832 0.185382
0.555901 0.550958 0.167361
0.830304 0.578134 0.134997
0.986801 0.599741 0.142947
0.116197 0.704051 0.270329
0.167941 0.708873 0.245243
0.442298 0.763699 0.210178
0.808194 0.804242 0.181964
0.986511 0.822309 0.164843
0.14583 0.882872 0.319371
0.208377 0.886336 0.302937
0.446632 0.921431 0.286
0.706188 0.972625 0.234272
0.992309 0.998703 0.246464
0.020264 0.0218814 0.20679
0.234012 0.0433204 0.278416
0.544793 0.0888685 0.273579
0.790661 0.148714 0.293507
0.970459 0.194705 0.311589
0.0263523 0.257465 0.309499
0.233188 0.264714 0.292042
0.52961 0.297719 0.273228
0.785733 0.351995 0.296315
0.976394 0.358404 0.315801
0.0796674 0.511498 0.344442
0.329503 0.510414 0.415808
0.598932 0.542763 0.357534
0.827848 0.572473 0.30193
0.987594 0.593622 0.303349
0.109224 0.727352 0.399039
0.33695 0.731334 0.444251
0.481666 0.761044 0.393256
0.809155 0.800504 0.38088
0.987137 0.821393 0.31313
0.142885 0.907012 0.455146
0.3187 0.918074 0.456001
0.48072 0.930694 0.422156
0.719966 0.979614 0.411276
0.993851 0.998947 0.401434
0.0412909 0.0493324 0.47985
0.232212 0.0679484 0.518959
0.565591 0.0940566 0.567025
0.823926 0.151705 0.578775
0.987884 0.192966 0.58967
0.0523995 0.26067 0.628489
0.181811 0.320592 0.523827
0.566949 0.282963 0.570916
0.812955 0.330434 0.566232
0.986099 0.3608 0.5879
0.0229191 0.569772 0.61857
0.281956 0.575677 0.659098
0.553384 0.562264 0.578851
0.797803 0.57731 0.566552
0.984298 0.593576 0.57998
0.0632334 0.769284 0.583276
0.306111 0.758022 0.608179
0.563424 0.761105 0.61706
0.805066 0.801968 0.609506
0.986786 0.821332 0.581811
0.105486 0.941787 0.626429
0.313893 0.943358 0.635264
0.573236 0.942443 0.651438
0.737179 0.962005 0.64387
0.993927 0.998505 0.620615
0.0783703 0.0991989 0.753017
0.261601 0.102846 0.727337
0.557061 0.123552 0.795804
0.836484 0.154223 0.844434
0.98999 0.187381 0.861646
0.0787976 0.284123 0.862318
0.197345 0.365896 0.710674
0.555596 0.30515 0.789899
0.832578 0.326375 0.843046
0.990509 0.355917 0.853223
0.0505531 0.579461 0.957885
0.23006 0.589746 0.892287
0.550637 0.593851 0.83035
0.811399 0.572091 0.827832
0.986709 0.592355 0.82977
0.028809 0.829664 0.878935
0.21001 0.827359 0.88426
0.545571 0.821546 0.861891
0.801785 0.812696 0.836912
0.984375 0.821378 0.833265
0.0690929 0.981537 0.81976
0.285542 0.978943 0.818357
0.557473 0.963531 0.820203
0.804181 0.978882 0.855619
0.993088 0.997696 0.852842
0.109712 0.138247 0.938979
0.298512 0.13431 0.900236
0.563287 0.14963 0.946273
0.834821 0.173953 0.987152
0.9906 0.187579 0.990875
0.0950027 0.303792 0.97821
0.318547 0.324392 0.974853
0.564843 0.329122 0.956191
0.829358 0.337942 0.991211
0.991104 0.357183 0.993286
0.059266 0.578119 0.99382
0.246983 0.580743 0.994018
0.587762 0.596277 0.992599
0.807202 0.578424 0.987778
0.987518 0.59176 0.995514
0.0423743 0.828519 0.995453
0.144076 0.834089 0.995773
0.549081 0.84448 0.996612
0.821439 0.832242 0.996292
0.987182 0.82121 0.997406
0.0494545 0.99678 0.99678
0.22887 0.997269 0.997269
0.505669 0.99794 0.998108
0.785443 0.997894 0.998917
0.993927 0.998795 0.999451
