LUT/LumixLab/Rustic Sapphire.cube
TITLE "Generated by Resolve"
#LUMIXPHOTOSTYLE NAT
LUT_3D_SIZE 9
0.0164797 0.0167849 0.018677
0.0575418 0.023621 0.0239109
0.212375 0.0413825 0.0377966
0.407126 0.062501 0.0486915
0.540902 0.0899825 0.0636301
0.669001 0.119432 0.0822614
0.796628 0.151141 0.100832
0.918914 0.182193 0.114366
0.966049 0.193927 0.117784
0.0280308 0.0761578 0.0434119
0.0891432 0.0873121 0.0426795
0.240574 0.106798 0.0462348
0.416739 0.120714 0.0549477
0.556313 0.145571 0.0718395
0.687724 0.175799 0.0899977
0.814038 0.207095 0.105791
0.933989 0.237995 0.117845
0.972366 0.248402 0.120775
0.0494392 0.218067 0.110155
0.0575418 0.220066 0.0942397
0.258289 0.248249 0.0901656
0.425681 0.262562 0.0747539
0.569558 0.282734 0.0899977
0.699916 0.304082 0.10576
0.823835 0.328099 0.119265
0.940871 0.352773 0.129488
0.980575 0.360555 0.132403
0.0692912 0.358404 0.170718
0.0744335 0.354864 0.155245
0.139025 0.384756 0.146014
0.419562 0.406882 0.136248
0.571679 0.423148 0.112367
0.702907 0.440986 0.117922
0.828214 0.457084 0.127062
0.942535 0.474739 0.135729
0.987488 0.480171 0.138872
0.0903334 0.486458 0.218326
0.0944381 0.480156 0.199374
0.142458 0.500832 0.185382
0.320653 0.532998 0.169726
0.555901 0.550958 0.167361
0.705394 0.565011 0.135225
0.830304 0.578134 0.134997
0.941985 0.594415 0.139513
0.986801 0.599741 0.142947
0.104891 0.600305 0.249226
0.110216 0.593103 0.227924
0.154742 0.607965 0.217365
0.301472 0.631205 0.20853
0.474266 0.668879 0.18352
0.683635 0.681086 0.180041
0.829221 0.694209 0.145556
0.947951 0.706432 0.148272
0.98613 0.712337 0.150225
0.116197 0.704051 0.270329
0.123812 0.696559 0.247883
0.167941 0.708873 0.245243
0.31487 0.730251 0.237919
0.442298 0.763699 0.210178
0.617975 0.797177 0.189578
0.808194 0.804242 0.181964
0.943191 0.817624 0.152316
0.986511 0.822309 0.164843
0.130144 0.803571 0.294209
0.144579 0.797894 0.275563
0.189639 0.80679 0.274708
0.326863 0.827756 0.269368
0.441352 0.85539 0.257084
0.5794 0.891676 0.22031
0.752529 0.913817 0.211902
0.925841 0.918624 0.20351
0.988617 0.925643 0.172198
0.14583 0.882872 0.319371
0.168246 0.882795 0.306828
0.208377 0.886336 0.302937
0.333745 0.900359 0.296071
0.446632 0.921431 0.286
0.561227 0.945052 0.255116
0.706188 0.972625 0.234272
0.8822 0.994873 0.242741
0.992309 0.998703 0.246464
0.0178378 0.0197452 0.0654307
0.0618448 0.023682 0.102632
0.214664 0.0409094 0.116381
0.399878 0.0608988 0.122942
0.531823 0.0878004 0.134096
0.659831 0.117769 0.149935
0.787839 0.149599 0.167559
0.910323 0.180529 0.181933
0.96611 0.194766 0.186526
0.0234531 0.0894484 0.151858
0.0709392 0.0982528 0.129686
0.205356 0.118364 0.121386
0.382345 0.1393 0.126452
0.531044 0.168536 0.144732
0.674052 0.188052 0.161654
0.803555 0.207782 0.176455
0.923613 0.237736 0.188754
0.969497 0.248768 0.191943
0.0480049 0.227268 0.168048
0.105867 0.2421 0.241215
0.304494 0.235309 0.175998
0.438727 0.254383 0.151324
0.563485 0.279316 0.161776
0.69192 0.302129 0.16936
0.818982 0.323049 0.178698
0.935485 0.347204 0.188739
0.978027 0.355581 0.191348
0.0708171 0.366964 0.221103
0.155764 0.385061 0.331579
0.261707 0.381994 0.269673
0.489525 0.391714 0.222324
0.583139 0.417685 0.1691
0.703883 0.436362 0.168719
0.826246 0.451362 0.17731
0.940185 0.46833 0.186023
0.987182 0.474739 0.189837
0.0914321 0.494636 0.267689
0.19292 0.506966 0.341161
0.211048 0.509117 0.29102
0.401465 0.533455 0.276799
0.60351 0.542443 0.25388
0.706065 0.563851 0.181506
0.82887 0.575463 0.177172
0.941878 0.589624 0.182086
0.987045 0.594232 0.187015
0.104829 0.608896 0.300359
0.147143 0.61059 0.295613
0.176837 0.614618 0.262226
0.314336 0.631876 0.249439
0.510948 0.668742 0.283162
0.699931 0.676829 0.269093
0.828397 0.693797 0.201678
0.947005 0.703685 0.187488
0.986267 0.709651 0.188907
0.116503 0.713191 0.324712
0.155184 0.714458 0.316518
0.182803 0.715404 0.28368
0.31957 0.731243 0.274479
0.451331 0.762783 0.268086
0.624491 0.796338 0.283162
0.808774 0.801938 0.275822
0.941543 0.816876 0.226734
0.986648 0.820798 0.206302
0.13077 0.812665 0.350881
0.16878 0.812665 0.340459
0.205325 0.813931 0.313329
0.325704 0.828733 0.302831
0.440299 0.855253 0.291173
0.588022 0.892332 0.293599
0.752453 0.915587 0.289845
0.924163 0.918257 0.278279
0.988876 0.925505 0.241199
0.146517 0.893416 0.378622
0.185214 0.895476 0.368078
0.224445 0.894026 0.340734
0.326513 0.902647 0.326375
0.441459 0.922423 0.314305
0.567544 0.947906 0.304829
0.712123 0.976761 0.311574
0.880095 0.995621 0.316106
0.993088 0.99884 0.317418
0.020264 0.0218814 0.20679
0.0627756 0.0271763 0.222797
0.234012 0.0433204 0.278416
0.419532 0.0618753 0.276875
0.544793 0.0888685 0.273579
0.666789 0.117388 0.2804
0.790661 0.148714 0.293507
0.909651 0.179126 0.305898
0.970459 0.194705 0.311589
0.0296178 0.0908827 0.301442
0.0577554 0.122377 0.248203
0.237064 0.10869 0.280522
0.410636 0.125261 0.263142
0.543389 0.15697 0.241154
0.673732 0.182727 0.272755
0.798474 0.208682 0.30132
0.917647 0.238727 0.313054
0.972473 0.25124 0.316777
0.0263523 0.257465 0.309499
0.0948806 0.26659 0.356878
0.233188 0.264714 0.292042
0.396551 0.27187 0.265904
0.52961 0.297719 0.273228
0.659251 0.324956 0.283696
0.785733 0.351995 0.296315
0.912703 0.369421 0.308782
0.976394 0.358404 0.315801
0.0518196 0.387533 0.311849
0.114824 0.413352 0.428733
0.269612 0.39263 0.352331
0.444221 0.40412 0.319509
0.578958 0.4177 0.295857
0.696391 0.435035 0.301167
0.810605 0.454582 0.308034
0.924987 0.472648 0.310796
0.984527 0.475059 0.308019
0.0796674 0.511498 0.344442
0.165835 0.52369 0.432563
0.329503 0.510414 0.415808
0.424567 0.528252 0.381491
0.598932 0.542763 0.357534
0.720531 0.556878 0.3037
0.827848 0.572473 0.30193
0.936233 0.587015 0.305089
0.987594 0.593622 0.303349
0.0953994 0.623972 0.373877
0.152667 0.625544 0.380209
0.351797 0.624002 0.447181
0.392615 0.634424 0.406653
0.539254 0.666835 0.386664
0.705669 0.675303 0.373205
0.83473 0.690654 0.307759
0.943297 0.702998 0.301961
0.986862 0.711009 0.300618
0.109224 0.727352 0.399039
0.154559 0.728023 0.395956
0.33695 0.731334 0.444251
0.373922 0.739223 0.404669
0.481666 0.761044 0.393256
0.632959 0.794568 0.39237
0.809155 0.800504 0.38088
0.940566 0.81529 0.330831
0.987137 0.821393 0.31313
0.125277 0.8262 0.426657
0.167712 0.826169 0.421683
0.31603 0.83093 0.43508
0.376364 0.838697 0.407736
0.480003 0.860319 0.404273
0.602167 0.888731 0.408408
0.752895 0.915801 0.400366
0.921218 0.916594 0.38761
0.989288 0.924483 0.346014
0.142885 0.907012 0.455146
0.185061 0.909621 0.450614
0.3187 0.918074 0.456001
0.380209 0.918639 0.426139
0.48072 0.930694 0.422156
0.581811 0.947097 0.409232
0.719966 0.979614 0.411276
0.879179 0.996551 0.402304
0.993851 0.998947 0.401434
0.0281834 0.0318303 0.340627
0.076936 0.0385901 0.348898
0.228305 0.0556497 0.408301
0.423941 0.0652934 0.427283
0.562524 0.0905776 0.426352
0.68748 0.120455 0.428214
0.807294 0.150317 0.435111
0.921386 0.17937 0.444755
0.978012 0.193515 0.449393
0.0390021 0.104372 0.439948
0.0593118 0.149111 0.340398
0.228168 0.121324 0.40499
0.421408 0.123888 0.426505
0.565835 0.14873 0.430137
0.689662 0.181674 0.429892
0.80853 0.209247 0.440375
0.922469 0.238376 0.450217
0.980621 0.251987 0.45536
0.0404212 0.25893 0.499962
0.0753185 0.27451 0.462516
0.213031 0.292271 0.43328
0.417121 0.265675 0.423865
0.560327 0.281743 0.426352
0.677791 0.312673 0.392477
0.802853 0.335409 0.387671
0.919554 0.355489 0.419074
0.979263 0.360555 0.454948
0.0229191 0.421057 0.470512
0.108858 0.429252 0.54432
0.267063 0.430716 0.494423
0.41146 0.421286 0.439643
0.543709 0.430549 0.418524
0.668391 0.446525 0.422446
0.7879 0.464851 0.429114
0.907103 0.480613 0.436255
0.982116 0.476661 0.449165
0.0469978 0.53698 0.456153
0.131258 0.551888 0.54815
0.274998 0.54136 0.520531
0.426612 0.528466 0.494392
0.571618 0.548547 0.465126
0.698146 0.562036 0.438407
0.812772 0.573587 0.441962
0.922942 0.587396 0.446006
0.986328 0.592813 0.445518
0.0695811 0.644327 0.46804
0.157519 0.647349 0.50367
0.323156 0.637507 0.523262
0.449058 0.637919 0.508247
0.529427 0.657465 0.501106
0.695109 0.677928 0.483009
0.827893 0.689738 0.441978
0.934417 0.702205 0.44184
0.986801 0.709392 0.444327
0.0874952 0.745937 0.485634
0.145556 0.746532 0.488136
0.327642 0.742107 0.521355
0.453269 0.742031 0.525505
0.520424 0.758129 0.507073
0.639521 0.788128 0.504829
0.806027 0.800748 0.495399
0.938247 0.813931 0.451606
0.987076 0.820722 0.446769
0.107393 0.844022 0.51342
0.161715 0.844266 0.51313
0.313634 0.842786 0.522255
0.449912 0.845106 0.536706
0.518395 0.860319 0.521645
0.615091 0.880903 0.520302
0.751873 0.913039 0.519265
0.917693 0.91516 0.506844
0.989181 0.923049 0.471031
0.129122 0.923659 0.541192
0.180819 0.926696 0.541604
0.317357 0.929702 0.545907
0.452506 0.932677 0.555047
0.520562 0.935668 0.536965
0.612284 0.946349 0.532815
0.729931 0.973968 0.536431
0.877592 0.996536 0.513024
0.994278 0.998886 0.498466
0.0412909 0.0493324 0.47985
0.0967575 0.0563516 0.482795
0.232212 0.0679484 0.518959
0.413077 0.078996 0.547875
0.565591 0.0940566 0.567025
0.699489 0.121401 0.573327
0.823926 0.151705 0.578775
0.938201 0.180865 0.586526
0.987884 0.192966 0.58967
0.0502785 0.121981 0.570001
0.0821393 0.170672 0.474372
0.215747 0.153246 0.520912
0.414054 0.138247 0.549096
0.569757 0.152285 0.572763
0.704814 0.17998 0.580026
0.826383 0.210163 0.584131
0.937453 0.2392 0.590234
0.988769 0.251194 0.593973
0.0523995 0.26067 0.628489
0.0849928 0.289631 0.559304
0.181811 0.320592 0.523827
0.412833 0.272602 0.547478
0.566949 0.282963 0.570916
0.700618 0.301305 0.577951
0.812955 0.330434 0.566232
0.923049 0.355535 0.566445
0.986099 0.3608 0.5879
0.0388342 0.426642 0.673274
0.0658885 0.432807 0.662272
0.236744 0.44303 0.627649
0.419486 0.437491 0.583886
0.557443 0.427146 0.555291
0.689113 0.435798 0.571191
0.799191 0.456916 0.551949
0.914137 0.47332 0.549691
0.984619 0.478187 0.581552
0.0229191 0.569772 0.61857
0.110597 0.577386 0.684565
0.281956 0.575677 0.659098
0.423728 0.569924 0.612207
0.553384 0.562264 0.578851
0.665278 0.573129 0.550317
0.797803 0.57731 0.566552
0.914244 0.588434 0.569528
0.984298 0.593576 0.57998
0.0463417 0.671031 0.580758
0.139071 0.67364 0.627024
0.281559 0.664347 0.620386
0.421454 0.657435 0.599664
0.557336 0.656565 0.637018
0.69453 0.678111 0.601526
0.812329 0.692836 0.574578
0.923354 0.702098 0.580758
0.985763 0.708431 0.583703
0.0632334 0.769284 0.583276
0.133837 0.767697 0.590997
0.306111 0.758022 0.608179
0.443015 0.751385 0.604028
0.563424 0.761105 0.61706
0.638804 0.780484 0.648768
0.805066 0.801968 0.609506
0.930617 0.814359 0.583719
0.986786 0.821332 0.581811
0.0834363 0.864317 0.602533
0.152972 0.863798 0.607538
0.304906 0.857359 0.61207
0.447669 0.854612 0.620768
0.565774 0.856138 0.629007
0.643519 0.875593 0.628382
0.757275 0.905608 0.63447
0.914702 0.915297 0.624079
0.988907 0.922744 0.591318
0.105486 0.941787 0.626429
0.175265 0.945205 0.633005
0.313893 0.943358 0.635264
0.45124 0.94258 0.64271
0.573236 0.942443 0.651438
0.643442 0.946166 0.64303
0.737179 0.962005 0.64387
0.876295 0.995743 0.635111
0.993927 0.998505 0.620615
0.0589456 0.0733959 0.619333
0.116533 0.078706 0.613748
0.243427 0.0843366 0.622553
0.411124 0.0917983 0.655207
0.558297 0.108858 0.687541
0.703227 0.124178 0.707317
0.832547 0.152331 0.717098
0.951186 0.180621 0.726146
0.98967 0.190433 0.72932
0.0638285 0.140307 0.691386
0.107164 0.189105 0.620401
0.230182 0.172168 0.640909
0.41033 0.158465 0.651423
0.564126 0.16585 0.693156
0.70811 0.184161 0.714031
0.8365 0.211154 0.722896
0.952026 0.23917 0.729442
0.991608 0.248905 0.732219
0.0650492 0.270573 0.748028
0.10457 0.295247 0.700084
0.176806 0.345861 0.606729
0.355825 0.326772 0.70454
0.56231 0.28986 0.692607
0.703487 0.30428 0.710719
0.830167 0.324163 0.717479
0.941253 0.348775 0.719295
0.989944 0.358129 0.721599
0.0573281 0.426795 0.79736
0.0828717 0.437659 0.772931
0.220951 0.457237 0.712612
0.384848 0.466972 0.681453
0.554314 0.429435 0.68452
0.692958 0.436591 0.703182
0.818372 0.448554 0.708202
0.92372 0.468345 0.702312
0.988449 0.476081 0.709224
0.0323796 0.578515 0.838972
0.0435645 0.581125 0.830045
0.229435 0.580591 0.805447
0.41825 0.584436 0.767987
0.563043 0.575784 0.716686
0.682063 0.571038 0.652644
0.807385 0.572473 0.702312
0.9131 0.587228 0.696284
0.986191 0.595041 0.705928
0.0246891 0.703777 0.7523
0.0899214 0.704616 0.774441
0.25803 0.703075 0.77554
0.423453 0.702907 0.758511
0.553262 0.696086 0.730785
0.680385 0.690974 0.71342
0.79237 0.699779 0.678569
0.915221 0.702647 0.704997
0.983444 0.70956 0.710231
0.0442359 0.797192 0.707485
0.122332 0.792691 0.709789
0.27538 0.783597 0.708354
0.419348 0.775509 0.699779
0.551614 0.77467 0.699748
0.683146 0.779721 0.768063
0.808988 0.802136 0.735775
0.921584 0.815396 0.707256
0.986206 0.820798 0.713008
0.0645151 0.889296 0.701045
0.138842 0.885237 0.702663
0.279149 0.877623 0.705638
0.434607 0.865492 0.704341
0.563348 0.864134 0.711788
0.684138 0.880247 0.734646
0.767208 0.899382 0.738262
0.913039 0.916671 0.734691
0.988663 0.923903 0.713024
0.0842298 0.961563 0.718288
0.164446 0.9635 0.723537
0.305409 0.956985 0.72343
0.442786 0.954162 0.72752
0.572137 0.950408 0.73579
0.688334 0.959075 0.752209
0.764508 0.965805 0.749859
0.877684 0.992355 0.753002
0.993408 0.998016 0.740536
0.0783703 0.0991989 0.753017
0.13341 0.101457 0.735744
0.261601 0.102846 0.727337
0.412604 0.108141 0.7561
0.557061 0.123552 0.795804
0.699611 0.139101 0.826581
0.836484 0.154223 0.844434
0.958129 0.180758 0.857053
0.98999 0.187381 0.861646
0.0792554 0.160449 0.810468
0.131914 0.204959 0.759747
0.254948 0.187915 0.754604
0.414878 0.180972 0.753368
0.561379 0.185611 0.796536
0.70396 0.195468 0.831556
0.839887 0.213886 0.849027
0.959472 0.240146 0.859785
0.991714 0.246494 0.8636
0.0787976 0.284123 0.862318
0.124865 0.300206 0.836591
0.197345 0.365896 0.710674
0.332296 0.352483 0.798337
0.555596 0.30515 0.789899
0.699016 0.310491 0.828626
0.832578 0.326375 0.843046
0.950057 0.347906 0.850904
0.990509 0.355917 0.853223
0.0698863 0.429374 0.912627
0.0991379 0.437446 0.899107
0.232486 0.468849 0.806348
0.369345 0.487205 0.772564
0.533959 0.465217 0.816175
0.689723 0.439506 0.820645
0.820569 0.4495 0.832471
0.936599 0.464286 0.838102
0.988403 0.471489 0.839475
0.0505531 0.579461 0.957885
0.0623331 0.582513 0.947066
0.23006 0.589746 0.892287
0.409476 0.59353 0.867811
0.550637 0.593851 0.83035
0.68101 0.566964 0.812085
0.811399 0.572091 0.827832
0.926207 0.582971 0.830457
0.986709 0.592355 0.82977
0.0273136 0.720058 0.962554
0.0373388 0.719905 0.962051
0.192233 0.714916 0.959442
0.406867 0.713436 0.930556
0.560769 0.712291 0.891035
0.692561 0.703517 0.842115
0.805554 0.695689 0.800732
0.918685 0.700923 0.82887
0.985809 0.71043 0.828717
0.028809 0.829664 0.878935
0.0828717 0.825986 0.877531
0.21001 0.827359 0.88426
0.401038 0.822858 0.873075
0.545571 0.821546 0.861891
0.676417 0.818326 0.849287
0.801785 0.812696 0.836912
0.913664 0.815961 0.82826
0.984375 0.821378 0.833265
0.049073 0.918044 0.838514
0.122835 0.910643 0.830182
0.252247 0.904097 0.823896
0.411368 0.893202 0.808362
0.54844 0.887877 0.807187
0.677272 0.890608 0.81886
0.800107 0.901244 0.844678
0.913344 0.918471 0.845243
0.988434 0.92517 0.833417
0.0690929 0.981537 0.81976
0.151019 0.981613 0.820111
0.285542 0.978943 0.818357
0.419577 0.973571 0.818387
0.557473 0.963531 0.820203
0.685054 0.966857 0.834424
0.804181 0.978882 0.855619
0.88426 0.988327 0.857359
0.993088 0.997696 0.852842
0.097673 0.124025 0.876295
0.154742 0.124163 0.850156
0.282856 0.12166 0.83328
0.420996 0.127337 0.854932
0.559426 0.139223 0.894057
0.697108 0.154818 0.927916
0.836149 0.167819 0.953353
0.961898 0.182208 0.969696
0.990326 0.186648 0.973175
0.0956741 0.182452 0.921752
0.159869 0.210086 0.889113
0.284871 0.201389 0.859525
0.426993 0.198383 0.853712
0.561044 0.204135 0.889067
0.70135 0.212665 0.929015
0.838666 0.224216 0.955901
0.963516 0.242741 0.97171
0.991836 0.247013 0.976516
0.092546 0.298024 0.9617
0.145693 0.306905 0.951766
0.248417 0.372839 0.840421
0.374136 0.348714 0.914244
0.54696 0.329015 0.878721
0.694621 0.323613 0.921828
0.83035 0.333028 0.949645
0.95285 0.350408 0.962493
0.990738 0.356451 0.966842
0.0780804 0.434379 0.975723
0.114214 0.443366 0.976791
0.262242 0.472404 0.918059
0.365972 0.503578 0.859525
0.493782 0.493462 0.944869
0.68481 0.448066 0.910887
0.817746 0.452445 0.940536
0.938445 0.466285 0.949599
0.988602 0.471458 0.954849
0.0567941 0.578943 0.985702
0.0766461 0.58204 0.985397
0.245838 0.591089 0.982513
0.401923 0.603433 0.949981
0.537163 0.612772 0.93135
0.676143 0.586557 0.916213
0.808713 0.57435 0.933623
0.92903 0.5832 0.942687
0.986923 0.590723 0.945815
0.0368505 0.712993 0.989654
0.0475929 0.714137 0.98967
0.189837 0.715038 0.989776
0.386419 0.716426 0.985351
0.553033 0.723171 0.983581
0.689845 0.717571 0.958862
0.802289 0.69546 0.927062
0.923247 0.700267 0.941054
0.986084 0.707835 0.942214
0.0404364 0.843061 0.9906
0.0540627 0.842695 0.990616
0.162844 0.841123 0.990921
0.371435 0.834119 0.987945
0.548913 0.841932 0.988205
0.692241 0.834821 0.987488
0.813504 0.825422 0.949996
0.918303 0.81442 0.941283
0.986496 0.820935 0.940383
0.0432441 0.950149 0.988571
0.0919509 0.94522 0.987701
0.210346 0.943572 0.98764
0.369818 0.939483 0.981735
0.527199 0.942626 0.979736
0.668498 0.935485 0.967712
0.797513 0.93138 0.958663
0.914931 0.923812 0.945037
0.987747 0.925597 0.942611
0.0539406 0.996262 0.964675
0.127962 0.996094 0.95462
0.253193 0.995483 0.944884
0.401282 0.993454 0.933608
0.528161 0.992874 0.927306
0.667491 0.99057 0.927993
0.795407 0.989654 0.935393
0.912993 0.991684 0.949355
0.993317 0.998001 0.951965
0.109712 0.138247 0.938979
0.170779 0.137881 0.916075
0.298512 0.13431 0.900236
0.429435 0.140551 0.915221
0.563287 0.14963 0.946273
0.700114 0.16141 0.971511
0.834821 0.173953 0.987152
0.961868 0.187793 0.990494
0.9906 0.187579 0.990875
0.103944 0.195239 0.964965
0.180179 0.213428 0.964431
0.312932 0.209186 0.934585
0.436652 0.213779 0.929549
0.56405 0.217594 0.951843
0.702647 0.223987 0.980987
0.837598 0.230289 0.990112
0.962997 0.246265 0.992004
0.991882 0.248722 0.992142
0.0950027 0.303792 0.97821
0.154604 0.313649 0.979156
0.318547 0.324392 0.974853
0.447883 0.327626 0.960327
0.564843 0.329122 0.956191
0.694362 0.332631 0.977707
0.829358 0.337942 0.991211
0.95259 0.352178 0.993072
0.991104 0.357183 0.993286
0.0801099 0.43827 0.990051
0.12166 0.447303 0.991119
0.289235 0.44654 0.98587
0.45034 0.457115 0.992264
0.575372 0.456916 0.979873
0.685878 0.4533 0.9729
0.819547 0.454154 0.992782
0.940902 0.464729 0.994186
0.98909 0.472435 0.994415
0.059266 0.578119 0.99382
0.0813611 0.581918 0.993866
0.246983 0.580743 0.994018
0.431571 0.583276 0.992477
0.587762 0.596277 0.992599
0.694575 0.584833 0.98471
0.807202 0.578424 0.987778
0.929015 0.584482 0.995209
0.987518 0.59176 0.995514
0.0388342 0.71252 0.994644
0.0500954 0.714076 0.994659
0.195285 0.715297 0.99501
0.411063 0.712428 0.995315
0.574075 0.720943 0.994263
0.708553 0.718914 0.994141
0.802426 0.699702 0.983398
0.922118 0.702541 0.995438
0.986694 0.708751 0.996567
0.0423743 0.828519 0.995453
0.0524453 0.829648 0.995468
0.144076 0.834089 0.995773
0.365866 0.832807 0.996323
0.549081 0.84448 0.996612
0.697078 0.837842 0.996094
0.821439 0.832242 0.996292
0.91606 0.817197 0.994583
0.987182 0.82121 0.997406
0.0445563 0.947005 0.996292
0.0703441 0.947066 0.996353
0.182208 0.947921 0.996704
0.353704 0.947387 0.997192
0.51368 0.962753 0.997833
0.670069 0.950561 0.998154
0.807797 0.940948 0.998489
0.923934 0.932906 0.998596
0.98941 0.925353 0.998444
0.0494545 0.99678 0.99678
0.110018 0.996933 0.996933
0.22887 0.997269 0.997269
0.383246 0.997681 0.997681
0.505669 0.99794 0.998108
0.643946 0.998047 0.99852
0.785443 0.997894 0.998917
0.908568 0.998474 0.999313
0.993927 0.998795 0.999451
