LUT/LumixLab/Rustic Sapphire.cube
TITLE "Generated by Resolve"
#LUMIXPHOTOSTYLE NAT
LUT_3D_SIZE 33
0.0164797 0.0167849 0.018677
0.0196689 0.0173648 0.0191501
0.0274968 0.0187839 0.0204776
0.0391089 0.0208286 0.022034
0.0575418 0.023621 0.0239109
0.0871901 0.0269322 0.0274662
0.121706 0.0316777 0.030808
0.162417 0.0367437 0.0348058
0.212375 0.0413825 0.0377966
0.268956 0.0448768 0.0393683
0.323781 0.0491493 0.0411078
0.368856 0.0554665 0.0447852
0.407126 0.062501 0.0486915
0.442741 0.069398 0.0524758
0.476417 0.0761883 0.0561685
0.508888 0.0829328 0.0597848
0.540902 0.0899825 0.0636301
0.572793 0.0970779 0.0678264
0.604761 0.104356 0.0724193
0.636805 0.111788 0.0772717
0.669001 0.119432 0.0822614
0.701335 0.12726 0.0872053
0.73312 0.135119 0.0918441
0.764874 0.143099 0.0964828
0.796628 0.151141 0.100832
0.827665 0.159075 0.104967
0.858701 0.166842 0.108476
0.889036 0.174548 0.111543
0.918914 0.182193 0.114366
0.948302 0.189502 0.116732
0.955184 0.191165 0.117174
0.960571 0.192523 0.117479
0.966049 0.193927 0.117784
0.0195163 0.0250553 0.024033
0.0222019 0.0243534 0.022858
0.0300908 0.0264591 0.0224308
0.0421912 0.0287175 0.0235904
0.0617075 0.0314183 0.0249485
0.0901808 0.0336004 0.0289158
0.124651 0.0376898 0.0323491
0.164645 0.0420386 0.0360571
0.212955 0.0458839 0.0386511
0.268376 0.0488441 0.0399786
0.322805 0.0529488 0.041413
0.367651 0.0593271 0.0450294
0.405829 0.0663005 0.0486915
0.441047 0.0729686 0.0523842
0.474601 0.0795453 0.0560464
0.507729 0.0864118 0.0598001
0.540368 0.0934768 0.0637217
0.572732 0.100587 0.0679942
0.604883 0.107744 0.0726024
0.637034 0.115099 0.0774701
0.6692 0.122637 0.082475
0.701457 0.130373 0.0873732
0.733211 0.138201 0.0919966
0.76495 0.146242 0.0965896
0.796262 0.154299 0.100847
0.827344 0.162325 0.105028
0.858656 0.170413 0.108568
0.888884 0.178164 0.111543
0.918746 0.185885 0.114427
0.948028 0.193256 0.116793
0.955627 0.194858 0.117266
0.960998 0.196216 0.117556
0.966461 0.197604 0.117845
0.0225376 0.0366522 0.0311437
0.024979 0.0370336 0.0295262
0.0354162 0.037171 0.0286564
0.0453651 0.0407874 0.0280766
0.0664988 0.0439612 0.027924
0.0970779 0.0462043 0.0317235
0.132418 0.05037 0.0352941
0.174014 0.0546578 0.038819
0.224506 0.0583963 0.0410163
0.279698 0.0611887 0.0419013
0.331075 0.064744 0.0430152
0.37232 0.0707256 0.0464179
0.409079 0.0769513 0.0496681
0.443763 0.083238 0.0533303
0.477943 0.0898146 0.0570993
0.511299 0.0966659 0.0608682
0.544289 0.103883 0.0649729
0.576761 0.110903 0.069337
0.609506 0.118181 0.0740826
0.642008 0.125612 0.0790265
0.674113 0.133211 0.0838788
0.706203 0.141024 0.0885328
0.738247 0.149096 0.0930953
0.769833 0.157122 0.0973983
0.801343 0.165072 0.101457
0.83241 0.173114 0.105409
0.862989 0.180972 0.108644
0.893324 0.188769 0.111482
0.922881 0.196384 0.114107
0.952087 0.2038 0.116335
0.957534 0.205188 0.11664
0.962844 0.206363 0.11693
0.96817 0.207645 0.11722
0.025742 0.0530098 0.0387884
0.0280461 0.0531624 0.0367742
0.0339055 0.0536965 0.037583
0.0580758 0.0562295 0.035111
0.0709697 0.0621195 0.0322271
0.104341 0.0667582 0.0353399
0.14136 0.0711681 0.0390631
0.185382 0.075349 0.0420386
0.235416 0.0781567 0.0434119
0.289113 0.0802167 0.0437171
0.33724 0.0838636 0.0453651
0.37641 0.0889601 0.0479286
0.413397 0.0946517 0.051545
0.448753 0.100725 0.0552834
0.482994 0.107149 0.0589609
0.516533 0.113664 0.0628672
0.550271 0.120775 0.0671397
0.583291 0.127886 0.0718547
0.616327 0.13521 0.0766308
0.64921 0.14284 0.0814832
0.681254 0.150622 0.0860914
0.713314 0.158526 0.0904707
0.745129 0.166308 0.0947585
0.77673 0.17409 0.0988479
0.807797 0.181827 0.102647
0.838621 0.189654 0.106294
0.869291 0.197772 0.109407
0.899428 0.205676 0.112139
0.928725 0.213153 0.114672
0.954192 0.220157 0.116472
0.95967 0.221973 0.117067
0.964996 0.223285 0.117357
0.970306 0.224399 0.117632
0.0280308 0.0761578 0.0434119
0.0303044 0.0759442 0.0410163
0.0332494 0.0777142 0.0411536
0.0445716 0.0826429 0.0423285
0.0891432 0.0873121 0.0426795
0.106905 0.0951705 0.0395209
0.145266 0.100298 0.0423743
0.188937 0.105684 0.0451667
0.240574 0.106798 0.0462348
0.294133 0.107912 0.0464179
0.339818 0.110338 0.0478218
0.3794 0.115114 0.0512398
0.416739 0.120714 0.0549477
0.452873 0.126696 0.0590219
0.487922 0.132799 0.0630503
0.522393 0.13846 0.067216
0.556313 0.145571 0.0718395
0.589929 0.152987 0.076524
0.623041 0.160723 0.0812848
0.655512 0.168185 0.0857404
0.687724 0.175799 0.0899977
0.71986 0.183688 0.0942245
0.7514 0.191394 0.0982681
0.782757 0.199191 0.102098
0.814038 0.207095 0.105791
0.844572 0.214389 0.109209
0.87512 0.2224 0.112383
0.904906 0.230396 0.115343
0.933989 0.237995 0.117845
0.956451 0.24416 0.119585
0.961791 0.245899 0.120165
0.967071 0.247272 0.120577
0.972366 0.248402 0.120775
0.0327459 0.107973 0.0560464
0.0347143 0.107317 0.0527199
0.0370336 0.108431 0.0518349
0.0409857 0.112337 0.0513466
0.0662242 0.124788 0.0547646
0.120974 0.128878 0.0527047
0.143816 0.136355 0.0486915
0.191394 0.13933 0.0492866
0.242893 0.140475 0.0493019
0.296132 0.141176 0.0495613
0.342367 0.14345 0.0519417
0.382483 0.147723 0.0559854
0.420661 0.152819 0.0602426
0.457221 0.158511 0.0644236
0.492683 0.16463 0.0686046
0.527092 0.170382 0.0728161
0.561028 0.177127 0.0772869
0.594491 0.184207 0.0818494
0.627665 0.191501 0.0863203
0.660044 0.198871 0.0903487
0.692348 0.206058 0.0944228
0.724178 0.213336 0.0983749
0.755764 0.220813 0.102449
0.786908 0.228397 0.106233
0.817731 0.235813 0.109712
0.848447 0.243076 0.113008
0.87837 0.250294 0.115877
0.907942 0.257633 0.118517
0.93669 0.264973 0.120867
0.958694 0.270741 0.122637
0.964034 0.272526 0.123201
0.969268 0.273823 0.123568
0.974502 0.274815 0.123735
0.0380865 0.144121 0.0719768
0.039704 0.142748 0.0678569
0.0417334 0.14287 0.0661173
0.0449989 0.145937 0.0657969
0.0560922 0.154726 0.0669108
0.0950942 0.168414 0.0679637
0.160555 0.169879 0.066041
0.186954 0.176104 0.0577401
0.245121 0.176028 0.0552682
0.298802 0.176562 0.0545968
0.344442 0.180011 0.0565652
0.385306 0.18407 0.0606546
0.423804 0.188556 0.0649577
0.460746 0.19379 0.0692912
0.49633 0.199298 0.0736553
0.530831 0.204349 0.0779126
0.564904 0.210803 0.0823987
0.598352 0.217578 0.0866865
0.631083 0.22414 0.0907912
0.66334 0.230716 0.0945296
0.695476 0.237568 0.098558
0.727169 0.244404 0.102556
0.758389 0.251347 0.106416
0.789548 0.25835 0.109895
0.820249 0.265354 0.113237
0.85069 0.272206 0.116335
0.880552 0.279255 0.118807
0.909697 0.28629 0.12137
0.938369 0.293309 0.123644
0.960967 0.299092 0.125399
0.966094 0.300389 0.125963
0.971222 0.301503 0.126436
0.976364 0.302312 0.126589
0.0440375 0.181567 0.0908522
0.045594 0.179751 0.0864271
0.0477455 0.179919 0.0846265
0.0504921 0.182284 0.0834516
0.056199 0.187625 0.0807813
0.0749523 0.197513 0.0804761
0.12752 0.211139 0.0833753
0.2065 0.209766 0.0786908
0.238071 0.215076 0.066041
0.299443 0.213962 0.0620127
0.345846 0.21619 0.0624247
0.386465 0.221317 0.0654307
0.425238 0.22594 0.0692302
0.462989 0.230777 0.07364
0.498833 0.23537 0.0780804
0.533639 0.240635 0.0824445
0.567803 0.246082 0.0866255
0.600916 0.251926 0.090425
0.63357 0.257816 0.0944381
0.66598 0.263951 0.0984207
0.697856 0.270466 0.102434
0.729305 0.276585 0.106233
0.76054 0.282872 0.109819
0.791653 0.289998 0.113085
0.822339 0.296498 0.116213
0.852445 0.302663 0.119097
0.882307 0.30927 0.121904
0.911284 0.31606 0.124346
0.939529 0.322637 0.126696
0.963363 0.328405 0.128481
0.968383 0.329809 0.129061
0.973373 0.330587 0.129412
0.978378 0.331197 0.12958
0.0494392 0.218067 0.110155
0.0508583 0.21622 0.105364
0.0524605 0.215885 0.101869
0.0542153 0.216724 0.0987564
0.0575418 0.220066 0.0942397
0.0698405 0.22797 0.0935225
0.0982223 0.240955 0.093904
0.184955 0.251286 0.10399
0.258289 0.248249 0.0901656
0.289433 0.253452 0.0749523
0.344564 0.254383 0.071107
0.386603 0.258 0.0724498
0.425681 0.262562 0.0747539
0.462852 0.267887 0.0780957
0.499397 0.272541 0.0820172
0.535027 0.277562 0.0861219
0.569558 0.282734 0.0899977
0.602945 0.287327 0.0938582
0.635676 0.29276 0.0978103
0.667872 0.29836 0.101793
0.699916 0.304082 0.10576
0.731106 0.309819 0.109483
0.762539 0.316014 0.11284
0.793576 0.322118 0.115999
0.823835 0.328099 0.119265
0.854139 0.333715 0.122011
0.883558 0.33994 0.124758
0.912123 0.346319 0.127062
0.940871 0.352773 0.129488
0.96614 0.358923 0.131395
0.970947 0.359579 0.131853
0.975753 0.360021 0.132204
0.980575 0.360555 0.132403
0.0534066 0.253452 0.126467
0.0546578 0.251408 0.12076
0.0561685 0.250675 0.117266
0.0578012 0.251072 0.114336
0.0610361 0.253849 0.111299
0.0702068 0.260578 0.108293
0.0893111 0.270146 0.106966
0.124941 0.284855 0.107454
0.235004 0.290578 0.118349
0.305089 0.287419 0.101503
0.335073 0.29305 0.0859236
0.384268 0.295964 0.0818189
0.425544 0.299748 0.0828565
0.463752 0.304021 0.0846723
0.500008 0.309026 0.0869612
0.534997 0.314794 0.0898604
0.569909 0.319112 0.0935836
0.603601 0.323735 0.0971389
0.63679 0.328023 0.101015
0.669429 0.332982 0.104952
0.701549 0.338231 0.108492
0.733379 0.343893 0.112078
0.76463 0.349248 0.115709
0.795087 0.354742 0.118791
0.825772 0.360281 0.121935
0.855207 0.365377 0.124315
0.884871 0.37145 0.126894
0.913603 0.377493 0.129335
0.941756 0.383383 0.131594
0.968627 0.389212 0.133547
0.973846 0.389838 0.134005
0.9785 0.389929 0.13434
0.983185 0.390356 0.134524
0.0573739 0.288518 0.140948
0.0588235 0.286549 0.136004
0.0606546 0.285542 0.133013
0.0626993 0.285725 0.130785
0.0659495 0.288106 0.127993
0.0717784 0.292592 0.122148
0.0861067 0.300954 0.120134
0.115618 0.314015 0.120653
0.157855 0.32784 0.120729
0.27863 0.328939 0.127443
0.346242 0.327611 0.113588
0.375067 0.333516 0.0980392
0.42208 0.336568 0.0925612
0.463218 0.340612 0.0931563
0.500542 0.344366 0.0941482
0.535943 0.349111 0.0955978
0.569833 0.354498 0.0980087
0.603479 0.359594 0.101366
0.637522 0.364034 0.105119
0.67071 0.368322 0.108293
0.703105 0.373022 0.111574
0.734859 0.377737 0.114885
0.765988 0.382467 0.11812
0.79675 0.387335 0.120943
0.827024 0.392264 0.123827
0.856718 0.397375 0.126589
0.885817 0.402914 0.129122
0.914427 0.40824 0.13135
0.942168 0.413779 0.133654
0.968841 0.419318 0.135485
0.976516 0.420188 0.135958
0.98088 0.419821 0.136233
0.985351 0.420249 0.136355
0.0626535 0.323812 0.155718
0.0640726 0.321218 0.151049
0.0660563 0.319951 0.148363
0.0678569 0.32018 0.145357
0.0699168 0.321477 0.142031
0.0743114 0.325216 0.135821
0.0870527 0.332769 0.132677
0.109346 0.342992 0.132708
0.147082 0.357214 0.133043
0.201068 0.368277 0.132448
0.324758 0.367102 0.137346
0.383474 0.36762 0.125429
0.413581 0.373159 0.110231
0.459388 0.376425 0.102693
0.500084 0.380438 0.102937
0.53637 0.384161 0.103624
0.571084 0.388434 0.104723
0.604776 0.393393 0.106615
0.637385 0.398672 0.109148
0.670436 0.40325 0.111818
0.703212 0.40737 0.114672
0.735317 0.411414 0.117571
0.766644 0.415564 0.120241
0.797742 0.420218 0.122957
0.828031 0.424811 0.125689
0.857649 0.429511 0.128313
0.886625 0.434119 0.130663
0.914626 0.439094 0.132708
0.942367 0.444083 0.13492
0.968994 0.449622 0.136843
0.978744 0.450614 0.137377
0.982834 0.449775 0.137499
0.98703 0.450004 0.137636
0.0692912 0.358404 0.170718
0.0708476 0.355886 0.166369
0.0714122 0.35407 0.161227
0.072755 0.353796 0.158007
0.0744335 0.354864 0.155245
0.0787976 0.35816 0.15021
0.0883803 0.363836 0.143862
0.107897 0.372885 0.143343
0.139025 0.384756 0.146014
0.186007 0.39791 0.143435
0.256504 0.40557 0.141543
0.360037 0.406256 0.147173
0.419562 0.406882 0.136248
0.450996 0.411643 0.121202
0.49572 0.415564 0.112306
0.536049 0.419257 0.112062
0.571679 0.423148 0.112367
0.605982 0.427024 0.113237
0.639048 0.431403 0.114275
0.671183 0.436133 0.115801
0.702907 0.440986 0.117922
0.735058 0.445228 0.120241
0.766629 0.448753 0.122377
0.797864 0.452735 0.124651
0.828214 0.457084 0.127062
0.857755 0.461341 0.12932
0.886687 0.465385 0.131441
0.915129 0.469993 0.133669
0.942535 0.474739 0.135729
0.968994 0.479805 0.137652
0.980285 0.481193 0.138521
0.983841 0.480049 0.138674
0.987488 0.480171 0.138872
0.0744488 0.391669 0.184054
0.075639 0.389044 0.178714
0.0765087 0.387411 0.173526
0.0778668 0.386908 0.170626
0.0795453 0.387671 0.168139
0.0837873 0.390112 0.163012
0.0902266 0.394476 0.154391
0.110048 0.403876 0.154131
0.136339 0.413382 0.156298
0.176837 0.425559 0.156344
0.234501 0.435752 0.151186
0.310094 0.441413 0.149386
0.398291 0.443915 0.15642
0.454368 0.444617 0.1458
0.487572 0.449622 0.130831
0.530022 0.452796 0.121111
0.570367 0.456764 0.1196
0.605982 0.460655 0.119707
0.639643 0.464042 0.119829
0.672221 0.468009 0.120455
0.704311 0.472099 0.121584
0.735607 0.476524 0.123171
0.766079 0.481285 0.124865
0.79733 0.485039 0.126528
0.827787 0.488762 0.12842
0.857389 0.492607 0.130388
0.886748 0.496818 0.132555
0.915022 0.500694 0.134569
0.942443 0.505165 0.136568
0.968902 0.509728 0.138567
0.981552 0.511147 0.13959
0.984619 0.509896 0.139757
0.987762 0.509926 0.13994
0.0791791 0.423758 0.195651
0.080705 0.421439 0.19086
0.0816052 0.419318 0.185321
0.0833448 0.418601 0.182589
0.0854047 0.419242 0.180194
0.0886854 0.420981 0.174472
0.0946059 0.424903 0.167178
0.112078 0.433539 0.164691
0.137881 0.442924 0.166995
0.172076 0.452552 0.167849
0.222263 0.463355 0.16231
0.286946 0.471015 0.157092
0.359243 0.478157 0.159045
0.433234 0.480507 0.163867
0.489235 0.481559 0.154513
0.522637 0.485817 0.13901
0.564202 0.489387 0.128954
0.603525 0.49308 0.125826
0.639445 0.496498 0.125689
0.672999 0.499992 0.125597
0.705318 0.503365 0.125872
0.736828 0.50724 0.126543
0.767575 0.511345 0.127489
0.79765 0.515602 0.128664
0.827375 0.51989 0.13022
0.856855 0.52372 0.131868
0.886137 0.527306 0.133715
0.914626 0.531365 0.135424
0.942153 0.535164 0.137346
0.968597 0.539406 0.139361
0.982361 0.541482 0.14049
0.984985 0.539666 0.140597
0.987579 0.539635 0.140719
0.084535 0.455192 0.207004
0.0862745 0.452842 0.20264
0.0873884 0.450858 0.197391
0.0887312 0.449699 0.1935
0.0902266 0.449943 0.190173
0.0932479 0.45156 0.184894
0.100206 0.455833 0.179995
0.113634 0.462608 0.174151
0.140078 0.471824 0.176699
0.171237 0.4804 0.178225
0.21416 0.489509 0.175219
0.273304 0.498543 0.166217
0.333639 0.506355 0.163012
0.402564 0.51368 0.168292
0.469474 0.515938 0.170718
0.522881 0.516686 0.161761
0.556985 0.520882 0.14609
0.597467 0.524361 0.135561
0.636378 0.528023 0.131136
0.673136 0.531365 0.131075
0.705959 0.534554 0.130785
0.737896 0.537774 0.130755
0.768872 0.541207 0.130999
0.799084 0.544976 0.131441
0.828794 0.549065 0.132418
0.857969 0.552972 0.133745
0.886107 0.557458 0.135103
0.913985 0.561502 0.136538
0.941817 0.565362 0.138293
0.968246 0.569253 0.140047
0.982818 0.571252 0.141421
0.985107 0.570001 0.141604
0.987121 0.569909 0.141802
0.0903334 0.486458 0.218326
0.0924544 0.484016 0.214374
0.0928664 0.481758 0.208255
0.093019 0.480262 0.202502
0.0944381 0.480156 0.199374
0.097612 0.481804 0.194888
0.104356 0.485237 0.190143
0.117082 0.491218 0.184192
0.142458 0.500832 0.185382
0.174533 0.508553 0.187304
0.21265 0.515953 0.185702
0.263478 0.524254 0.177584
0.320653 0.532998 0.169726
0.375372 0.542016 0.169482
0.442786 0.548058 0.174624
0.503578 0.550072 0.175662
0.555901 0.550958 0.167361
0.590494 0.555016 0.152178
0.630121 0.558328 0.141329
0.668772 0.561563 0.13518
0.705394 0.565011 0.135225
0.738094 0.567987 0.134844
0.769558 0.571191 0.134707
0.800626 0.57467 0.134676
0.830304 0.578134 0.134997
0.859449 0.581964 0.13579
0.88777 0.585748 0.136797
0.91516 0.58996 0.138048
0.941985 0.594415 0.139513
0.967819 0.598917 0.1411
0.983169 0.601099 0.142596
0.985153 0.599771 0.142748
0.986801 0.599741 0.142947
0.0943008 0.516197 0.227497
0.0963455 0.513771 0.223194
0.0972457 0.511803 0.21706
0.0973068 0.509941 0.211078
0.0987259 0.509819 0.207858
0.102037 0.510872 0.203738
0.107652 0.513558 0.198306
0.120775 0.519387 0.193469
0.145403 0.52871 0.193973
0.177569 0.536065 0.195453
0.213825 0.542443 0.194186
0.258564 0.549371 0.188876
0.310628 0.558221 0.178088
0.361654 0.567727 0.174044
0.41677 0.576425 0.174716
0.482231 0.581476 0.18117
0.537331 0.583368 0.179599
0.588098 0.584192 0.171832
0.623529 0.588144 0.156649
0.662394 0.59147 0.145907
0.700877 0.594827 0.139147
0.736996 0.598474 0.138872
0.770123 0.60116 0.138567
0.80116 0.604105 0.138155
0.83151 0.607095 0.138018
0.860914 0.610605 0.138338
0.889403 0.614374 0.138903
0.916869 0.618082 0.139696
0.943755 0.622187 0.141039
0.969406 0.626719 0.142489
0.983093 0.629602 0.143832
0.985077 0.629389 0.144015
0.986496 0.629465 0.144106
0.097322 0.544594 0.235019
0.0993057 0.542458 0.230671
0.100374 0.540246 0.224598
0.100984 0.538415 0.218647
0.102815 0.538262 0.215595
0.106538 0.539345 0.211383
0.111681 0.541543 0.205936
0.124651 0.547097 0.202808
0.148531 0.55555 0.202289
0.181048 0.563043 0.20322
0.217639 0.568948 0.202136
0.257939 0.574502 0.197848
0.303105 0.582162 0.190173
0.351873 0.592538 0.180011
0.400519 0.602075 0.177874
0.456214 0.610025 0.178912
0.514946 0.614252 0.182406
0.570184 0.615915 0.182559
0.620096 0.616983 0.175402
0.655756 0.620691 0.160357
0.694316 0.624002 0.149645
0.732021 0.627207 0.142519
0.768231 0.631037 0.141741
0.80174 0.633707 0.141924
0.832288 0.636667 0.141543
0.862028 0.639765 0.141466
0.890776 0.643015 0.141649
0.918593 0.646555 0.142184
0.945388 0.650294 0.143023
0.971145 0.654398 0.144137
0.983276 0.656916 0.145235
0.984985 0.656641 0.145266
0.986297 0.657404 0.145357
0.100877 0.572671 0.242069
0.102937 0.570596 0.237858
0.104112 0.568353 0.23209
0.104707 0.566323 0.226062
0.106676 0.565957 0.222202
0.110079 0.566842 0.218173
0.114885 0.56846 0.212879
0.128298 0.574289 0.211002
0.151934 0.58201 0.210086
0.184283 0.589258 0.210575
0.220737 0.595056 0.209491
0.260441 0.599985 0.205829
0.301457 0.606394 0.199664
0.344594 0.616373 0.189914
0.390051 0.626673 0.18262
0.437964 0.635767 0.181125
0.49395 0.643122 0.182513
0.550652 0.646571 0.186114
0.602747 0.648356 0.184573
0.651591 0.649104 0.177905
0.688045 0.652918 0.163653
0.726055 0.656138 0.152651
0.763043 0.659281 0.145571
0.799008 0.662928 0.144137
0.832441 0.665873 0.144854
0.862745 0.668513 0.144518
0.891646 0.671473 0.144411
0.919753 0.674586 0.144823
0.946792 0.678309 0.14551
0.972534 0.682124 0.14638
0.983246 0.684291 0.147311
0.984878 0.684123 0.147448
0.986145 0.684764 0.147585
0.104891 0.600305 0.249226
0.1075 0.598184 0.245441
0.108751 0.596063 0.239872
0.108843 0.594095 0.232837
0.110216 0.593103 0.227924
0.113115 0.593408 0.224033
0.118715 0.595422 0.219684
0.131426 0.600412 0.218021
0.154742 0.607965 0.217365
0.187488 0.615366 0.217609
0.224781 0.620859 0.216281
0.264439 0.625513 0.213031
0.301472 0.631205 0.20853
0.339818 0.63978 0.201053
0.381796 0.650553 0.189517
0.427192 0.660456 0.184665
0.474266 0.668879 0.18352
0.5299 0.675456 0.184985
0.583185 0.678386 0.186572
0.635096 0.679881 0.185809
0.683635 0.681086 0.180041
0.719799 0.684474 0.166079
0.757031 0.6878 0.154635
0.793729 0.690959 0.147982
0.829221 0.694209 0.145556
0.861646 0.697704 0.147662
0.89247 0.700145 0.147555
0.920882 0.703258 0.147723
0.947951 0.706432 0.148272
0.973968 0.709926 0.149126
0.983337 0.712001 0.150042
0.984894 0.711727 0.150057
0.98613 0.712337 0.150225
0.10779 0.626886 0.255146
0.11136 0.624949 0.251896
0.112886 0.62298 0.245853
0.112352 0.620569 0.238102
0.11339 0.61944 0.23267
0.115969 0.619623 0.229023
0.123186 0.621988 0.226139
0.134737 0.626459 0.224308
0.157076 0.6336 0.224125
0.190494 0.640864 0.224216
0.228611 0.646128 0.222843
0.268147 0.650568 0.219898
0.303548 0.655909 0.216144
0.338964 0.663355 0.210468
0.375998 0.673793 0.201099
0.418296 0.684138 0.190585
0.463325 0.693629 0.186389
0.511452 0.701396 0.185397
0.564981 0.706981 0.186709
0.616968 0.709712 0.188067
0.667201 0.711452 0.186557
0.714611 0.712093 0.181155
0.751186 0.71574 0.167788
0.787945 0.719234 0.156802
0.823697 0.722286 0.150118
0.858686 0.725582 0.147402
0.891035 0.729473 0.150622
0.921355 0.731731 0.151003
0.948806 0.734554 0.151095
0.97499 0.738033 0.15169
0.983276 0.739742 0.152544
0.984787 0.739559 0.152712
0.986023 0.740139 0.153017
0.110491 0.652873 0.260548
0.112886 0.650721 0.255924
0.114397 0.6486 0.249882
0.114916 0.646281 0.242481
0.115724 0.644892 0.236667
0.118547 0.645121 0.233188
0.127108 0.64799 0.232105
0.138262 0.652018 0.230701
0.159609 0.658793 0.23122
0.193469 0.666133 0.231327
0.232227 0.671275 0.22974
0.271672 0.675669 0.226841
0.307683 0.680903 0.223117
0.339025 0.687617 0.219303
0.37319 0.69659 0.211917
0.411704 0.70753 0.199481
0.454108 0.717235 0.191714
0.498192 0.726085 0.18793
0.547814 0.734005 0.187579
0.599634 0.738445 0.188159
0.649851 0.7411 0.188312
0.698833 0.742321 0.186358
0.745937 0.743267 0.181964
0.782238 0.746914 0.168734
0.818204 0.750256 0.157809
0.853483 0.753414 0.15172
0.887327 0.756634 0.149432
0.919417 0.760281 0.153384
0.948425 0.763027 0.154726
0.975402 0.765499 0.155215
0.983429 0.767132 0.155978
0.984878 0.766949 0.156283
0.98613 0.767407 0.156802
0.112764 0.678691 0.265217
0.115312 0.676341 0.260563
0.117128 0.674266 0.254978
0.117784 0.672084 0.247517
0.118441 0.670588 0.24126
0.123934 0.671504 0.239841
0.13164 0.673732 0.238727
0.142947 0.677424 0.237552
0.16347 0.68397 0.238285
0.196139 0.69102 0.23827
0.234974 0.696056 0.23653
0.274769 0.700374 0.233738
0.311223 0.705379 0.230411
0.341344 0.712016 0.227176
0.373205 0.719936 0.221469
0.407218 0.730205 0.212131
0.447211 0.740658 0.198779
0.489433 0.750225 0.192706
0.532174 0.758526 0.189197
0.583078 0.765835 0.188769
0.633494 0.769543 0.188769
0.682734 0.77174 0.188266
0.730983 0.773037 0.185794
0.777111 0.773877 0.182223
0.813001 0.777569 0.169162
0.848066 0.780804 0.158694
0.882551 0.784161 0.152514
0.915999 0.787366 0.151156
0.946944 0.790707 0.155261
0.97467 0.794125 0.159228
0.983719 0.794949 0.159899
0.985077 0.794629 0.160327
0.986328 0.795026 0.160922
0.116197 0.704051 0.270329
0.118929 0.701885 0.266011
0.121279 0.700313 0.261173
0.122103 0.6981 0.253956
0.123812 0.696559 0.247883
0.129107 0.697368 0.246357
0.135943 0.699092 0.245075
0.148501 0.702998 0.244511
0.167941 0.708873 0.245243
0.198734 0.715724 0.24509
0.238041 0.721004 0.243397
0.278294 0.725292 0.240848
0.31487 0.730251 0.237919
0.344991 0.736706 0.235126
0.373632 0.74406 0.231113
0.405982 0.752895 0.223148
0.442298 0.763699 0.210178
0.482353 0.773541 0.199405
0.523766 0.782818 0.193668
0.566674 0.790738 0.19028
0.617975 0.797177 0.189578
0.667338 0.800229 0.18909
0.715434 0.802152 0.18793
0.762661 0.803449 0.185092
0.808194 0.804242 0.181964
0.843305 0.80766 0.168841
0.878096 0.811154 0.159182
0.911101 0.814542 0.152544
0.943191 0.817624 0.152316
0.973281 0.821012 0.156954
0.984039 0.823285 0.163653
0.985275 0.822812 0.164263
0.986511 0.822309 0.164843
0.119219 0.729152 0.275792
0.123293 0.727428 0.27245
0.126711 0.726268 0.269062
0.127459 0.723903 0.26096
0.129427 0.722408 0.255009
0.133883 0.722652 0.252781
0.139742 0.723995 0.251225
0.153567 0.727871 0.251331
0.172412 0.733471 0.252247
0.201343 0.740001 0.25185
0.240467 0.745342 0.250278
0.280995 0.749722 0.248035
0.317479 0.754742 0.245563
0.348531 0.761105 0.242908
0.376181 0.768185 0.239734
0.406302 0.776089 0.233448
0.438422 0.786053 0.223713
0.476921 0.796796 0.208103
0.516793 0.806058 0.200534
0.557168 0.814679 0.195361
0.602197 0.822095 0.193011
0.65214 0.827436 0.191836
0.700587 0.830045 0.191348
0.748043 0.832029 0.190021
0.79379 0.833112 0.186175
0.8383 0.833814 0.183246
0.873121 0.837507 0.172
0.906386 0.840757 0.162203
0.938811 0.844129 0.154955
0.970001 0.847761 0.152865
0.984405 0.850172 0.158801
0.985626 0.849393 0.159442
0.986862 0.849515 0.161807
0.122377 0.753979 0.281498
0.126421 0.752194 0.278019
0.129625 0.750942 0.274083
0.131914 0.749142 0.267597
0.134218 0.747692 0.261585
0.138201 0.747753 0.258946
0.144625 0.748959 0.257771
0.159014 0.75288 0.258579
0.178134 0.758083 0.259525
0.204379 0.764202 0.259419
0.24448 0.769741 0.257725
0.284779 0.774166 0.255268
0.320485 0.779156 0.253056
0.351904 0.785382 0.250813
0.379477 0.792309 0.248066
0.407187 0.799741 0.243534
0.438804 0.808881 0.235294
0.473442 0.819364 0.222034
0.511666 0.82919 0.209735
0.550729 0.838056 0.203372
0.590356 0.845945 0.199359
0.637858 0.852796 0.198077
0.686183 0.857114 0.197269
