LUT/LumixLab/Summer Gold.cube
TITLE "Generated by Resolve"
#LUMIXPHOTOSTYLE NAT
LUT_3D_SIZE 33
0.0359045 0.0360113 0.0354772
0.0418555 0.0407568 0.040116
0.0528573 0.0479438 0.0473945
0.0637522 0.0551919 0.0547341
0.0804303 0.0644388 0.0639811
0.0974899 0.0739605 0.0735027
0.12076 0.0841688 0.0836805
0.144808 0.0944381 0.093904
0.175113 0.104738 0.104158
0.207218 0.115068 0.114427
0.245441 0.123491 0.122713
0.28571 0.131289 0.130388
0.330022 0.135485 0.134325
0.376089 0.137881 0.136446
0.422309 0.136843 0.134829
0.468666 0.132876 0.130083
0.513436 0.126513 0.121706
0.556405 0.117906 0.109972
0.598337 0.107836 0.0980697
0.637888 0.0956283 0.0866102
0.676555 0.0816205 0.0736553
0.713451 0.062974 0.0569009
0.749981 0.0449378 0.0409705
0.78439 0.0312505 0.0292058
0.818845 0.0182498 0.0178073
0.852811 0.0176394 0.0174563
0.887083 0.0171054 0.0167697
0.92105 0.0166781 0.0163882
0.955016 0.0159152 0.015671
0.980438 0.0411231 0.0400244
1 0.0700084 0.0683146
1 0.0759136 0.0740215
1 0.0769207 0.075227
0.0460365 0.0469368 0.0455177
0.0498817 0.0492409 0.0475319
0.0596628 0.0539254 0.0523842
0.0697948 0.0589761 0.0576333
0.0864729 0.0664836 0.0651102
0.104112 0.0744793 0.0730449
0.127947 0.0831006 0.081529
0.153216 0.0918746 0.090135
0.184329 0.100435 0.098436
0.217838 0.108919 0.10663
0.25655 0.115312 0.112612
0.298543 0.120363 0.117144
0.342382 0.122271 0.118349
0.389013 0.12108 0.116182
0.43505 0.116945 0.110414
0.480476 0.109316 0.100435
0.52401 0.100938 0.0872511
0.564874 0.0912337 0.068574
0.604654 0.0821241 0.0527657
0.641535 0.0748608 0.0453956
0.677913 0.0675975 0.038117
0.71284 0.0600595 0.0310216
0.747784 0.0522469 0.0240635
0.781949 0.0469978 0.0189517
0.816129 0.040589 0.01355
0.850111 0.0407111 0.0131991
0.884352 0.0400854 0.0127565
0.918334 0.0398718 0.0125124
0.9523 0.0394446 0.0120546
0.979049 0.0508125 0.0231022
1 0.0655833 0.0375372
1 0.0699626 0.0419318
1 0.0706188 0.0426947
0.0558175 0.0627604 0.0568551
0.0583505 0.0641184 0.0577859
0.0675822 0.0672923 0.0601968
0.0778973 0.0707866 0.0629129
0.0939651 0.0762036 0.068101
0.111757 0.082414 0.0740826
0.135622 0.0888838 0.0796674
0.162249 0.0957046 0.0853895
0.194034 0.101976 0.0899214
0.228885 0.107927 0.0941482
0.267521 0.112261 0.0956283
0.309804 0.115023 0.09514
0.353368 0.115862 0.0923171
0.39881 0.113832 0.0854353
0.443442 0.110002 0.0776226
0.487175 0.10248 0.0686351
0.529931 0.0943618 0.0564736
0.569009 0.0857557 0.0383764
0.607446 0.0774548 0.0219425
0.642481 0.0733501 0.0176394
0.677623 0.069688 0.0137026
0.711376 0.0682383 0.0124514
0.745144 0.067216 0.0111543
0.778836 0.0667124 0.0109407
0.812833 0.0664378 0.0107118
0.847044 0.066041 0.0103914
0.8813 0.0657511 0.0101472
0.915022 0.0656596 0.00981155
0.948989 0.0650797 0.00955215
0.977295 0.0651102 0.00961318
1 0.0645914 0.00952163
1 0.0644083 0.00920119
1 0.0639658 0.00866712
0.0657206 0.0787518 0.0683299
0.0670787 0.0794842 0.0684215
0.0756847 0.0816052 0.0687114
0.0863355 0.0839246 0.068986
0.101747 0.0875715 0.0717174
0.119692 0.0920729 0.0757458
0.14345 0.096788 0.078645
0.171267 0.101854 0.0809339
0.203143 0.106096 0.0815442
0.239597 0.109789 0.0805371
0.278508 0.112459 0.0769207
0.32076 0.113527 0.069688
0.363302 0.114321 0.0606241
0.406027 0.114092 0.0486915
0.448768 0.113451 0.0381628
0.489708 0.111482 0.0348516
0.530205 0.109026 0.0304875
0.567468 0.106004 0.0226444
0.604791 0.102312 0.0149386
0.639704 0.100801 0.013138
0.674586 0.0991379 0.0116426
0.708064 0.0984817 0.0110018
0.741802 0.0982528 0.0103151
0.775753 0.0973831 0.0100862
0.809735 0.0971237 0.00976577
0.843931 0.0965591 0.00950637
0.877913 0.0963607 0.00917067
0.91194 0.0960861 0.00891127
0.945907 0.0954452 0.00862135
0.974899 0.0951247 0.00834669
1 0.0940414 0.00810254
1 0.0938277 0.00758373
1 0.0928359 0.00758373
0.0707713 0.0979019 0.0767224
0.071809 0.0984207 0.0763714
0.0792248 0.10016 0.0755627
0.0897688 0.101793 0.0743572
0.105516 0.1037 0.0737011
0.12488 0.106111 0.0736248
0.148547 0.109239 0.0737163
0.177142 0.113436 0.0736706
0.209064 0.116686 0.0710765
0.246036 0.119463 0.0643473
0.28452 0.121324 0.0572366
0.325948 0.122103 0.0480659
0.367788 0.122621 0.0375982
0.409491 0.12369 0.0237888
0.450843 0.124773 0.0116579
0.489845 0.126131 0.0113985
0.528969 0.127687 0.0110628
0.565515 0.128222 0.0108186
0.602045 0.128542 0.0105135
0.636759 0.128496 0.0102693
0.671153 0.128191 0.0100404
0.704997 0.128206 0.00972
0.73875 0.127413 0.00947585
0.772671 0.127123 0.00915541
0.806363 0.126558 0.00889601
0.840543 0.126238 0.00856031
0.8748 0.126131 0.00828565
0.908858 0.125216 0.00799573
0.94255 0.124773 0.00770581
0.972305 0.124117 0.00766003
0.998734 0.12311 0.00761425
1 0.122377 0.00758373
1 0.12137 0.00758373
0.0742046 0.117968 0.084062
0.0748302 0.118547 0.0831464
0.0808881 0.120134 0.0815137
0.0908827 0.12224 0.0793317
0.106523 0.123339 0.0753796
0.127642 0.123262 0.069688
0.15198 0.124956 0.0656138
0.18088 0.12932 0.0637827
0.212116 0.133486 0.0581064
0.247959 0.137072 0.0446479
0.284871 0.140139 0.0337987
0.324895 0.143252 0.0289158
0.365133 0.146029 0.0237278
0.40618 0.148516 0.0172885
0.44683 0.151339 0.0108186
0.486168 0.152972 0.0104982
0.525521 0.155291 0.0102388
0.562112 0.155886 0.00993362
0.598383 0.156909 0.00968948
0.63328 0.156558 0.00944533
0.667979 0.156649 0.0091249
0.701915 0.156725 0.00888075
0.735393 0.155764 0.00856031
0.769299 0.155505 0.00830091
0.803281 0.155001 0.00794995
0.837446 0.154894 0.00782788
0.871702 0.154498 0.0077821
0.905531 0.153796 0.00775158
0.939513 0.153292 0.00770581
0.96994 0.152422 0.00764477
0.996368 0.151675 0.00759899
1 0.150683 0.00756847
1 0.149935 0.00756847
0.0685283 0.140215 0.0847791
0.0691691 0.140673 0.0828717
0.0751354 0.141985 0.080415
0.086305 0.144381 0.0774243
0.102159 0.145769 0.0716716
0.125551 0.144442 0.0623941
0.151095 0.144396 0.0545815
0.181201 0.146807 0.0504311
0.212726 0.15021 0.0437629
0.248676 0.154925 0.0273442
0.284977 0.159213 0.0130312
0.323644 0.164508 0.0118563
0.362097 0.169024 0.0104982
0.402609 0.173663 0.0102388
0.443107 0.177401 0.0099031
0.482506 0.179767 0.00965896
0.521553 0.182315 0.00933852
0.55845 0.183551 0.00910964
0.595026 0.184588 0.00886549
0.630091 0.18471 0.00854505
0.664805 0.184878 0.00828565
0.698543 0.184573 0.00796521
0.732326 0.18436 0.00793469
0.766232 0.1841 0.00788891
0.800229 0.183566 0.0078584
0.834104 0.183246 0.00782788
0.86836 0.182666 0.0077821
0.902495 0.182269 0.00773632
0.936477 0.181811 0.00769055
0.967575 0.181003 0.00764477
0.99379 0.180255 0.00758373
1 0.179263 0.00755322
1 0.178515 0.00755322
0.0543069 0.16434 0.0793317
0.0544442 0.164858 0.0752728
0.0599069 0.166491 0.0708171
0.073518 0.169589 0.0658122
0.090547 0.171588 0.0591592
0.114977 0.172396 0.0481117
0.141085 0.17203 0.0377966
0.174121 0.168582 0.029633
0.207568 0.167178 0.0218204
0.244648 0.174594 0.0140841
0.281437 0.181918 0.00642405
0.319905 0.187686 0.0081178
0.358389 0.193652 0.00961318
0.398825 0.19884 0.00932326
0.439353 0.203052 0.00907912
0.478538 0.206531 0.00875868
0.517937 0.209125 0.00851453
0.555093 0.211017 0.00827039
0.591684 0.212329 0.00802625
0.626657 0.212634 0.00799573
0.661387 0.212894 0.00798047
0.695521 0.21265 0.00794995
0.729305 0.212512 0.00790417
0.762921 0.21207 0.00787366
0.796918 0.211856 0.00784314
0.831037 0.211612 0.00779736
0.865293 0.211093 0.00776684
0.899458 0.210758 0.00772107
0.93315 0.210101 0.00767529
0.964981 0.209598 0.00762951
0.991424 0.20885 0.00756847
1 0.207858 0.00753796
1 0.207111 0.00753796
0.0390784 0.189303 0.0713817
0.0395056 0.190051 0.0659648
0.044831 0.191531 0.0602731
0.0611276 0.194766 0.0543221
0.0788281 0.198154 0.0469673
0.104219 0.200305 0.0350347
0.130938 0.200793 0.0228733
0.166445 0.19205 0.011017
0.201816 0.183948 7.62951e-05
0.240085 0.193942 3.0518e-05
0.278325 0.204089 6.10361e-05
0.316564 0.210941 0.00433356
0.354833 0.218006 0.00823987
0.394766 0.223316 0.00846876
0.435294 0.228916 0.00816358
0.474937 0.232898 0.00807202
0.514366 0.236194 0.00805676
0.551507 0.2383 0.00802625
0.588113 0.239597 0.00801099
0.62356 0.240177 0.00798047
0.658289 0.240574 0.00794995
0.6925 0.240711 0.00791943
0.725994 0.240635 0.00788891
0.759869 0.240284 0.0078584
0.793866 0.240131 0.00782788
0.82797 0.239719 0.0077821
0.861952 0.239506 0.00773632
0.896132 0.239246 0.00770581
0.930114 0.238651 0.00766003
0.962615 0.238209 0.00759899
0.989059 0.237217 0.00755322
1 0.236469 0.00750744
1 0.235462 0.00750744
0.0200656 0.216968 0.0554055
0.0234836 0.217609 0.0504158
0.0301366 0.219043 0.0455177
0.0500343 0.222171 0.0416724
0.0701457 0.22565 0.0370947
0.0955062 0.229465 0.0299382
0.121355 0.232242 0.0222629
0.156893 0.226841 0.0125734
0.192721 0.22118 0.00291447
0.231144 0.221332 0.0012665
0.269718 0.221927 0.000122072
0.310307 0.230915 0.00190738
0.351415 0.240986 0.00422675
0.391684 0.247974 0.00607309
0.431785 0.254383 0.00762951
0.471412 0.258885 0.0080415
0.510521 0.262867 0.00802625
0.548226 0.265507 0.00801099
0.584833 0.267063 0.00798047
0.620447 0.268177 0.00794995
0.654887 0.268452 0.00793469
0.689204 0.268742 0.00790417
0.722972 0.268513 0.00787366
0.756832 0.268498 0.00784314
0.790555 0.268406 0.00779736
0.824628 0.26807 0.00776684
0.858885 0.267918 0.00772107
0.893095 0.267506 0.00767529
0.927077 0.267185 0.00762951
0.960037 0.266835 0.00758373
0.986481 0.265827 0.00753796
1 0.26508 0.00747692
1 0.264073 0.00749218
0.0011902 0.24567 0.0389868
0.00701915 0.246021 0.0340887
0.0150607 0.246937 0.0296178
0.0385443 0.249744 0.0280156
0.0615396 0.252888 0.0262455
0.0866255 0.258289 0.0238499
0.111894 0.263645 0.02121
0.147539 0.261051 0.0133974
0.183688 0.258335 0.00515755
0.221851 0.25034 0.00238041
0.260716 0.241627 0.000427253
0.303716 0.250172 0.000381476
0.347845 0.26334 0.000961318
0.3888 0.27245 0.0034638
0.428061 0.279622 0.00674449
0.467567 0.284977 0.00802625
0.506996 0.289464 0.00799573
0.544945 0.292439 0.00798047
0.581262 0.294453 0.00794995
0.61706 0.295659 0.00793469
0.651789 0.2963 0.00790417
0.686183 0.296773 0.00787366
0.719951 0.296635 0.00784314
0.753506 0.296712 0.00781262
0.787503 0.296437 0.00776684
0.821561 0.296407 0.00773632
0.855817 0.29633 0.00769055
0.889769 0.295979 0.00764477
0.923751 0.29572 0.00759899
0.957671 0.295201 0.00755322
0.984115 0.294194 0.00750744
1 0.293431 0.00746166
1 0.292683 0.0074464
0.000549325 0.27718 0.0415351
0.00523384 0.278065 0.0367437
0.0106813 0.278202 0.0318914
0.0340276 0.280598 0.0294957
0.0574502 0.283299 0.0270848
0.0823377 0.288579 0.0254063
0.107362 0.294026 0.0238041
0.139925 0.294774 0.0176394
0.173648 0.294865 0.0107118
0.212421 0.28748 0.00564584
0.252537 0.278111 0.00132753
0.295171 0.278813 0
0.338842 0.284764 1.5259e-05
0.381979 0.293477 0.0016022
0.424323 0.30341 0.0043946
0.464805 0.310872 0.00582895
0.503761 0.315953 0.00590524
0.541421 0.319554 0.00640879
0.577996 0.321859 0.00733959
0.613947 0.3234 0.00790417
0.648676 0.324163 0.00787366
0.682887 0.324544 0.00784314
0.716655 0.324742 0.00781262
0.750469 0.32491 0.0077821
0.784466 0.324712 0.00773632
0.818204 0.324742 0.00770581
0.852476 0.324483 0.00766003
0.886732 0.324483 0.00761425
0.920714 0.324254 0.00756847
0.954696 0.323781 0.0075227
0.981521 0.323064 0.00747692
1 0.322057 0.00743114
1 0.321294 0.00741588
7.62951e-05 0.308965 0.0438239
0.00350958 0.30959 0.0390326
0.00706493 0.30988 0.0347295
0.0296635 0.312154 0.0321355
0.0537575 0.31429 0.0296635
0.0785077 0.319249 0.0283665
0.103197 0.324636 0.0272679
0.132845 0.327962 0.0225528
0.164141 0.330831 0.0166934
0.202548 0.326589 0.0099031
0.243915 0.319402 0.0028687
0.285954 0.312627 0
0.328344 0.307439 0
0.373037 0.312154 0.000503548
0.419699 0.326192 0.00154116
0.462333 0.336538 0.00224308
0.500557 0.342 0.00234989
0.538231 0.346639 0.00332647
0.574762 0.349248 0.00595102
0.610559 0.351156 0.00787366
0.645289 0.352041 0.00784314
0.679866 0.352575 0.00781262
0.713634 0.352834 0.0077821
0.747417 0.352834 0.00773632
0.78114 0.352956 0.00770581
0.815152 0.353079 0.00766003
0.849409 0.352895 0.00762951
0.883665 0.352956 0.00758373
0.917388 0.352544 0.00753796
0.95137 0.352361 0.00747692
0.979156 0.351705 0.00743114
1 0.350698 0.00738537
1 0.34995 0.00737011
0 0.342107 0.0473182
0.00187686 0.342565 0.043122
0.0039826 0.343145 0.0385901
0.0249485 0.345052 0.0354925
0.0493629 0.346899 0.0326848
0.0743572 0.351263 0.0312047
0.0994583 0.3561 0.0301518
0.127581 0.360983 0.0268711
0.157259 0.365377 0.0223392
0.193011 0.364767 0.0155184
0.233783 0.360189 0.00701915
0.275593 0.351888 0.00198367
0.31812 0.340566 0.000686656
0.362631 0.33785 0
0.411002 0.348928 1.5259e-05
0.456794 0.359426 1.5259e-05
0.496773 0.367056 1.5259e-05
0.535378 0.373541 0.000793469
0.571588 0.376226 0.0040589
0.607599 0.37882 0.00698863
0.642237 0.379629 0.00743114
0.676844 0.380606 0.00776684
0.710338 0.380911 0.00773632
0.744106 0.380987 0.00770581
0.778103 0.381201 0.00766003
0.8121 0.381155 0.00762951
0.846067 0.381292 0.00758373
0.880323 0.38143 0.00753796
0.914351 0.381079 0.00749218
0.948333 0.380926 0.0074464
0.976791 0.380087 0.00738537
1 0.379355 0.00733959
1 0.378347 0.00732433
0 0.375875 0.0513008
0.000518807 0.376257 0.0473182
0.00120546 0.376883 0.0425574
0.0199435 0.378225 0.0389868
0.0449531 0.38024 0.0358434
0.0702831 0.384039 0.0340124
0.0957809 0.388464 0.0328374
0.122942 0.393835 0.0307164
0.151827 0.399405 0.0277104
0.184924 0.401816 0.021912
0.222675 0.400122 0.013138
0.262852 0.394736 0.00640879
0.307301 0.383429 0.002533
0.352285 0.375067 0
0.398581 0.37435 0
0.444968 0.377203 1.5259e-05
0.490211 0.389364 1.5259e-05
0.534188 0.400214 0.000228885
0.569635 0.403189 0.00183108
0.605081 0.406271 0.00357061
0.639155 0.407309 0.00567636
0.673533 0.408576 0.00766003
0.707317 0.408759 0.00769055
0.74107 0.40914 0.00766003
0.775051 0.40943 0.00761425
0.808789 0.40943 0.00758373
0.843 0.409644 0.00753796
0.877256 0.409583 0.00749218
0.911315 0.409567 0.0074464
0.945006 0.409476 0.00738537
0.974212 0.408728 0.00733959
1 0.40798 0.00729381
1 0.406989 0.00726329
0 0.409461 0.0552529
0 0.40972 0.0515908
0 0.410391 0.0466316
0.0159304 0.411551 0.0426032
0.0404669 0.413443 0.0391394
0.0656291 0.416403 0.0368811
0.0915236 0.420783 0.0355383
0.118517 0.42623 0.0339971
0.146777 0.432547 0.032166
0.177722 0.437217 0.0278172
0.212528 0.43859 0.0196231
0.250751 0.436576 0.011841
0.296117 0.425971 0.00546273
0.34139 0.415412 0.000534066
0.385916 0.404746 0.000228885
0.431632 0.397162 0
0.482094 0.41146 1.5259e-05
0.531868 0.425696 1.5259e-05
0.567514 0.429847 1.5259e-05
0.602365 0.433585 3.0518e-05
0.636393 0.434958 0.00358587
0.670481 0.436484 0.00726329
0.70428 0.43682 0.00764477
0.737774 0.437278 0.00759899
0.77174 0.437385 0.00756847
0.805737 0.437705 0.0075227
0.839933 0.437964 0.00747692
0.873915 0.437964 0.00743114
0.907988 0.438041 0.00738537
0.94197 0.437781 0.00733959
0.971847 0.437369 0.00729381
0.998291 0.436606 0.00723278
1 0.435615 0.00720226
0 0.442908 0.0591897
0 0.44303 0.055848
0 0.443427 0.0506905
0.0129702 0.444709 0.0463417
0.0359655 0.446448 0.0426184
0.0606851 0.448997 0.0398566
0.0869764 0.453056 0.0382696
0.113909 0.457786 0.036759
0.141604 0.46424 0.0353857
0.171267 0.469718 0.032517
0.204868 0.47361 0.0262303
0.240574 0.475242 0.0193942
0.283284 0.468864 0.0108797
0.326772 0.461524 0.00334173
0.372519 0.447593 0.0016022
0.418326 0.434989 0
0.467155 0.438331 0
0.51577 0.441978 1.5259e-05
0.55845 0.451087 1.5259e-05
0.600534 0.459846 1.5259e-05
0.635096 0.462409 0.00178531
0.668391 0.463813 0.00390631
0.701701 0.464714 0.00442512
0.734951 0.465385 0.00450141
0.768719 0.465614 0.00556954
0.802701 0.466011 0.00694286
0.836576 0.466087 0.00743114
0.870848 0.466377 0.00737011
0.904952 0.466529 0.00732433
0.938933 0.466316 0.00727855
0.969268 0.465995 0.00723278
0.995712 0.465003 0.00717174
1 0.464256 0.00714122
0 0.475578 0.0630198
0 0.475639 0.0600595
0 0.476097 0.0548104
0.0100557 0.477287 0.0501259
0.0318151 0.478706 0.046067
0.0555123 0.481193 0.0428779
0.082002 0.484962 0.0410468
0.108995 0.489265 0.0394293
0.13666 0.495705 0.0384375
0.165301 0.501839 0.0367285
0.197452 0.507942 0.0323796
0.230488 0.512718 0.0272068
0.271229 0.510842 0.0166781
0.312367 0.508049 0.00640879
0.358907 0.49131 0.00321965
0.404944 0.475227 0.00015259
0.452201 0.466896 0
0.499504 0.459876 0
0.548547 0.471534 0
0.59707 0.485298 0
0.633631 0.489815 0.00030518
0.666712 0.491386 0.000793469
0.699519 0.492561 0.0010071
0.732235 0.493202 0.00112917
0.765438 0.493828 0.00302129
0.799405 0.494301 0.00601205
0.833509 0.494453 0.00737011
0.867781 0.494789 0.00730907
0.901625 0.494759 0.00726329
0.935607 0.49485 0.00721752
0.966888 0.494636 0.00717174
0.993332 0.493645 0.0071107
1 0.492897 0.00706493
0 0.506645 0.0666361
0 0.506539 0.0641489
0 0.507317 0.0587778
0.00750744 0.508385 0.0538338
0.0276188 0.509697 0.0495613
0.0495613 0.511818 0.0459602
0.0765698 0.515084 0.0438239
0.10367 0.519142 0.0419471
0.131273 0.524956 0.0409247
0.15903 0.531075 0.0396887
0.190158 0.537743 0.0364691
0.221622 0.543938 0.0329595
0.259968 0.544488 0.0237278
0.298238 0.544564 0.0144198
0.343984 0.534142 0.00791943
0.390173 0.522896 0.00169375
0.43653 0.508904 0.000488289
0.482856 0.495171 7.62951e-05
0.531594 0.497078 0
0.581415 0.504143 0
0.624063 0.51075 0
0.66305 0.517082 1.5259e-05
0.69778 0.520104 3.0518e-05
0.730388 0.520943 3.0518e-05
0.763409 0.521798 0.00132753
0.796857 0.52221 0.00390631
0.830625 0.522759 0.00578317
0.8645 0.523171 0.00668345
0.898589 0.523247 0.007187
0.93257 0.523369 0.00714122
0.964523 0.523018 0.00709545
0.990753 0.522271 0.00703441
1 0.521279 0.00698863
0 0.537728 0.0702678
0 0.537545 0.0682078
0 0.538399 0.0627451
0.005066 0.539147 0.0575875
0.0235294 0.540658 0.0531319
0.0437629 0.542504 0.049073
0.0710613 0.54551 0.0466773
0.0981308 0.54902 0.0444648
0.125643 0.554482 0.0434424
0.153201 0.560265 0.0424201
0.183337 0.567239 0.0403143
0.213504 0.574456 0.0381476
0.248844 0.577646 0.0306096
0.285023 0.580179 0.0225376
0.329442 0.575921 0.0132448
0.375372 0.569772 0.00387579
0.420493 0.55346 0.00111391
0.465919 0.53431 0.000274662
0.513863 0.525673 0
0.562875 0.522942 0
0.610437 0.529076 0
0.657099 0.541115 0
0.696513 0.547295 1.5259e-05
0.729274 0.548516 3.0518e-05
0.762005 0.549599 0.000427253
0.794446 0.550256 0.00140383
0.827604 0.551034 0.00294499
0.86157 0.551308 0.00537118
0.895552 0.551736 0.0071107
0.929244 0.551888 0.00706493
0.961944 0.551629 0.00700389
0.988388 0.550881 0.00695811
1 0.549889 0.00689708
0 0.567254 0.0737011
0 0.566918 0.0721447
0 0.567788 0.0666209
0.00309758 0.568505 0.0612497
0.0197147 0.569955 0.056611
0.0375982 0.571328 0.0521859
0.0648356 0.57438 0.0495918
0.0922866 0.577508 0.047013
0.119829 0.582666 0.0458534
0.147326 0.588098 0.0447242
0.176471 0.594903 0.0431678
0.205982 0.602152 0.0415808
0.239658 0.607034 0.035996
0.274128 0.611688 0.029633
0.314946 0.610986 0.0203555
0.358404 0.608225 0.00999466
0.404013 0.596414 0.00437934
0.450568 0.579324 0.00122072
0.49723 0.564981 0
0.543908 0.553063 0
0.592828 0.551766 0
0.643259 0.56173 0
0.688243 0.569574 0
0.724819 0.573877 1.5259e-05
0.760113 0.576822 3.0518e-05
0.792721 0.578073 3.0518e-05
0.825544 0.579141 0.000747692
0.859068 0.579568 0.00363165
0.892424 0.580148 0.0061799
0.926299 0.580133 0.0065919
0.959579 0.58027 0.00689708
0.986023 0.579522 0.0068513
1 0.578515 0.00680552
0 0.59678 0.0771344
0 0.596307 0.076051
0 0.596933 0.0704356
0.00143435 0.597879 0.0649424
0.0161288 0.599252 0.0601816
0.0311437 0.600412 0.055375
0.0587778 0.60325 0.0525368
0.0864271 0.605859 0.0496986
0.113725 0.610697 0.0482948
0.141253 0.615534 0.0469978
0.16994 0.622278 0.0457923
0.198886 0.629343 0.0445869
0.230991 0.635538 0.0408179
0.263844 0.641642 0.0362402
0.301549 0.643122 0.0278019
0.341573 0.642603 0.0175784
0.386709 0.637018 0.00949111
0.435004 0.627192 0.0031281
0.481331 0.611963 0
0.525765 0.591455 0
0.572519 0.580118 0
0.62237 0.58088 0
0.671 0.585443 0
0.715953 0.595895 0
0.757946 0.603861 1.5259e-05
0.791394 0.605509 3.0518e-05
0.824384 0.60676 0.000228885
0.857176 0.607569 0.0016022
0.890059 0.608362 0.00306706
0.923613 0.60853 0.00491341
0.956909 0.608927 0.00665293
0.983459 0.60795 0.00668345
1 0.607187 0.00669871
0 0.625605 0.0804608
0 0.624994 0.079881
0 0.625635 0.0742657
0 0.626535 0.0686351
0.0129397 0.627649 0.0636759
0.0259403 0.629023 0.058732
0.0523079 0.631556 0.0555581
0.0800946 0.633997 0.0525063
0.107683 0.638407 0.0507668
0.135241 0.642939 0.0492866
0.163516 0.649226 0.0481727
0.191867 0.655756 0.0471656
0.222629 0.66276 0.0446632
0.254582 0.669825 0.0413519
0.289738 0.673579 0.0345769
0.326879 0.675151 0.0253147
0.369635 0.673472 0.016083
0.417807 0.668986 0.00717174
0.4645 0.657206 0.0015259
0.508766 0.634348 0.000564584
0.55378 0.616098 0
0.602335 0.606836 0
0.651652 0.603494 0
0.703227 0.616312 0
0.752087 0.628367 0
0.787884 0.631632 1.5259e-05
0.823255 0.634379 3.0518e-05
0.855634 0.635477 3.0518e-05
0.887907 0.636286 3.0518e-05
0.92079 0.636881 0.00299077
0.953994 0.637476 0.00607309
0.981109 0.636622 0.0065156
1 0.635874 0.00657664
0 0.654093 0.083772
0 0.653346 0.0836805
0 0.654215 0.0780346
0 0.6551 0.0723583
0.0100252 0.656138 0.0672007
0.0210575 0.657435 0.0621805
0.0460059 0.65948 0.0585794
0.0738994 0.661982 0.0553445
0.101549 0.665934 0.0532845
0.128923 0.67013 0.0516213
0.156939 0.675898 0.0504311
0.185214 0.682124 0.0494698
0.215 0.689143 0.0476997
0.246036 0.696284 0.0451972
0.279149 0.701869 0.0403449
0.315099 0.705562 0.0328374
0.354421 0.70631 0.0241245
0.398627 0.703349 0.0138552
0.444099 0.696635 0.00579843
0.492699 0.682551 0.00247196
0.539986 0.666743 0
0.584161 0.647135 0
0.629068 0.631769 0
0.680461 0.636194 0
0.73135 0.641672 0
0.775601 0.651164 1.5259e-05
0.819089 0.660334 1.5259e-05
0.853193 0.662547 3.0518e-05
0.887175 0.664256 3.0518e-05
0.919875 0.665049 0.00149538
0.952438 0.665431 0.00321965
0.979492 0.665003 0.00364691
1 0.664332 0.00376898
0 0.68278 0.087068
0 0.682033 0.0869764
0 0.68275 0.0817884
0 0.683375 0.0760815
0.00740063 0.684565 0.0708019
0.0166171 0.685847 0.0656138
0.0396124 0.687648 0.0616922
0.0676127 0.689998 0.0582742
0.0951858 0.693263 0.0558633
0.122805 0.697459 0.0540169
0.150683 0.702495 0.0526589
0.178698 0.708614 0.0517281
0.207477 0.715373 0.0504311
0.237629 0.722728 0.0486763
0.269444 0.729534 0.0453803
0.304006 0.734829 0.0395209
0.340063 0.738247 0.0321508
0.380667 0.736706 0.0209659
0.423743 0.734218 0.0109255
0.4757 0.727779 0.00511177
0.526497 0.718044 0.000167849
0.566537 0.689921 6.10361e-05
0.607279 0.661982 0
0.658137 0.657877 0
0.709194 0.654475 0
0.761105 0.669444 0
0.813046 0.685069 0
0.850721 0.689235 1.5259e-05
0.886412 0.692103 3.0518e-05
0.919081 0.693202 0.000244144
0.950744 0.693614 0.000564584
0.97818 0.693385 0.000747692
1 0.692531 0.000854505
0 0.711452 0.0903487
0 0.710704 0.0902571
0 0.711254 0.0855879
0 0.711864 0.0797894
0.00520333 0.713008 0.0743572
0.0124819 0.713985 0.0690623
0.0329442 0.715816 0.0648814
0.0610513 0.718013 0.0612955
0.0889448 0.720928 0.0585336
0.11664 0.724865 0.0565042
0.144228 0.729397 0.0549477
0.172137 0.735195 0.0539254
0.200717 0.741405 0.0527504
0.230274 0.748882 0.0513466
0.26096 0.756054 0.049012
0.294072 0.762173 0.04448
0.328557 0.767346 0.0387579
0.367224 0.767773 0.028809
0.407172 0.767651 0.0190433
0.455055 0.762768 0.0106813
0.503563 0.756832 0.00267033
0.549981 0.737102 0.00131228
0.595926 0.71722 4.57771e-05
0.640772 0.700893 0
0.686412 0.684962 0
0.738201 0.690135 0
0.790921 0.698955 0
0.836393 0.707561 1.5259e-05
0.878981 0.715923 1.5259e-05
0.915587 0.719493 3.0518e-05
0.949462 0.72134 3.0518e-05
0.978073 0.72163 4.57771e-05
1 0.72076 4.57771e-05
0.0167391 0.738491 0.123278
0.0157473 0.73785 0.121447
0.00952163 0.738537 0.107683
0.00230411 0.740017 0.090959
0.00329595 0.741344 0.080705
0.00860609 0.742412 0.0732891
0.0264591 0.744106 0.068101
0.0546883 0.745922 0.0643168
0.0824598 0.748699 0.0612955
0.110262 0.752148 0.0590372
0.138033 0.756497 0.0572366
0.165835 0.761944 0.0561227
0.194034 0.767727 0.0550088
0.222812 0.775021 0.0539559
0.252506 0.782132 0.0524147
0.284642 0.78941 0.0491493
0.317403 0.796109 0.0451514
0.353841 0.798459 0.0364843
0.390845 0.800839 0.0276646
