LUT/LumixLab/Summer Freshness.cube
TITLE "Generated by Resolve"
LUT_3D_SIZE 5
#LUMIXPHOTOSTYLE PORT
0.01178 0.0360723 0.0467231
0.303578 0.0931563 0.079408
0.705028 0.161135 0.113268
0.925795 0.260441 0.148791
1 0.376684 0.186404
0.0136263 0.247837 0.144884
0.158053 0.229206 0.0869612
0.538277 0.304341 0.117525
0.881331 0.390219 0.153262
1 0.492241 0.191135
0.0179751 0.5346 0.258915
0.125017 0.514641 0.192096
0.370428 0.514778 0.125948
0.828504 0.607721 0.157778
1 0.664988 0.195895
0.0210117 0.791028 0.386877
0.0899825 0.778088 0.310048
0.340246 0.774395 0.243854
0.727077 0.794186 0.164889
1 0.86836 0.200687
0.0213321 0.981292 0.522881
0.0516823 0.974578 0.439231
0.299382 0.972122 0.368902
0.692027 0.993103 0.283528
0.947051 1 0.205509
0.0212711 0.0474556 0.257618
0.185183 0.0316167 0.250935
0.563867 0.0901045 0.28687
0.888655 0.170626 0.326085
1 0.273365 0.35964
0.0120089 0.222812 0.252415
0.17409 0.217212 0.262425
0.549294 0.28188 0.296925
0.884535 0.366415 0.326101
1 0.461967 0.35964
0.013901 0.520638 0.343084
0.132219 0.51487 0.353628
0.397498 0.502983 0.302312
0.833631 0.577462 0.330358
1 0.635889 0.363989
0.0178836 0.787945 0.441794
0.0967727 0.785168 0.453193
0.354208 0.77496 0.401343
0.746624 0.791882 0.33669
1 0.847852 0.368139
0.01944 0.983978 0.544625
0.0588235 0.984009 0.555993
0.307759 0.974121 0.500221
0.713558 0.9906 0.43946
0.95816 1 0.37232
0.0307927 0.059266 0.52221
0.19353 0.0413367 0.516457
0.436622 0.0262608 0.511635
0.845838 0.0898909 0.538048
1 0.170611 0.565469
0.0212711 0.230808 0.516457
0.184833 0.224918 0.524788
0.427558 0.207279 0.520317
0.842268 0.289723 0.548241
1 0.383795 0.575784
0.0120851 0.503883 0.513176
0.176059 0.499718 0.521843
0.415885 0.496376 0.529747
0.837049 0.55288 0.552987
1 0.611276 0.575387
0.012726 0.789899 0.579156
0.138491 0.786587 0.587045
0.361227 0.781628 0.593668
0.765728 0.786343 0.556435
1 0.821164 0.578515
0.0156252 0.991791 0.644785
0.102266 0.990082 0.652857
0.312291 0.986969 0.660319
0.741238 0.98735 0.630106
0.972107 1 0.581384
0.0402838 0.0775006 0.788403
0.209888 0.0590066 0.785916
0.449287 0.0411231 0.783413
0.797223 0.0254978 0.781186
1 0.0898451 0.791089
0.0307927 0.257908 0.785916
0.201053 0.251759 0.789487
0.44004 0.230213 0.787167
0.793088 0.211475 0.785
1 0.295705 0.795514
0.0212711 0.522942 0.783413
0.193347 0.518761 0.787167
0.431128 0.514626 0.790677
0.788983 0.501045 0.788769
1 0.562554 0.801389
0.0120089 0.783261 0.781765
0.184894 0.781537 0.785473
0.42211 0.78027 0.789258
0.788128 0.790951 0.794339
1 0.812222 0.804135
0.01178 1 0.810361
0.145144 1 0.814008
0.365148 0.997833 0.816403
0.760571 0.991333 0.822766
0.986999 1 0.804807
0.0498054 0.0968948 1
0.226566 0.0775006 1
0.467048 0.0590066 1
0.803784 0.0411078 1
1 0.0235294 1
0.0402838 0.286732 1
0.217655 0.280324 1
0.457527 0.257923 1
0.799588 0.235752 1
1 0.214359 1
0.0307927 0.543313 1
0.209842 0.539223 1
0.44831 0.535149 1
0.79559 0.519692 1
1 0.503273 1
0.0212711 0.791043 1
0.20209 0.789517 1
0.44033 0.78822 1
0.795529 0.798321 1
1 0.792187 1
0.01178 1 1
0.194415 1 1
0.432349 1 1
0.791959 1 1
1 1 1
