LUT/LumixLab/Summer Freshness.cube
TITLE "Generated by Resolve"
LUT_3D_SIZE 9
#LUMIXPHOTOSTYLE PORT
0.01178 0.0360723 0.0467231
0.143847 0.0643015 0.0630503
0.303578 0.0931563 0.079408
0.495079 0.124819 0.0961624
0.705028 0.161135 0.113268
0.847028 0.20763 0.1308
0.925795 0.260441 0.148791
0.972641 0.317159 0.16733
1 0.376684 0.186404
0.0119631 0.128099 0.094728
0.0716259 0.117983 0.0670939
0.229404 0.151308 0.0814374
0.405051 0.178103 0.0982376
0.622385 0.210163 0.115389
0.803174 0.256825 0.132982
0.904433 0.308675 0.151049
0.963455 0.364889 0.169604
1 0.426474 0.188769
0.0136263 0.247837 0.144884
0.0626993 0.234119 0.114443
0.158053 0.229206 0.0869612
0.32929 0.275975 0.100313
0.538277 0.304341 0.117525
0.752422 0.343648 0.135164
0.881331 0.390219 0.153262
0.95407 0.440497 0.171939
1 0.492241 0.191135
0.0155032 0.390036 0.199786
0.0549477 0.376913 0.166567
0.143374 0.367544 0.138338
0.252369 0.366506 0.106874
0.459525 0.420371 0.119631
0.694835 0.456214 0.137331
0.856138 0.492088 0.15552
0.944442 0.531487 0.174243
1 0.572396 0.1935
0.0179751 0.5346 0.258915
0.047837 0.523659 0.223301
0.125017 0.514641 0.192096
0.23563 0.508705 0.161059
0.370428 0.514778 0.125948
0.632792 0.578408 0.139544
0.828504 0.607721 0.157778
0.934569 0.635523 0.176562
1 0.664988 0.195895
0.0196231 0.673106 0.321584
0.0419471 0.665034 0.283543
0.108309 0.655451 0.249546
0.215702 0.653727 0.218769
0.353063 0.652476 0.182193
0.537148 0.662577 0.144823
0.798093 0.725551 0.160052
0.924376 0.748165 0.178882
1 0.766217 0.198291
0.0210117 0.791028 0.386877
0.0367437 0.784955 0.347082
0.0899825 0.778088 0.310048
0.19295 0.775494 0.277348
0.340246 0.774395 0.243854
0.512184 0.785092 0.200931
0.727077 0.794186 0.164889
0.913832 0.851423 0.181231
1 0.86836 0.200687
0.0204471 0.892256 0.454109
0.0296788 0.88751 0.412711
0.071107 0.881697 0.373434
0.169802 0.87686 0.338354
0.320531 0.88043 0.306142
0.498466 0.884886 0.265385
0.702739 0.90135 0.219318
0.860609 0.905837 0.185122
1 0.958968 0.203113
0.0213321 0.981292 0.522881
0.0237125 0.977798 0.480461
0.0516823 0.974578 0.439231
0.144717 0.970184 0.401389
0.299382 0.972122 0.368902
0.486534 0.974563 0.331777
0.692027 0.993103 0.283528
0.847211 1 0.242054
0.947051 1 0.205509
0.0165408 0.0417487 0.144274
0.0823224 0.0340124 0.140948
0.240269 0.0622721 0.157595
0.417884 0.09337 0.177905
0.635386 0.12781 0.197925
0.810346 0.170626 0.217334
0.90782 0.218128 0.234226
0.964843 0.261387 0.242161
1 0.318242 0.26038
0.0119173 0.116091 0.141817
0.0758831 0.113527 0.146532
0.233814 0.141512 0.163485
0.4103 0.17348 0.182193
0.627695 0.203632 0.196445
0.80618 0.248859 0.213001
0.905806 0.300267 0.230655
0.964004 0.354711 0.248676
1 0.410773 0.267033
0.0118257 0.236469 0.188235
0.0660868 0.233356 0.193423
0.170108 0.222934 0.167285
0.335592 0.259678 0.18088
0.545663 0.287556 0.197879
0.757244 0.328511 0.215244
0.883467 0.374502 0.232975
0.954894 0.423377 0.251026
1 0.474891 0.269413
0.0137942 0.379721 0.237842
0.0585794 0.376379 0.243397
0.148928 0.363149 0.214313
0.265461 0.359579 0.18764
0.466621 0.407584 0.199969
0.700191 0.439887 0.21738
0.858488 0.475944 0.235142
0.945296 0.515755 0.253239
1 0.556725 0.271672
0.0159609 0.52723 0.290898
0.0513771 0.524422 0.296895
0.128939 0.513283 0.266255
0.244022 0.506203 0.238956
0.382895 0.508904 0.206714
0.638422 0.567544 0.219516
0.831083 0.593378 0.237324
0.935454 0.621317 0.255482
1 0.651118 0.273945
0.0182498 0.668208 0.346746
0.0458991 0.666865 0.352941
0.111269 0.657633 0.320775
0.220981 0.650965 0.292058
0.366506 0.648646 0.261311
0.548623 0.658808 0.224903
0.800916 0.716609 0.239536
0.925307 0.735698 0.257725
1 0.753872 0.276234
0.01944 0.78912 0.404593
0.0402686 0.788357 0.41091
0.0928511 0.781674 0.377264
0.197406 0.774517 0.346426
0.347951 0.775402 0.318227
0.525032 0.782162 0.279332
0.7364 0.793042 0.244205
0.914794 0.844343 0.259968
1 0.859403 0.278508
0.0204471 0.890822 0.463905
0.0342718 0.890669 0.470115
0.073991 0.886061 0.435325
0.172793 0.879866 0.402472
0.32604 0.880568 0.37435
0.512154 0.883482 0.339742
0.711772 0.900282 0.296086
0.868482 0.906645 0.263661
1 0.952834 0.280766
0.0213321 0.981277 0.523995
0.0283207 0.981506 0.530144
0.0554513 0.978592 0.494743
0.147814 0.974258 0.460151
0.303883 0.97232 0.43064
0.496147 0.976165 0.400122
0.702007 0.991699 0.356817
0.853269 1 0.317388
0.952224 1 0.28307
0.0212711 0.0474556 0.257618
0.0865797 0.0385901 0.253788
0.185183 0.0316167 0.250935
0.351324 0.0590219 0.266224
0.563867 0.0901045 0.28687
0.768826 0.127581 0.30779
0.888655 0.170626 0.326085
0.956939 0.219593 0.343038
1 0.273365 0.35964
0.0165408 0.119234 0.253788
0.0818036 0.116701 0.259251
0.18085 0.109499 0.256641
0.346578 0.1364 0.272267
0.55848 0.168734 0.293095
0.765438 0.213504 0.312978
0.887129 0.263233 0.330571
0.956344 0.314137 0.345403
1 0.361746 0.354696
0.0120089 0.222812 0.252415
0.0773022 0.220081 0.258137
0.17409 0.217212 0.262425
0.338674 0.247623 0.278202
0.549294 0.28188 0.296925
0.759625 0.322072 0.311009
0.884535 0.366415 0.326101
0.955322 0.413855 0.342809
1 0.461967 0.35964
0.01178 0.369863 0.296635
0.0678874 0.367117 0.302556
0.152102 0.363546 0.306523
0.277821 0.353979 0.282963
0.473304 0.39089 0.29546
0.705516 0.4224 0.311803
0.860807 0.459205 0.328328
0.946181 0.49897 0.345022
1 0.539864 0.361929
0.013901 0.520638 0.343084
0.0605325 0.518212 0.349203
0.132219 0.51487 0.353628
0.249027 0.503426 0.327535
0.397498 0.502983 0.302312
0.644053 0.553094 0.313802
0.833631 0.577462 0.330358
0.936339 0.605875 0.347112
1 0.635889 0.363989
0.0163119 0.664561 0.391546
0.0558785 0.662791 0.398001
0.114336 0.660746 0.402777
0.224201 0.651316 0.375998
0.377554 0.647318 0.351781
0.561181 0.65507 0.318929
0.803738 0.70489 0.332387
0.926207 0.721935 0.349142
1 0.740551 0.366079
0.0178836 0.787945 0.441794
0.0503243 0.78703 0.448371
0.0967727 0.785168 0.453193
0.19971 0.77818 0.425574
0.354208 0.77496 0.401343
0.539696 0.779065 0.369741
0.746624 0.791882 0.33669
0.91574 0.836286 0.351202
1 0.847852 0.368139
0.0186923 0.891752 0.493034
0.0443732 0.891203 0.499596
0.0785229 0.889738 0.504341
0.174868 0.884779 0.475975
0.330785 0.879927 0.450507
0.524727 0.883101 0.424063
0.722225 0.898116 0.384833
0.877104 0.907439 0.354604
1 0.945937 0.37023
0.01944 0.983978 0.544625
0.0378576 0.984192 0.551293
0.0588235 0.984009 0.555993
0.15021 0.979416 0.526894
0.307759 0.974121 0.500221
0.504036 0.979141 0.476661
0.713558 0.9906 0.43946
0.859998 1 0.403311
0.95816 1 0.37232
0.0260319 0.0531472 0.385458
0.0927443 0.0442817 0.381979
0.187732 0.0354467 0.3785
0.296666 0.0289464 0.376104
0.495048 0.0560159 0.389548
0.722148 0.0898909 0.408667
0.86807 0.127581 0.426627
0.948913 0.170626 0.443
1 0.219577 0.458824
0.0212711 0.122911 0.381979
0.087953 0.120287 0.386954
0.183383 0.111223 0.383719
0.292454 0.104417 0.381323
0.489998 0.130953 0.39498
0.71841 0.170947 0.41442
0.866423 0.216663 0.432486
0.948287 0.26659 0.448814
1 0.319783 0.46392
0.0165408 0.226032 0.3785
0.0837262 0.223301 0.383719
0.179095 0.220203 0.388525
0.288273 0.212619 0.386557
0.485023 0.243198 0.400702
0.714626 0.286778 0.420432
0.864775 0.332998 0.437583
0.947662 0.380636 0.452827
1 0.42855 0.467094
0.0120699 0.357137 0.377798
0.0791943 0.354513 0.382986
0.174136 0.351904 0.388266
0.281331 0.349523 0.392172
0.475746 0.377615 0.405844
0.70753 0.415824 0.422446
0.861646 0.452644 0.435599
0.946487 0.49012 0.448539
1 0.529351 0.463233
0.01178 0.513848 0.417151
0.0699168 0.511727 0.422477
0.152804 0.509377 0.427665
0.252049 0.50602 0.43064
0.411505 0.498238 0.410574
0.649668 0.535866 0.421347
0.836164 0.560265 0.43592
0.93724 0.589075 0.450553
1 0.619562 0.465232
0.0135348 0.662531 0.458015
0.0646677 0.6607 0.463325
0.134951 0.658305 0.468482
0.227253 0.655161 0.471901
0.383719 0.646082 0.450721
0.575372 0.650736 0.426352
0.8065 0.690181 0.437705
0.927123 0.70695 0.452323
1 0.725887 0.467048
0.0156405 0.78822 0.499718
0.0601358 0.786786 0.505028
0.117189 0.785458 0.510597
0.202518 0.783413 0.514382
0.358007 0.775708 0.492882
0.555673 0.77615 0.471397
0.756176 0.789258 0.441459
0.916701 0.825925 0.454124
1 0.834714 0.468833
0.0169528 0.893538 0.542321
0.0545052 0.892607 0.547677
0.0994125 0.891356 0.55314
0.177737 0.890608 0.557061
0.333257 0.884092 0.535134
0.534752 0.884825 0.516457
0.733913 0.896056 0.483879
0.886152 0.907774 0.457069
1 0.93843 0.470649
0.0182345 0.98674 0.584924
0.0492561 0.985901 0.590326
0.0808576 0.985885 0.595834
0.153323 0.985519 0.599634
0.308843 0.980774 0.57734
0.510323 0.980499 0.559197
0.72639 0.98909 0.53135
0.867369 1 0.499138
0.964843 1 0.47245
0.0307927 0.059266 0.52221
0.0991226 0.0502174 0.519341
0.19353 0.0413367 0.516457
0.298528 0.0325017 0.513558
0.436622 0.0262608 0.511635
0.671336 0.0558022 0.522805
0.845838 0.0898909 0.538048
0.940688 0.127565 0.552316
1 0.170611 0.565469
0.0260319 0.127092 0.519341
0.094316 0.124529 0.523507
0.189181 0.115282 0.52079
0.294331 0.106188 0.517891
0.432074 0.099855 0.515984
0.667338 0.132891 0.527291
0.844053 0.173785 0.542977
0.940047 0.219791 0.557244
1 0.269978 0.570611
0.0212711 0.230808 0.516457
0.0900893 0.228046 0.52079
0.184833 0.224918 0.524788
0.29012 0.214694 0.52224
0.427558 0.207279 0.520317
0.66331 0.245411 0.532158
0.842268 0.289723 0.548241
0.939406 0.33608 0.562493
1 0.383795 0.575784
0.0165408 0.360601 0.513558
0.0858625 0.357977 0.517891
0.181018 0.355383 0.52224
0.286 0.3523 0.526146
0.423148 0.345525 0.524681
0.659297 0.381857 0.537285
0.840482 0.422171 0.553506
0.938766 0.462608 0.567178
1 0.502846 0.579461
0.0120851 0.503883 0.513176
0.0813916 0.501823 0.51751
0.176059 0.499718 0.521843
0.280644 0.497597 0.526207
0.415885 0.496376 0.529747
0.651621 0.5243 0.54136
0.837049 0.55288 0.552987
0.937545 0.582925 0.565087
1 0.611276 0.575387
0.01178 0.658473 0.545571
0.0744945 0.657023 0.54992
0.156756 0.655543 0.554223
0.253803 0.653758 0.558373
0.387304 0.650645 0.560388
0.591791 0.647135 0.544701
0.809415 0.674418 0.553384
0.928084 0.691569 0.56524
1 0.710994 0.57705
0.012726 0.789899 0.579156
0.0684215 0.788785 0.583368
0.138491 0.786587 0.587045
0.228412 0.784756 0.591089
0.361227 0.781628 0.593668
0.567025 0.776455 0.579278
0.765728 0.786343 0.556435
0.917678 0.812528 0.56669
1 0.821164 0.578515
0.0144808 0.896803 0.611795
0.0638743 0.895582 0.615747
0.119997 0.895003 0.620081
0.203647 0.893309 0.62417
0.336461 0.890379 0.627146
0.541146 0.885756 0.613199
0.747356 0.893599 0.591684
0.895201 0.907668 0.56907
1 0.930388 0.579965
0.0156252 0.991791 0.644785
0.0582589 0.990768 0.648844
0.102266 0.990082 0.652857
0.179202 0.989242 0.657206
0.312291 0.986969 0.660319
0.514885 0.982437 0.646082
0.741238 0.98735 0.630106
0.875532 0.999939 0.602655
0.972107 1 0.581384
0.0355383 0.0680858 0.66009
0.107973 0.0590066 0.658
0.201587 0.0500038 0.655894
0.306355 0.0411231 0.653803
0.440574 0.0323033 0.651682
0.622049 0.0260014 0.650263
0.821759 0.0558022 0.658289
0.93225 0.0898756 0.668299
1 0.127535 0.67834
0.0307927 0.138918 0.658
0.103182 0.136126 0.661006
0.197177 0.126589 0.659037
0.302083 0.117159 0.656947
0.435966 0.107988 0.654856
0.617929 0.101686 0.653422
0.819852 0.135409 0.661494
0.931594 0.176638 0.671977
1 0.22295 0.682368
0.0260319 0.243885 0.655894
0.098909 0.241123 0.659037
0.192844 0.237873 0.661967
0.297826 0.227451 0.66009
0.431479 0.2168 0.658
0.61384 0.209445 0.65658
0.817899 0.248234 0.664927
0.930938 0.292729 0.67602
1 0.339162 0.686366
0.0212711 0.372854 0.653803
0.0947127 0.37026 0.656947
0.188983 0.367636 0.66009
0.29366 0.364523 0.662943
0.427024 0.354788 0.661158
0.609735 0.347631 0.659709
0.815961 0.384482 0.668833
0.930266 0.424826 0.680186
1 0.465263 0.690486
0.0165408 0.512627 0.651682
0.0905013 0.510552 0.654856
0.185168 0.508446 0.658
0.289967 0.506355 0.661158
0.422766 0.504341 0.663996
0.605875 0.499428 0.662959
0.814115 0.528923 0.673167
0.929671 0.560494 0.684474
1 0.591638 0.694408
0.0120699 0.651652 0.651301
0.0860914 0.650233 0.654444
0.180362 0.648798 0.657618
0.284794 0.647303 0.660731
0.417365 0.646555 0.663996
0.60322 0.655222 0.667811
0.812207 0.673716 0.676158
0.92903 0.693401 0.684443
1 0.713771 0.693095
0.01178 0.787289 0.674861
0.0792859 0.78645 0.677989
0.161013 0.785611 0.681117
0.257557 0.784756 0.684184
0.388983 0.783795 0.687099
0.576028 0.785275 0.689464
0.777386 0.788693 0.677455
0.919295 0.804288 0.684718
1 0.81326 0.693172
0.01178 0.900359 0.699641
0.0723278 0.899886 0.702647
0.141054 0.899062 0.705364
0.230961 0.897276 0.707652
0.362432 0.894621 0.709804
0.548837 0.893477 0.713298
0.764385 0.893568 0.704051
0.903639 0.908522 0.686427
1 0.921096 0.694209
0.0129854 0.99733 0.722286
0.067155 0.996338 0.724773
0.122774 0.996048 0.727672
0.206348 0.994217 0.730022
0.337621 0.991653 0.732586
0.522377 0.988724 0.73669
0.753689 0.989273 0.730419
0.88661 0.998123 0.711269
0.97969 1 0.695216
0.0402838 0.0775006 0.788403
0.117098 0.0681468 0.787152
0.209888 0.0590066 0.785916
0.314519 0.0500038 0.784665
0.449287 0.0411231 0.783413
0.626291 0.0323033 0.782177
0.797223 0.0254978 0.781186
0.923568 0.055787 0.786114
1 0.0898451 0.791089
0.0355383 0.151751 0.787152
0.112276 0.148913 0.788907
0.205402 0.138903 0.787762
0.310124 0.129061 0.786542
0.444663 0.119524 0.78529
0.622187 0.110307 0.784054
0.795163 0.103456 0.783108
0.922927 0.137926 0.7879
1 0.179507 0.793011
0.0307927 0.257908 0.785916
0.108003 0.25507 0.787762
0.201053 0.251759 0.789487
0.305852 0.241108 0.788403
0.44004 0.230213 0.787167
0.618051 0.219501 0.785916
0.793088 0.211475 0.785
0.92224 0.251072 0.789792
1 0.295705 0.795514
0.0260319 0.385763 0.784665
0.103746 0.383185 0.786542
0.197177 0.380514 0.788403
0.301595 0.377401 0.790066
0.435477 0.367605 0.789014
0.613931 0.357412 0.787762
0.790967 0.34963 0.786847
0.921553 0.387137 0.791699
1 0.427466 0.798398
0.0212711 0.522942 0.783413
0.0995346 0.520806 0.78529
0.193347 0.518761 0.787167
0.297826 0.516625 0.789014
0.431128 0.514626 0.790677
0.610101 0.507301 0.789685
0.788983 0.501045 0.788769
0.920928 0.530999 0.794415
1 0.562554 0.801389
0.0165408 0.658015 0.782177
0.0952926 0.656535 0.784054
0.189532 0.655085 0.785916
0.294133 0.653635 0.787762
0.427329 0.652903 0.789685
0.609735 0.660792 0.791989
0.788922 0.657313 0.791302
0.920913 0.677974 0.798077
1 0.699519 0.80502
0.0120089 0.783261 0.781765
0.0909438 0.782452 0.783612
0.184894 0.781537 0.785473
0.289219 0.780713 0.787335
0.42211 0.78027 0.789258
0.605081 0.785443 0.791791
0.788128 0.790951 0.794339
0.920424 0.800748 0.798932
1 0.812222 0.804135
0.01178 0.898421 0.795911
0.084062 0.898039 0.797696
0.165316 0.897658 0.799558
0.261494 0.897307 0.801419
0.392813 0.897093 0.803281
0.577646 0.898039 0.805066
0.774716 0.897231 0.808133
0.909545 0.907164 0.799634
1 0.911604 0.804196
0.01178 1 0.810361
0.0770886 1 0.812192
0.145144 1 0.814008
0.233829 0.999893 0.815686
0.365148 0.997833 0.816403
0.550561 0.994507 0.817853
0.760571 0.991333 0.822766
0.898543 0.996323 0.815503
0.986999 1 0.804807
0.0450141 0.0869459 0.899504
0.126314 0.0775006 0.898955
0.218189 0.0681468 0.898436
0.322805 0.0590066 0.897902
0.458045 0.0500038 0.897368
0.634058 0.0411078 0.896834
0.799924 0.0323033 0.8963
0.914946 0.0246738 0.895903
1 0.0557717 0.898054
0.0402838 0.165133 0.898955
0.121386 0.162142 0.899718
0.213733 0.151751 0.899229
0.318395 0.141497 0.898711
0.453407 0.131548 0.898161
0.629892 0.12195 0.897627
0.797803 0.112627 0.897108
0.914275 0.104845 0.89662
1 0.140475 0.898833
0.0355383 0.272129 0.898436
0.117098 0.269306 0.899229
0.209323 0.265858 0.899977
0.313985 0.255055 0.899504
0.448692 0.243915 0.898955
0.625757 0.23299 0.898436
0.795743 0.222217 0.897902
0.913588 0.213138 0.897459
1 0.25391 0.89958
0.0307927 0.398825 0.897902
0.112825 0.396139 0.898711
0.205432 0.393484 0.899504
0.309667 0.390387 0.900221
0.444022 0.380514 0.899763
0.621698 0.37023 0.899229
0.793698 0.360006 0.898711
0.912886 0.351232 0.898238
1 0.389761 0.900404
0.0260319 0.533181 0.897368
0.108598 0.53106 0.898161
0.201556 0.52903 0.898955
0.305837 0.526909 0.899763
0.439643 0.52491 0.900496
0.617823 0.517601 0.900053
0.791684 0.509392 0.899535
0.91223 0.502342 0.899077
1 0.533104 0.901198
0.0212711 0.665125 0.896834
0.104356 0.66363 0.897627
0.197726 0.662181 0.898436
0.302083 0.660792 0.899229
0.435767 0.66006 0.900053
0.617441 0.667903 0.901076
0.791653 0.663096 0.900618
0.912215 0.658213 0.900175
1 0.679408 0.902739
0.0165408 0.787045 0.8963
0.100099 0.786252 0.897108
0.193881 0.785367 0.897902
0.29836 0.784512 0.898711
0.431815 0.784085 0.899535
0.614054 0.789197 0.900618
0.791623 0.794232 0.901671
0.91223 0.791806 0.901289
1 0.803967 0.904891
0.0119173 0.896559 0.89601
0.0958114 0.896162 0.896773
0.189578 0.895796 0.897566
0.29395 0.895445 0.898375
0.4271 0.895232 0.899184
0.609751 0.89752 0.900282
0.789456 0.899962 0.901411
0.912093 0.902373 0.902663
1 0.906386 0.904692
0.01178 1 0.90219
0.0888533 1 0.902907
0.169574 1 0.903777
0.265446 1 0.904585
0.396948 1 0.905409
0.581064 0.999985 0.906508
0.775738 0.997147 0.906569
0.908705 0.996307 0.91014
0.993652 1 0.904799
0.0498054 0.0968948 1
0.135424 0.0870375 1
0.226566 0.0775006 1
0.331258 0.0681468 1
0.467048 0.0590066 1
0.641581 0.0500038 1
0.803784 0.0411078 1
0.916014 0.0323033 1
1 0.0235294 1
0.0450141 0.179217 1
0.130556 0.176043 1
0.222049 0.165194 1
0.326696 0.154437 1
0.462242 0.14406 1
0.637613 0.134066 1
0.801724 0.124361 1
0.915358 0.114992 1
1 0.105898 1
0.0402838 0.286732 1
0.126253 0.283665 1
0.217655 0.280324 1
0.322225 0.269245 1
0.457527 0.257923 1
0.633448 0.246738 1
0.799588 0.235752 1
0.914687 0.224948 1
1 0.214359 1
0.0355383 0.411643 1
0.121965 0.409125 1
0.213733 0.406455 1
0.317861 0.403296 1
0.452796 0.393454 1
0.629343 0.383139 1
0.797589 0.372839 1
0.91397 0.362615 1
1 0.352407 1
0.0307927 0.543313 1
0.117693 0.541253 1
0.209842 0.539223 1
0.313985 0.537133 1
0.44831 0.535149 1
0.625544 0.527855 1
0.79559 0.519692 1
0.913329 0.511513 1
1 0.503273 1
0.0260319 0.67219 1
0.113451 0.670817 1
0.205951 0.669291 1
0.310155 0.667872 1
0.444358 0.66714 1
0.625177 0.674952 1
0.79556 0.670176 1
0.913314 0.664561 1
1 0.658885 1
0.0212711 0.791043 1
0.109194 0.790295 1
0.20209 0.789517 1
0.306371 0.788632 1
0.44033 0.78822 1
0.621775 0.793301 1
0.795529 0.798321 1
0.913283 0.795438 1
1 0.792187 1
0.0165408 0.898375 1
0.104952 0.897917 1
0.198245 0.89752 1
0.302602 0.897185 1
0.436332 0.896986 1
0.618189 0.899229 1
0.793774 0.901732 1
0.913329 0.904036 1
1 0.902678 1
0.01178 1 1
0.100725 1 1
0.194415 1 1
0.298878 1 1
0.432349 1 1
0.614542 1 1
0.791959 1 1
0.912734 1 1
1 1 1
