LUT/LumixLab/Summer Gold.cube
TITLE "Generated by Resolve"
#LUMIXPHOTOSTYLE NAT
LUT_3D_SIZE 9
0.0359045 0.0360113 0.0354772
0.0804303 0.0644388 0.0639811
0.175113 0.104738 0.104158
0.330022 0.135485 0.134325
0.513436 0.126513 0.121706
0.676555 0.0816205 0.0736553
0.818845 0.0182498 0.0178073
0.955016 0.0159152 0.015671
1 0.0769207 0.075227
0.0707713 0.0979019 0.0767224
0.105516 0.1037 0.0737011
0.209064 0.116686 0.0710765
0.367788 0.122621 0.0375982
0.528969 0.127687 0.0110628
0.671153 0.128191 0.0100404
0.806363 0.126558 0.00889601
0.94255 0.124773 0.00770581
1 0.12137 0.00758373
0.0390784 0.189303 0.0713817
0.0788281 0.198154 0.0469673
0.201816 0.183948 7.62951e-05
0.354833 0.218006 0.00823987
0.514366 0.236194 0.00805676
0.658289 0.240574 0.00794995
0.793866 0.240131 0.00782788
0.930114 0.238651 0.00766003
1 0.235462 0.00750744
7.62951e-05 0.308965 0.0438239
0.0537575 0.31429 0.0296635
0.164141 0.330831 0.0166934
0.328344 0.307439 0
0.500557 0.342 0.00234989
0.645289 0.352041 0.00784314
0.78114 0.352956 0.00770581
0.917388 0.352544 0.00753796
1 0.34995 0.00737011
0 0.442908 0.0591897
0.0359655 0.446448 0.0426184
0.141604 0.46424 0.0353857
0.283284 0.468864 0.0108797
0.467155 0.438331 0
0.635096 0.462409 0.00178531
0.768719 0.465614 0.00556954
0.904952 0.466529 0.00732433
1 0.464256 0.00714122
0 0.567254 0.0737011
0.0197147 0.569955 0.056611
0.119829 0.582666 0.0458534
0.239658 0.607034 0.035996
0.404013 0.596414 0.00437934
0.592828 0.551766 0
0.760113 0.576822 3.0518e-05
0.892424 0.580148 0.0061799
1 0.578515 0.00680552
0 0.68278 0.087068
0.00740063 0.684565 0.0708019
0.0951858 0.693263 0.0558633
0.207477 0.715373 0.0504311
0.340063 0.738247 0.0321508
0.526497 0.718044 0.000167849
0.709194 0.654475 0
0.886412 0.692103 3.0518e-05
1 0.692531 0.000854505
0.111528 0.785779 0.270039
0.0123903 0.796185 0.117647
0.0697948 0.805173 0.0670024
0.180987 0.821546 0.0593423
0.298863 0.849561 0.0535744
0.445106 0.861341 0.021973
0.637949 0.822889 0.000106813
0.82501 0.770428 0
0.999237 0.803357 1.5259e-05
0.482399 0.843885 0.567376
0.447562 0.847761 0.540871
0.322377 0.873426 0.427878
0.263142 0.904387 0.283421
0.308629 0.93872 0.184726
0.416159 0.971374 0.121187
0.578302 0.970657 0.102815
0.775219 0.911772 0.193484
0.917342 0.864408 0.284153
0.0461433 0.0461891 0.0560922
0.0861982 0.0683299 0.0812543
0.178744 0.104417 0.121279
0.333074 0.133165 0.158999
0.517098 0.119371 0.162524
0.679164 0.0543221 0.136645
0.817349 0.0117037 0.127504
0.953475 0.0106508 0.125551
1 0.0105898 0.123156
0.0750134 0.0991226 0.0959182
0.106661 0.103731 0.100313
0.209796 0.111376 0.105745
0.369863 0.107591 0.100237
0.536751 0.0783703 0.0726635
0.677501 0.0595712 0.0523079
0.810941 0.0515602 0.0448463
0.945327 0.0521706 0.0457313
1 0.0814374 0.0745403
0.0447547 0.186709 0.110246
0.0746471 0.19118 0.0939193
0.20473 0.186908 0.0522011
0.360586 0.211475 0.0548714
0.519814 0.223697 0.0487373
0.662165 0.225132 0.0441901
0.796643 0.223072 0.0412299
0.93164 0.220645 0.0394598
1 0.222385 0.0646983
0 0.300389 0.129061
0.0220951 0.306416 0.0783398
0.162432 0.327779 0.0598764
0.328817 0.307713 0.00740063
0.501762 0.338659 0.0280919
0.646922 0.346288 0.040116
0.782589 0.34583 0.038529
0.918105 0.345144 0.0375067
1 0.343526 0.0588846
0 0.434256 0.148577
0.0100252 0.438926 0.0938888
0.137087 0.458366 0.0696269
0.283528 0.467048 0.0426032
0.466529 0.437263 0.00334173
0.634577 0.459892 0.00856031
0.768475 0.462303 0.0362097
0.904372 0.46276 0.0362554
1 0.460472 0.0532235
0 0.559503 0.159045
0.00796521 0.562768 0.109621
0.114321 0.57702 0.0771954
0.241123 0.602747 0.067277
0.404837 0.594507 0.0288701
0.592004 0.549767 0.000122072
0.75903 0.575067 3.0518e-05
0.891325 0.577569 0.0318761
1 0.57612 0.0471351
0 0.67602 0.164813
0.00401312 0.677913 0.122316
0.091249 0.688548 0.087129
0.210208 0.710445 0.080705
0.344182 0.734432 0.0628214
0.528252 0.716793 0.0234684
0.707805 0.654078 0
0.884581 0.690318 3.0518e-05
1 0.691127 0.00587472
0.0174105 0.790265 0.184024
0.00395209 0.792386 0.13637
0.0687114 0.800748 0.0994278
0.184863 0.816541 0.0907912
0.304723 0.844968 0.085008
0.450141 0.857633 0.053254
0.639155 0.819593 0.0136416
0.823453 0.769375 0
0.998077 0.801831 1.5259e-05
0.441367 0.849867 0.538125
0.420768 0.850736 0.521721
0.244175 0.883421 0.350134
0.206226 0.912032 0.206561
0.280888 0.943847 0.113588
0.405798 0.972457 0.0927749
0.571954 0.970397 0.0860609
0.771374 0.912108 0.173953
0.918425 0.864179 0.242573
0.0699321 0.0700999 0.10721
0.104173 0.0822919 0.134432
0.187839 0.107668 0.169665
0.34023 0.127382 0.220829
0.52314 0.102251 0.247349
0.679927 0.031693 0.246601
0.815641 0.0112154 0.245472
0.951782 0.0101167 0.244144
1 0.00972 0.241367
0.0780194 0.11075 0.16405
0.10898 0.105028 0.16968
0.212818 0.106401 0.186892
0.372122 0.0942855 0.212345
0.537148 0.0601358 0.221469
0.676005 0.0508736 0.221256
0.809552 0.0459449 0.219165
0.943847 0.0430304 0.216907
1 0.0732433 0.217105
0.0491951 0.194629 0.184695
0.0984665 0.193164 0.183734
0.203403 0.190036 0.181094
0.363317 0.184253 0.168643
0.53077 0.170443 0.153475
0.676768 0.151781 0.136187
0.811048 0.135744 0.121904
0.943587 0.124773 0.111757
1 0.163241 0.149462
0.000228885 0.302373 0.200656
0.0383154 0.300191 0.189593
0.141939 0.311406 0.159274
0.330617 0.310628 0.102434
0.510399 0.323583 0.116442
0.657893 0.319997 0.109453
0.793973 0.312673 0.0963455
0.928496 0.3075 0.0852216
1 0.313512 0.131304
0 0.427558 0.235248
0.0111238 0.426215 0.217304
0.0892195 0.440711 0.149584
0.27097 0.466773 0.116365
0.468864 0.439017 0.0262303
0.63917 0.452201 0.0595712
0.774762 0.449012 0.0835584
0.910643 0.445289 0.0758679
1 0.444205 0.123705
0 0.549813 0.25745
0.000564584 0.549538 0.237812
0.0506447 0.562814 0.149996
0.220508 0.593088 0.11928
0.396582 0.596506 0.0786755
0.593057 0.550469 0.00569162
0.761013 0.57026 0.00642405
0.894484 0.569497 0.0632486
1 0.566476 0.113558
0 0.665614 0.270222
0 0.665156 0.25095
0.0220951 0.676555 0.150698
0.186023 0.700008 0.117372
0.334112 0.73051 0.10161
0.52282 0.71841 0.0572061
0.708156 0.654475 0.000976577
0.884825 0.686641 0
1 0.685542 0.0739757
0 0.781201 0.279179
0 0.78056 0.262409
0.00660716 0.79028 0.148699
0.159686 0.808042 0.118135
0.293462 0.838178 0.111894
0.444099 0.855451 0.0817731
0.636027 0.82002 0.0349737
0.823224 0.769024 0
0.997238 0.798779 0
0.243168 0.875181 0.415351
0.171069 0.880446 0.366079
0.310201 0.865858 0.438499
0.171481 0.908064 0.199863
0.26305 0.939269 0.117922
0.396628 0.969085 0.106035
0.565026 0.969985 0.098085
0.767544 0.913375 0.171359
0.919142 0.863645 0.216419
0.105043 0.105333 0.189517
0.134936 0.108278 0.228885
0.220615 0.11986 0.268452
0.349493 0.123323 0.308858
0.527626 0.0850385 0.353445
0.678813 0.0118257 0.362951
0.813931 0.0108797 0.363424
0.950072 0.00958267 0.362936
1 0.00885023 0.359976
0.0806439 0.129976 0.28687
0.114137 0.112428 0.292943
0.235889 0.102037 0.311696
0.371756 0.0868086 0.324865
0.534188 0.0575265 0.346685
0.673716 0.0496071 0.348516
0.807294 0.0454261 0.346929
0.942077 0.0428473 0.345083
1 0.0724193 0.342626
0.0108644 0.217823 0.307607
0.0707713 0.212314 0.313848
0.195148 0.17705 0.310063
0.363455 0.168734 0.313054
0.529152 0.154849 0.318578
0.675868 0.133867 0.312779
0.811093 0.114824 0.303807
0.944381 0.0991989 0.296635
1 0.146532 0.300175
0.00729381 0.318166 0.301579
0.053254 0.317052 0.300313
0.166186 0.313527 0.295628
0.330922 0.306737 0.285618
0.507774 0.297444 0.273945
0.661448 0.278767 0.255116
0.804242 0.254078 0.232258
0.942321 0.230304 0.208728
1 0.259464 0.238773
0.000656138 0.439872 0.316381
0.0295872 0.436225 0.3093
0.0996262 0.433204 0.285878
0.250599 0.44654 0.252872
0.472114 0.442878 0.19942
0.644099 0.435843 0.209796
0.785672 0.421302 0.196475
0.924681 0.408042 0.173602
1 0.412543 0.221332
0 0.550683 0.339086
0.00843824 0.547402 0.329397
0.0545205 0.547616 0.297581
0.171756 0.566598 0.228595
0.384054 0.597436 0.195026
0.597284 0.552926 0.0487221
0.766461 0.560586 0.133196
0.903914 0.552117 0.14905
1 0.547677 0.205066
0 0.659388 0.359442
0.000366217 0.656992 0.34818
0.0213474 0.658747 0.31249
0.109468 0.677714 0.208423
0.310399 0.718074 0.190005
0.510552 0.720287 0.13872
0.710597 0.656916 0.00726329
0.888502 0.680354 0.0143893
1 0.674495 0.171832
0 0.771725 0.375692
0 0.76997 0.364385
0.00114443 0.771649 0.328557
0.0565957 0.789227 0.193133
0.262013 0.821958 0.177295
0.430838 0.851804 0.151965
0.629877 0.823362 0.0978866
0.824048 0.769696 0.0110933
0.997391 0.794202 0.0217441
0.020676 0.882292 0.380819
0.00421149 0.879744 0.376608
0.0139467 0.881819 0.345724
0.0711528 0.895979 0.233326
0.240131 0.921401 0.199329
0.387869 0.956817 0.182818
0.557794 0.967285 0.159777
0.763897 0.915221 0.199634
0.917601 0.863264 0.260868
0.14258 0.142962 0.300862
0.167376 0.136172 0.355032
0.259037 0.130602 0.409171
0.386908 0.114199 0.445014
0.531395 0.0658274 0.468406
0.677104 0.0113527 0.480735
0.812238 0.0102998 0.482673
0.948394 0.0091249 0.483223
1 0.00796521 0.480049
0.0777905 0.14548 0.44004
0.126024 0.126299 0.428977
0.257969 0.0992905 0.462882
0.397131 0.0716106 0.468727
0.531136 0.0546731 0.467079
0.671321 0.0485084 0.471275
0.805249 0.0447242 0.470588
0.940063 0.0424506 0.469337
1 0.0716106 0.465461
0.0103304 0.241047 0.455131
0.0644083 0.229847 0.464469
0.19089 0.171405 0.468254
0.372152 0.160388 0.463188
0.527825 0.147204 0.461784
0.672969 0.129412 0.457771
0.808423 0.11194 0.449836
0.941787 0.0975357 0.443107
1 0.145281 0.437232
0.00796521 0.345434 0.440986
0.0519722 0.341207 0.442756
0.154162 0.326314 0.450126
0.31989 0.290532 0.443854
0.506676 0.27892 0.438666
0.659541 0.265003 0.425544
0.802228 0.240085 0.411124
0.941253 0.212131 0.396078
1 0.24741 0.395087
0.00674449 0.457053 0.434913
0.0439612 0.454322 0.431983
0.120043 0.453742 0.430274
0.274876 0.444541 0.418845
0.468711 0.438575 0.410132
0.639399 0.423789 0.396994
0.783139 0.402762 0.376425
0.928176 0.374533 0.347829
1 0.383276 0.358434
0.00103761 0.570214 0.431891
0.0268711 0.566354 0.426627
0.0795911 0.563348 0.413062
0.190906 0.554589 0.382391
0.379385 0.57113 0.369665
0.606409 0.560265 0.311315
0.766491 0.551064 0.337926
0.910994 0.531838 0.31162
1 0.528206 0.339025
0 0.667857 0.439231
0.00738537 0.664485 0.432471
0.0435798 0.660761 0.416037
0.124941 0.658488 0.375998
0.279973 0.679957 0.330343
0.502235 0.718059 0.298741
0.715892 0.661067 0.174746
0.892699 0.671153 0.230838
1 0.66244 0.3093
0 0.771054 0.458915
4.57771e-05 0.76817 0.45095
0.0158541 0.765667 0.432715
0.0754101 0.768231 0.383719
0.204761 0.790356 0.298375
0.414084 0.837552 0.283513
0.622599 0.827039 0.221683
0.827909 0.771466 0.0451057
0.998337 0.788571 0.145098
0 0.875273 0.476051
0 0.872847 0.46714
0.000839246 0.872541 0.44744
0.0768292 0.876112 0.39443
0.200107 0.894148 0.321065
0.376196 0.932906 0.303548
0.557717 0.958755 0.286259
0.764858 0.917159 0.302541
0.916732 0.862867 0.352575
0.174151 0.174517 0.418463
0.191348 0.15848 0.485115
0.280171 0.135683 0.550958
0.411582 0.0983749 0.591058
0.54873 0.0355077 0.6047
0.675456 0.0108797 0.600168
0.810544 0.00978103 0.603403
0.9467 0.00846876 0.60473
0.998993 0.142901 0.59942
0.075227 0.15079 0.586313
0.139849 0.142245 0.552041
0.265095 0.0959945 0.60267
0.408896 0.0577401 0.6103
0.541466 0.051194 0.60235
0.66949 0.047425 0.594461
0.802899 0.0442054 0.593896
0.938079 0.0421912 0.593317
1 0.0707866 0.58854
0.00973526 0.250828 0.596063
0.058854 0.235508 0.605051
0.183978 0.164813 0.613016
0.374945 0.151217 0.61033
0.530983 0.137438 0.604639
0.670634 0.123613 0.594247
0.805127 0.108522 0.585275
0.938918 0.0953994 0.578546
1 0.143984 0.567285
0.00790417 0.36231 0.583276
0.0495308 0.355505 0.585702
0.144701 0.329809 0.598001
0.3093 0.280491 0.595026
0.498878 0.265415 0.590356
0.658183 0.253147 0.57995
0.80029 0.231388 0.565698
0.939132 0.205692 0.553582
1 0.245151 0.538155
0.00772107 0.473182 0.570733
0.0440681 0.469306 0.569467
0.116197 0.461936 0.575723
0.265492 0.443183 0.578729
0.458289 0.418341 0.570809
0.637934 0.409277 0.561288
0.781842 0.396338 0.542428
0.926375 0.369207 0.52433
1 0.380758 0.513603
0.00677501 0.585168 0.559884
0.0407263 0.582177 0.556909
0.0953689 0.581247 0.555383
0.218357 0.581064 0.552682
0.42092 0.572061 0.544198
0.602655 0.56759 0.544167
0.761837 0.552636 0.527199
0.907805 0.533394 0.5075
1 0.526665 0.501472
0.000885023 0.691768 0.543816
0.0273747 0.68835 0.539223
0.06598 0.685389 0.529152
0.155215 0.680507 0.508843
0.314626 0.662303 0.480507
0.520317 0.694148 0.507942
0.728985 0.674586 0.445686
0.887373 0.671214 0.474357
1 0.659037 0.478477
0 0.786618 0.540917
0.00836194 0.782879 0.535714
0.0356909 0.778851 0.525139
0.10193 0.774395 0.501045
0.228809 0.768154 0.461021
0.421973 0.794186 0.459663
0.631846 0.821729 0.425361
0.833234 0.775555 0.334752
0.997497 0.786526 0.39942
0 0.881773 0.557015
0 0.878782 0.550622
0.0132906 0.876188 0.538598
0.0994888 0.872084 0.509209
0.216144 0.871382 0.468681
0.374548 0.895186 0.448463
0.570565 0.939818 0.457191
0.772412 0.916335 0.458213
0.919051 0.867201 0.518975
0.199008 0.19939 0.538811
0.20824 0.175189 0.61294
0.289693 0.137255 0.68484
0.418982 0.081651 0.725429
0.553185 0.0114443 0.733547
0.682277 0.0103609 0.729839
0.809552 0.00926223 0.725063
0.924132 0.161715 0.715724
0.9458 0.286122 0.695537
0.0716564 0.149935 0.720729
0.15436 0.157549 0.666194
0.265187 0.0926223 0.73048
0.408194 0.0521553 0.737758
0.542748 0.0479896 0.730785
0.673594 0.0453956 0.724239
0.801709 0.0436255 0.717647
0.934417 0.0637217 0.716365
1 0.102754 0.709911
0.00915541 0.252384 0.724254
0.0541695 0.23444 0.732662
0.172564 0.153689 0.74847
0.369924 0.138613 0.744808
0.526452 0.127077 0.737636
0.66891 0.115251 0.728542
0.802274 0.104494 0.717296
0.935943 0.0931106 0.710048
1 0.142672 0.695247
0.0078584 0.365835 0.712718
0.0471809 0.357549 0.715419
0.133974 0.32546 0.731243
0.297215 0.269825 0.729702
0.486412 0.253315 0.725795
0.65069 0.239277 0.721645
0.798093 0.220783 0.711223
0.936324 0.198245 0.698878
1 0.242374 0.673762
0.00764477 0.479042 0.701076
0.0428931 0.474159 0.700526
0.1093 0.460838 0.709255
0.252079 0.432364 0.715892
0.440589 0.402701 0.711376
0.623514 0.391775 0.706096
0.780255 0.38117 0.693904
0.9243 0.358801 0.678569
1 0.375738 0.654017
0.00735485 0.592233 0.689693
0.0408789 0.588708 0.687526
0.0919509 0.58349 0.689906
0.209262 0.57438 0.696437
0.404837 0.56022 0.694255
0.593256 0.547616 0.684474
0.761929 0.53959 0.678782
0.906142 0.526848 0.662593
1 0.52311 0.644831
0.00674449 0.703639 0.676417
0.040177 0.700435 0.673243
0.0796826 0.699001 0.671336
0.173129 0.700435 0.671351
0.350591 0.699489 0.668421
0.568673 0.687541 0.662089
0.728191 0.683116 0.65951
0.88217 0.672251 0.645594
1 0.661707 0.635004
0.000228885 0.812741 0.660395
0.0304265 0.808865 0.656413
0.0584878 0.805966 0.649454
0.128771 0.802686 0.635416
0.26627 0.794919 0.612436
0.455665 0.771191 0.595193
0.653178 0.80087 0.619791
0.844877 0.78793 0.57911
0.992248 0.78883 0.608225
0 0.903426 0.646448
0.0112306 0.899672 0.642344
0.0329442 0.896254 0.634241
0.120409 0.889723 0.616724
0.244739 0.879484 0.592691
0.402548 0.868223 0.577646
0.596048 0.89749 0.616602
0.791516 0.909453 0.638361
0.929198 0.882429 0.682872
0.219455 0.219837 0.665187
0.220569 0.186954 0.745724
0.295003 0.133745 0.819928
0.421866 0.0602121 0.856001
0.554208 0.0110018 0.858473
0.684077 0.0099031 0.854856
0.795789 0.151492 0.832212
0.854658 0.322423 0.777783
0.877653 0.390234 0.755703
0.0612497 0.145403 0.852766
0.168093 0.171176 0.782437
0.26392 0.0862593 0.856825
0.406287 0.0478218 0.861402
0.541588 0.0452125 0.855406
0.673548 0.0434882 0.84947
0.802533 0.062562 0.842664
0.896986 0.215686 0.810346
0.963088 0.258457 0.801587
0.00859083 0.252399 0.849256
0.050248 0.232578 0.856657
0.160586 0.143252 0.875883
0.363546 0.12578 0.872343
0.521019 0.115724 0.864973
0.663828 0.106493 0.855711
0.799756 0.0978866 0.846708
0.926482 0.125902 0.833265
1 0.150881 0.819883
0.00779736 0.36611 0.838026
0.0450294 0.356878 0.840681
0.122683 0.319966 0.858869
0.282582 0.255711 0.862745
0.475792 0.237797 0.858778
0.640314 0.223545 0.853819
0.791501 0.206989 0.84741
0.933104 0.189746 0.837339
1 0.239261 0.805295
0.00758373 0.480079 0.826612
0.0417487 0.474418 0.826307
0.102113 0.457359 0.836698
0.236347 0.421653 0.848188
0.422919 0.386053 0.845853
0.607217 0.37406 0.840726
0.770199 0.361791 0.834638
0.921828 0.344457 0.825513
1 0.369558 0.789776
0.00727855 0.593988 0.815442
0.0403143 0.589853 0.813306
0.0870375 0.581201 0.817746
0.196277 0.565377 0.828092
0.385931 0.543114 0.828305
0.575448 0.52958 0.825116
0.746792 0.521096 0.818341
0.904112 0.511086 0.81001
1 0.513832 0.781125
0.0068513 0.707851 0.804044
0.0401465 0.704387 0.801373
0.0765698 0.699992 0.801358
0.164248 0.694621 0.806592
0.335027 0.685557 0.810407
0.547265 0.676127 0.80412
0.71841 0.667613 0.792798
0.880552 0.6598 0.78938
1 0.653574 0.771466
0.00619516 0.82182 0.792508
0.0408789 0.818616 0.789303
0.0694285 0.816114 0.786969
0.141161 0.816007 0.78558
0.284291 0.81503 0.783185
0.497154 0.809216 0.777539
0.686046 0.79411 0.767666
0.849378 0.797345 0.769039
0.986099 0.78941 0.761913
0.00105287 0.9281 0.776226
0.030808 0.924788 0.772686
0.0557717 0.922164 0.76643
0.141894 0.918105 0.755657
0.273915 0.911803 0.741024
0.447547 0.896849 0.725536
0.620523 0.866743 0.720531
0.813977 0.899794 0.781582
0.943191 0.903838 0.816068
0.229175 0.229587 0.719478
0.224903 0.191562 0.810987
0.295537 0.130648 0.889967
0.4215 0.0498054 0.926909
0.552102 0.0505684 0.927489
0.66836 0.15465 0.903685
0.750698 0.280385 0.849775
0.813794 0.385046 0.805188
0.865614 0.413703 0.807645
0.0522164 0.141238 0.925368
0.172778 0.174853 0.87921
0.262303 0.0783246 0.953689
0.40412 0.0452735 0.953292
0.539834 0.0435035 0.946136
0.669612 0.0793774 0.936461
0.773404 0.206882 0.898817
0.836622 0.343908 0.83946
0.901137 0.374365 0.836973
0.00805676 0.250965 0.929519
0.0478828 0.230655 0.952941
0.171038 0.153246 0.961913
0.357763 0.14107 0.961975
0.510918 0.134295 0.961517
0.653132 0.125093 0.961074
0.785443 0.145724 0.952987
0.885756 0.242527 0.914504
0.988602 0.225528 0.909392
0.00773632 0.365148 0.929473
0.0434882 0.355474 0.941146
0.141436 0.318135 0.961303
0.283162 0.256367 0.961761
0.464118 0.242908 0.961639
0.622309 0.236027 0.961135
0.7691 0.227527 0.961105
0.911315 0.217029 0.960311
1 0.236011 0.928527
0.0075227 0.479408 0.929458
0.0408484 0.473396 0.935088
0.113817 0.453696 0.95964
0.25211 0.415442 0.961074
0.414389 0.378347 0.961318
0.588586 0.369665 0.960891
0.745098 0.362463 0.9608
0.893996 0.353414 0.960159
1 0.362112 0.927489
0.00721752 0.593774 0.929442
0.0397345 0.589349 0.931853
0.0882124 0.578286 0.949905
0.224872 0.555749 0.959991
0.3888 0.53077 0.960586
0.560143 0.51548 0.959243
0.724697 0.509285 0.954665
0.879606 0.501671 0.949874
1 0.503319 0.920317
0.00675975 0.708324 0.929412
0.0398566 0.704494 0.930312
0.073106 0.698283 0.936858
0.181933 0.685969 0.950423
0.353475 0.669902 0.948043
0.536034 0.659602 0.944259
0.703212 0.650019 0.93959
0.863584 0.64332 0.93431
0.996506 0.641642 0.91133
0.00616464 0.823041 0.921294
0.0409247 0.819501 0.918135
0.0674754 0.815366 0.918135
0.136034 0.810742 0.926635
0.298985 0.803265 0.929305
0.498253 0.796246 0.925734
0.679652 0.788998 0.918624
0.842573 0.784192 0.90837
0.981262 0.780941 0.897185
0.00521859 0.934798 0.909911
0.0380713 0.931731 0.906416
0.0645762 0.929778 0.903517
0.146654 0.927626 0.901045
0.285695 0.925399 0.899794
0.480537 0.920134 0.895888
0.680003 0.909224 0.890257
0.846418 0.901274 0.891157
0.942168 0.915175 0.908263
