LUT/LumixLab/Summer Gold.cube
TITLE "Generated by Resolve"
#LUMIXPHOTOSTYLE NAT
LUT_3D_SIZE 5
0.0359045 0.0360113 0.0354772
0.175113 0.104738 0.104158
0.513436 0.126513 0.121706
0.818845 0.0182498 0.0178073
1 0.0769207 0.075227
0.0390784 0.189303 0.0713817
0.201816 0.183948 7.62951e-05
0.514366 0.236194 0.00805676
0.793866 0.240131 0.00782788
1 0.235462 0.00750744
0 0.442908 0.0591897
0.141604 0.46424 0.0353857
0.467155 0.438331 0
0.768719 0.465614 0.00556954
1 0.464256 0.00714122
0 0.68278 0.087068
0.0951858 0.693263 0.0558633
0.340063 0.738247 0.0321508
0.709194 0.654475 0
1 0.692531 0.000854505
0.482399 0.843885 0.567376
0.322377 0.873426 0.427878
0.308629 0.93872 0.184726
0.578302 0.970657 0.102815
0.917342 0.864408 0.284153
0.0699321 0.0700999 0.10721
0.187839 0.107668 0.169665
0.52314 0.102251 0.247349
0.815641 0.0112154 0.245472
1 0.00972 0.241367
0.0491951 0.194629 0.184695
0.203403 0.190036 0.181094
0.53077 0.170443 0.153475
0.811048 0.135744 0.121904
1 0.163241 0.149462
0 0.427558 0.235248
0.0892195 0.440711 0.149584
0.468864 0.439017 0.0262303
0.774762 0.449012 0.0835584
1 0.444205 0.123705
0 0.665614 0.270222
0.0220951 0.676555 0.150698
0.334112 0.73051 0.10161
0.708156 0.654475 0.000976577
1 0.685542 0.0739757
0.243168 0.875181 0.415351
0.310201 0.865858 0.438499
0.26305 0.939269 0.117922
0.565026 0.969985 0.098085
0.919142 0.863645 0.216419
0.14258 0.142962 0.300862
0.259037 0.130602 0.409171
0.531395 0.0658274 0.468406
0.812238 0.0102998 0.482673
1 0.00796521 0.480049
0.0103304 0.241047 0.455131
0.19089 0.171405 0.468254
0.527825 0.147204 0.461784
0.808423 0.11194 0.449836
1 0.145281 0.437232
0.00674449 0.457053 0.434913
0.120043 0.453742 0.430274
0.468711 0.438575 0.410132
0.783139 0.402762 0.376425
1 0.383276 0.358434
0 0.667857 0.439231
0.0435798 0.660761 0.416037
0.279973 0.679957 0.330343
0.715892 0.661067 0.174746
1 0.66244 0.3093
0 0.875273 0.476051
0.000839246 0.872541 0.44744
0.200107 0.894148 0.321065
0.557717 0.958755 0.286259
0.916732 0.862867 0.352575
0.199008 0.19939 0.538811
0.289693 0.137255 0.68484
0.553185 0.0114443 0.733547
0.809552 0.00926223 0.725063
0.9458 0.286122 0.695537
0.00915541 0.252384 0.724254
0.172564 0.153689 0.74847
0.526452 0.127077 0.737636
0.802274 0.104494 0.717296
1 0.142672 0.695247
0.00764477 0.479042 0.701076
0.1093 0.460838 0.709255
0.440589 0.402701 0.711376
0.780255 0.38117 0.693904
1 0.375738 0.654017
0.00674449 0.703639 0.676417
0.0796826 0.699001 0.671336
0.350591 0.699489 0.668421
0.728191 0.683116 0.65951
1 0.661707 0.635004
0 0.903426 0.646448
0.0329442 0.896254 0.634241
0.244739 0.879484 0.592691
0.596048 0.89749 0.616602
0.929198 0.882429 0.682872
0.229175 0.229587 0.719478
0.295537 0.130648 0.889967
0.552102 0.0505684 0.927489
0.750698 0.280385 0.849775
0.865614 0.413703 0.807645
0.00805676 0.250965 0.929519
0.171038 0.153246 0.961913
0.510918 0.134295 0.961517
0.785443 0.145724 0.952987
0.988602 0.225528 0.909392
0.0075227 0.479408 0.929458
0.113817 0.453696 0.95964
0.414389 0.378347 0.961318
0.745098 0.362463 0.9608
1 0.362112 0.927489
0.00675975 0.708324 0.929412
0.073106 0.698283 0.936858
0.353475 0.669902 0.948043
0.703212 0.650019 0.93959
0.996506 0.641642 0.91133
0.00521859 0.934798 0.909911
0.0645762 0.929778 0.903517
0.285695 0.925399 0.899794
0.680003 0.909224 0.890257
0.942168 0.915175 0.908263
