LUT/LumixLab/Summer Freshness.cube
TITLE "Generated by Resolve"
LUT_3D_SIZE 33
#LUMIXPHOTOSTYLE PORT
0.01178 0.0360723 0.0467231
0.0296635 0.0433204 0.0507668
0.0644083 0.0506752 0.0550546
0.104204 0.0580301 0.0596475
0.143847 0.0643015 0.0630503
0.18323 0.0712291 0.0670634
0.222507 0.0783856 0.0711681
0.262318 0.0856794 0.0752728
0.303578 0.0931563 0.079408
0.347021 0.100801 0.0835737
0.39321 0.108629 0.0877546
0.442527 0.116625 0.0919356
0.495079 0.124819 0.0961624
0.549691 0.133288 0.10042
0.604227 0.142092 0.104677
0.656489 0.151278 0.108949
0.705028 0.161135 0.113268
0.74873 0.171878 0.117632
0.786709 0.183337 0.121996
0.819165 0.19527 0.12639
0.847028 0.20763 0.1308
0.871015 0.220401 0.135256
0.891814 0.233463 0.139757
0.909911 0.246815 0.144259
0.925795 0.260441 0.148791
0.939773 0.274266 0.153353
0.952102 0.288396 0.157977
0.962997 0.302785 0.162646
0.972641 0.317159 0.16733
0.981094 0.33196 0.17203
0.988418 0.346639 0.176791
0.994705 0.361578 0.181582
1 0.376684 0.186404
0.01178 0.0575723 0.0585794
0.0123598 0.0556802 0.051606
0.046479 0.0617685 0.0552529
0.0856947 0.0687724 0.0593881
0.124971 0.0747234 0.0634623
0.164477 0.0810559 0.0675364
0.203967 0.087541 0.0716411
0.243458 0.094255 0.0757763
0.284108 0.101076 0.0799268
0.326604 0.108049 0.0840772
0.37174 0.115145 0.0882582
0.419745 0.122408 0.0924697
0.471077 0.12987 0.0966964
0.525246 0.137499 0.100938
0.580484 0.145342 0.105196
0.634165 0.15349 0.109499
0.684901 0.162646 0.113832
0.731228 0.17348 0.118181
0.772 0.185458 0.12253
0.806836 0.197833 0.12694
0.836637 0.210575 0.131365
0.862272 0.223758 0.135805
0.884489 0.237308 0.140261
0.903746 0.251225 0.144793
0.920607 0.265446 0.149355
0.935393 0.279896 0.153933
0.948531 0.294484 0.158541
0.960098 0.309438 0.16321
0.970367 0.324483 0.16791
0.979385 0.339742 0.172625
0.987335 0.354925 0.177386
0.994171 0.370611 0.182177
1 0.387533 0.186999
0.01178 0.0798047 0.0705425
0.01178 0.0775311 0.0631113
0.0296178 0.0753033 0.0562753
0.0669108 0.0814679 0.06009
0.106218 0.0902266 0.0639811
0.146059 0.0960403 0.06804
0.185565 0.101793 0.0721447
0.225208 0.107942 0.0762646
0.265339 0.114763 0.0804303
0.307134 0.121767 0.084596
0.35108 0.12903 0.088777
0.398047 0.136355 0.0929732
0.448066 0.143969 0.0972152
0.501534 0.151644 0.101457
0.556756 0.159655 0.10573
0.611795 0.167788 0.110018
0.664347 0.176989 0.114351
0.713191 0.187716 0.118685
0.756512 0.19971 0.123049
0.793988 0.212009 0.127459
0.825895 0.22472 0.131884
0.853315 0.23769 0.136355
0.876936 0.251102 0.140841
0.897429 0.264652 0.145357
0.915297 0.278645 0.14992
0.931044 0.292821 0.154513
0.944884 0.30721 0.159136
0.957168 0.321614 0.163806
0.968063 0.336385 0.168475
0.977691 0.351247 0.173205
0.986206 0.366217 0.177981
0.993622 0.382681 0.182757
1 0.399634 0.187549
0.01178 0.103304 0.0826581
0.0119478 0.100694 0.0749981
0.027863 0.0975814 0.0673533
0.051194 0.0955825 0.0616617
0.0860456 0.103044 0.064622
0.127367 0.113146 0.0685588
0.167575 0.119539 0.0726635
0.207172 0.12549 0.0767987
0.247135 0.13164 0.0809491
0.288258 0.138018 0.0850996
0.331472 0.144549 0.0892958
0.377172 0.151934 0.093492
0.426062 0.15967 0.0977035
0.478386 0.167498 0.101961
0.533547 0.175479 0.106233
0.589197 0.18381 0.110536
0.643473 0.192935 0.114855
0.694499 0.203662 0.119188
0.740581 0.215396 0.123583
0.780529 0.227634 0.127993
0.81474 0.240162 0.132433
0.844007 0.253056 0.136889
0.869215 0.266148 0.14139
0.890959 0.279561 0.145922
0.909926 0.293202 0.150484
0.926574 0.307073 0.155077
0.941238 0.320974 0.159686
0.954208 0.335195 0.16437
0.965743 0.349599 0.16907
0.975967 0.364584 0.17377
0.985077 0.380224 0.178531
0.993042 0.39646 0.183337
1 0.412512 0.188174
0.0119631 0.128099 0.094728
0.012192 0.125261 0.0869612
0.0271305 0.122194 0.0793317
0.0484932 0.118914 0.0723735
0.0716259 0.117983 0.0670939
0.106706 0.126192 0.0691844
0.149004 0.137621 0.073167
0.189502 0.145006 0.0772869
0.229404 0.151308 0.0814374
0.270085 0.157763 0.0856031
0.312459 0.164416 0.0897993
0.357259 0.171252 0.0939956
0.405051 0.178103 0.0982376
0.45623 0.185092 0.10248
0.510674 0.192752 0.106767
0.566796 0.200992 0.11107
0.622385 0.210163 0.115389
0.675425 0.220844 0.119753
0.723964 0.232502 0.124132
0.766598 0.244495 0.128527
0.803174 0.256825 0.132982
0.834379 0.269505 0.137453
0.861189 0.282338 0.141955
0.884321 0.295369 0.146487
0.904433 0.308675 0.151049
0.922011 0.322179 0.155627
0.93753 0.335943 0.16025
0.951247 0.350088 0.164904
0.963455 0.364889 0.169604
0.974289 0.380209 0.174365
0.983948 0.395315 0.179126
0.992508 0.410819 0.183917
1 0.426474 0.188769
0.0122988 0.154849 0.106859
0.0125582 0.151827 0.0990616
0.0266423 0.148455 0.0914015
0.0471504 0.145251 0.0843214
0.0683452 0.142824 0.0778973
0.0928664 0.142458 0.0721294
0.128145 0.151095 0.0738384
0.171115 0.163622 0.0777752
0.2121 0.172564 0.0819409
0.252506 0.179553 0.0861067
0.294331 0.186252 0.0903029
0.33817 0.193179 0.0945144
0.384924 0.200092 0.0987411
0.434974 0.207004 0.103014
0.48864 0.213886 0.107286
0.544625 0.221057 0.111589
0.60119 0.229068 0.115923
0.656001 0.23917 0.120287
0.706905 0.250629 0.124666
0.752102 0.26244 0.129076
0.791165 0.27451 0.133501
0.824475 0.286885 0.137987
0.85304 0.299397 0.142489
0.877546 0.312306 0.147021
0.898833 0.325521 0.151598
0.917418 0.339269 0.156191
0.933791 0.353201 0.160815
0.948226 0.367651 0.165484
0.96112 0.382116 0.170199
0.972564 0.396796 0.174929
0.982834 0.411658 0.179721
0.991958 0.42652 0.184512
1 0.441306 0.189364
0.012726 0.183825 0.119234
0.0130465 0.180545 0.111315
0.0260319 0.177432 0.103716
0.045716 0.173983 0.0964065
0.0664988 0.171023 0.0898756
0.0895705 0.168887 0.0831617
0.114183 0.169375 0.0770733
0.149813 0.178302 0.0785077
0.193652 0.191913 0.082475
0.235462 0.20235 0.0866407
0.276692 0.210025 0.0908217
0.319921 0.216876 0.0950484
0.365637 0.223957 0.0992905
0.414694 0.230793 0.103548
0.467155 0.237751 0.107805
0.522927 0.244495 0.112108
0.580041 0.252293 0.116457
0.636423 0.261707 0.120806
0.689326 0.272511 0.125185
0.737179 0.283528 0.12961
0.778714 0.295262 0.134066
0.814237 0.307225 0.138537
0.844556 0.319722 0.143023
0.870619 0.332418 0.14757
0.893111 0.345647 0.152148
0.912779 0.358892 0.156756
0.929976 0.372686 0.16141
0.94522 0.386435 0.166079
0.95877 0.400595 0.170779
0.970855 0.414557 0.175525
0.981689 0.428733 0.180316
0.991363 0.442954 0.185122
1 0.457557 0.189929
0.0132906 0.214832 0.131899
0.0133364 0.211826 0.123934
0.0254368 0.208377 0.116152
0.0444038 0.20499 0.108843
0.0647135 0.20145 0.102068
0.0875105 0.199451 0.0956436
0.111009 0.197086 0.088304
0.136004 0.198276 0.0820783
0.171878 0.207706 0.0832227
0.213993 0.219501 0.0871443
0.258549 0.232609 0.0913405
0.30219 0.242313 0.095552
0.347097 0.2495 0.0997787
0.395071 0.256428 0.104051
0.446662 0.263203 0.108339
0.50161 0.270085 0.112642
0.559045 0.277546 0.116976
0.616541 0.286732 0.121355
0.671519 0.296895 0.125734
0.72163 0.307546 0.130159
0.765789 0.318639 0.1346
0.803601 0.330205 0.139086
0.835889 0.342123 0.143603
0.863462 0.354604 0.148135
0.887297 0.367361 0.152712
0.908003 0.380194 0.157321
0.926162 0.393194 0.161975
0.942168 0.406546 0.166674
0.95642 0.420005 0.171359
0.969131 0.433417 0.176089
0.980575 0.447044 0.18088
0.990829 0.460655 0.185702
1 0.474372 0.190539
0.0136263 0.247837 0.144884
0.013962 0.24445 0.136782
0.0251774 0.241047 0.128908
0.0432136 0.23769 0.121431
0.0626993 0.234119 0.114443
0.085008 0.231739 0.107942
0.108659 0.229541 0.101122
0.132082 0.227634 0.0933547
0.158053 0.229206 0.0869612
0.193668 0.238056 0.087892
0.234699 0.248478 0.0918441
0.282353 0.263859 0.0960708
0.32929 0.275975 0.100313
0.376333 0.283589 0.10457
0.42681 0.290318 0.108858
0.480964 0.297032 0.113176
0.538277 0.304341 0.117525
0.596689 0.31313 0.121889
0.6533 0.322972 0.126284
0.70573 0.333074 0.130709
0.752422 0.343648 0.135164
0.792645 0.354788 0.139635
0.826886 0.366262 0.144152
0.856153 0.378119 0.148699
0.881331 0.390219 0.153262
0.903181 0.402533 0.157885
0.922271 0.415106 0.162539
0.939071 0.427832 0.167224
0.95407 0.440497 0.171939
0.967422 0.453254 0.176669
0.979446 0.466331 0.18146
0.99028 0.479103 0.186282
1 0.492241 0.191135
0.0142977 0.281865 0.158175
0.0144045 0.278706 0.149874
0.0247654 0.275151 0.141817
0.0420233 0.271901 0.134234
0.0608225 0.268223 0.127077
0.0825055 0.265538 0.120378
0.105776 0.263462 0.113756
0.129778 0.261204 0.106508
0.153475 0.25977 0.0982681
0.180545 0.261662 0.0920119
0.2159 0.269612 0.092668
0.258503 0.281056 0.0965896
0.308721 0.297597 0.100832
0.358328 0.310964 0.105104
0.407874 0.318807 0.109392
0.461006 0.32546 0.11371
0.517922 0.332601 0.118059
0.576898 0.341024 0.122438
0.635019 0.350225 0.126833
0.689448 0.360021 0.131258
0.738582 0.370047 0.135698
0.781277 0.380499 0.140185
0.817655 0.391318 0.144701
0.84863 0.402625 0.149248
0.875242 0.414069 0.153826
0.898268 0.425788 0.15845
0.918349 0.437644 0.163104
0.935988 0.449744 0.167788
0.951675 0.461936 0.172503
0.965682 0.474067 0.177264
0.978317 0.486381 0.182055
0.9897 0.498634 0.186877
1 0.510948 0.19173
0.0147707 0.317189 0.171725
0.0147402 0.314076 0.163241
0.0242618 0.310735 0.155154
0.0408637 0.307149 0.14728
0.0590372 0.303517 0.140032
0.0800488 0.300389 0.133059
0.102632 0.29865 0.126467
0.126589 0.296422 0.119448
0.151186 0.294179 0.111803
0.175387 0.293141 0.103166
0.20354 0.295705 0.0968338
0.239704 0.303471 0.0973983
0.284062 0.315312 0.101366
0.33698 0.332448 0.105638
0.389517 0.346654 0.109926
0.441825 0.354849 0.114244
0.498039 0.362173 0.118578
0.557305 0.370092 0.122942
0.616434 0.37908 0.127352
0.672908 0.388067 0.131792
0.724361 0.397604 0.136248
0.769604 0.407324 0.140734
0.808118 0.417655 0.145251
0.840955 0.428229 0.149798
0.869001 0.439155 0.154406
0.893278 0.45008 0.159014
0.914336 0.461372 0.163684
0.932876 0.472709 0.168368
0.949279 0.48426 0.173098
0.963958 0.495735 0.177859
0.977172 0.507485 0.18265
0.989151 0.519036 0.187442
1 0.530526 0.192309
0.0151369 0.353414 0.185595
0.0155489 0.350042 0.177035
0.0237888 0.346807 0.168643
0.039704 0.343526 0.160708
0.0569162 0.339986 0.15314
0.0775616 0.336492 0.14609
0.099443 0.334386 0.139223
0.122927 0.332815 0.132464
0.147601 0.330419 0.125063
0.172549 0.328573 0.116869
0.197772 0.328008 0.107942
0.227329 0.330755 0.101793
0.264637 0.33843 0.10222
0.311238 0.3505 0.106142
0.367239 0.3682 0.11043
0.423255 0.383108 0.114748
0.478721 0.392309 0.119112
0.537804 0.400717 0.123476
0.598001 0.408972 0.127886
0.656016 0.417609 0.132326
0.709773 0.426413 0.136797
0.757427 0.435508 0.141283
0.798337 0.4448 0.1458
0.83299 0.454978 0.150378
0.862638 0.46511 0.154986
0.888151 0.475456 0.159594
0.910307 0.485863 0.164248
0.929686 0.49662 0.168948
0.946868 0.507439 0.173663
0.962203 0.518273 0.178424
0.976043 0.529091 0.183215
0.988586 0.540215 0.188052
1 0.55111 0.192905
0.0155032 0.390036 0.199786
0.0161898 0.386526 0.191058
0.0233158 0.383719 0.182559
0.0385443 0.380285 0.174411
0.0549477 0.376913 0.166567
0.0751202 0.373159 0.15938
0.0962692 0.371023 0.152316
0.119066 0.369436 0.145449
0.143374 0.367544 0.138338
0.16878 0.365148 0.130526
0.194308 0.363729 0.122103
0.221256 0.363622 0.113146
0.252369 0.366506 0.106874
0.291203 0.37406 0.107073
0.340505 0.386496 0.110964
0.39939 0.404257 0.115282
0.459525 0.420371 0.119631
0.5187 0.431373 0.124025
0.579431 0.44033 0.128435
0.639017 0.448173 0.132876
0.694835 0.456214 0.137331
0.7449 0.464637 0.141848
0.788159 0.473335 0.14638
0.824857 0.482536 0.150942
0.856138 0.492088 0.15552
0.882963 0.501762 0.160143
0.906188 0.511452 0.164813
0.926497 0.521416 0.169512
0.944442 0.531487 0.174243
0.960449 0.54165 0.179004
0.974914 0.551858 0.183795
0.988006 0.562173 0.188647
1 0.572396 0.1935
0.0163729 0.426307 0.214221
0.0166476 0.423285 0.20531
0.0228733 0.420432 0.196612
0.0373846 0.417243 0.188357
0.0531319 0.413886 0.180346
0.0723278 0.410407 0.172854
0.0930495 0.407706 0.165576
0.115114 0.406226 0.158572
0.138949 0.404715 0.151614
0.164096 0.402564 0.144091
0.190387 0.400168 0.136004
0.21767 0.399558 0.127291
0.246113 0.399954 0.118013
0.278798 0.403189 0.111604
0.319768 0.410315 0.111803
0.371862 0.422614 0.115831
0.434699 0.441352 0.12018
0.499336 0.459403 0.124559
0.561151 0.471 0.128969
0.621897 0.479667 0.133425
0.679637 0.486976 0.137881
0.732052 0.494652 0.142382
0.777768 0.502525 0.146929
0.816495 0.511009 0.151492
0.849485 0.519799 0.156085
0.877668 0.528786 0.160708
0.902037 0.537713 0.165377
0.923278 0.547066 0.170092
0.941985 0.556481 0.174838
0.958694 0.565911 0.179599
0.97377 0.575372 0.18439
0.987472 0.585061 0.189242
1 0.594476 0.19411
0.0171206 0.462486 0.228901
0.0170901 0.459785 0.219791
0.0228733 0.456855 0.211063
0.036286 0.45388 0.202502
0.0513161 0.450752 0.194415
0.0696269 0.447395 0.186557
0.0897993 0.444633 0.179232
0.111208 0.442832 0.171939
0.134325 0.441657 0.16492
0.159106 0.439933 0.157626
0.185275 0.437797 0.149813
0.21413 0.435798 0.141421
0.242771 0.435996 0.132265
0.272312 0.436606 0.122774
0.30695 0.439948 0.116564
0.350515 0.446784 0.116701
0.406332 0.459663 0.120714
0.474479 0.480491 0.125093
0.542824 0.49984 0.129503
0.604746 0.51046 0.133959
0.664195 0.518715 0.13843
0.718914 0.52549 0.142931
0.766964 0.53286 0.147478
0.80795 0.540307 0.152026
0.842649 0.548348 0.156649
0.872297 0.556497 0.161288
0.897795 0.56492 0.165957
0.920012 0.573343 0.170657
0.939544 0.582147 0.175418
0.956939 0.590814 0.180194
0.972641 0.599771 0.185
0.986908 0.608469 0.189822
1 0.617304 0.19469
0.0175479 0.498634 0.243809
0.0175174 0.496178 0.234638
0.0227817 0.492683 0.225696
0.0351568 0.49044 0.21706
0.049485 0.487266 0.208698
0.0671397 0.484108 0.200748
0.0866255 0.480964 0.193072
0.107271 0.479423 0.185672
0.129595 0.478187 0.178378
0.153796 0.477028 0.171252
0.179568 0.475074 0.163531
0.209461 0.472953 0.15552
0.239429 0.472084 0.14667
0.268757 0.472648 0.137224
0.300114 0.473518 0.127611
0.337316 0.477089 0.121263
0.384176 0.484092 0.121431
0.444877 0.4981 0.125628
0.517403 0.52018 0.130053
0.587488 0.539406 0.134508
0.648554 0.549645 0.138979
0.705379 0.557351 0.143496
0.755917 0.563729 0.148028
0.7991 0.570626 0.152605
0.83566 0.577707 0.157214
0.866789 0.585214 0.161852
0.893507 0.592721 0.166537
0.916686 0.600595 0.171237
0.937057 0.608484 0.175982
0.955154 0.616526 0.180774
0.971496 0.624659 0.18558
0.986343 0.632746 0.190417
1 0.640848 0.195285
0.0179751 0.5346 0.258915
0.0179446 0.53228 0.249607
0.0225376 0.529046 0.24065
0.0341802 0.526772 0.23183
0.047837 0.523659 0.223301
0.0648203 0.520562 0.215167
0.0836347 0.517571 0.207324
0.103487 0.515816 0.199619
0.125017 0.514641 0.192096
0.148455 0.513619 0.184833
0.173831 0.512413 0.177462
0.203937 0.510506 0.169482
0.23563 0.508705 0.161059
0.265782 0.50869 0.151751
0.296498 0.509667 0.142153
0.330205 0.511131 0.132342
0.370428 0.514778 0.125948
0.42121 0.521721 0.126375
0.486397 0.536202 0.130602
0.562142 0.559045 0.135058
0.632792 0.578408 0.139544
0.6916 0.58819 0.144045
0.744472 0.595453 0.148592
0.790021 0.601419 0.15317
0.828504 0.607721 0.157778
0.861189 0.614404 0.162417
0.889143 0.621408 0.167117
0.913359 0.628336 0.171817
0.934569 0.635523 0.176562
0.953368 0.642847 0.181338
0.970336 0.650339 0.18616
0.985779 0.657664 0.191012
1 0.664988 0.195895
0.0184024 0.57055 0.274281
0.0183719 0.568414 0.264881
0.0226596 0.565164 0.255711
0.0335546 0.563104 0.246769
0.0465095 0.560113 0.238117
0.0623789 0.557458 0.229694
0.0805066 0.554437 0.22153
0.0999313 0.552346 0.213825
0.120745 0.551141 0.206134
0.143359 0.55021 0.198642
0.168139 0.549233 0.191272
0.198474 0.548028 0.183597
0.231174 0.546075 0.175387
0.262882 0.544945 0.166613
0.293828 0.54548 0.156939
0.326513 0.54728 0.14699
0.36289 0.548913 0.137179
0.406744 0.552712 0.1308
0.461952 0.55935 0.131151
0.530648 0.57348 0.135592
0.608179 0.597269 0.140078
0.677623 0.616815 0.144594
0.732815 0.625925 0.149142
0.780667 0.632792 0.153735
0.821164 0.6383 0.158328
0.855451 0.64416 0.162982
0.884718 0.650278 0.167681
0.909972 0.656657 0.172412
0.932052 0.663188 0.177142
0.951583 0.669779 0.181933
0.969207 0.676265 0.186755
0.985214 0.682979 0.191623
1 0.689662 0.19649
0.0188144 0.60592 0.289891
0.0187991 0.603784 0.280308
0.0229191 0.600916 0.271092
0.0330968 0.598688 0.261814
0.0453956 0.595911 0.253101
0.0600595 0.593683 0.244358
0.0773938 0.591134 0.236103
0.0965286 0.588205 0.228183
0.11664 0.58703 0.220417
0.13843 0.586069 0.21268
0.162341 0.585519 0.205234
0.193072 0.584665 0.197787
0.226123 0.583291 0.189746
0.259251 0.581292 0.181231
0.291295 0.581338 0.171939
0.323629 0.582559 0.161959
0.358999 0.584543 0.15198
0.398688 0.586725 0.141711
0.446738 0.590463 0.135332
0.506004 0.596033 0.136141
0.578103 0.611612 0.140612
0.656992 0.637522 0.145144
0.720806 0.654231 0.149706
0.771115 0.662821 0.154299
0.813657 0.66923 0.158907
0.849638 0.674296 0.163561
0.880201 0.67985 0.168246
0.906554 0.685344 0.172976
0.929519 0.691249 0.177737
0.949813 0.696895 0.182544
0.968048 0.702892 0.18735
0.984649 0.70869 0.192218
1 0.714824 0.197086
0.0192111 0.640162 0.305638
0.0192111 0.6383 0.295979
0.0231632 0.635187 0.286503
0.0326543 0.633387 0.277256
0.0438087 0.630991 0.268254
0.0580911 0.628733 0.25951
0.0747692 0.625879 0.250935
0.0932021 0.623255 0.242924
0.112535 0.621805 0.234897
0.133486 0.621057 0.227054
0.156588 0.620356 0.219348
0.187396 0.620233 0.2121
0.220966 0.619242 0.204227
0.254612 0.617548 0.195743
0.288319 0.616236 0.186862
0.321263 0.617014 0.17731
0.355795 0.619135 0.166979
0.394446 0.621485 0.15668
0.438102 0.623728 0.146471
0.490471 0.62707 0.140093
0.554513 0.634089 0.141176
0.629465 0.652537 0.145708
0.705287 0.677791 0.150256
0.761227 0.690547 0.154864
0.805966 0.69868 0.159487
0.843656 0.704601 0.164141
0.875639 0.70959 0.168826
0.903075 0.714611 0.173556
0.926955 0.71957 0.178317
0.948013 0.724605 0.183124
0.966903 0.729656 0.18793
0.984085 0.735149 0.192782
1 0.740414 0.197681
0.0196231 0.673106 0.321584
0.0195926 0.671366 0.311727
0.0229496 0.668925 0.302174
0.0321202 0.666728 0.292851
0.0419471 0.665034 0.283543
0.0560464 0.662394 0.274754
0.0721294 0.659617 0.266133
0.0894942 0.657282 0.257694
0.108309 0.655451 0.249546
0.128527 0.654627 0.24155
0.15079 0.654169 0.233738
0.181445 0.654032 0.226276
0.215702 0.653727 0.218769
0.249668 0.652491 0.210452
0.284443 0.650813 0.20174
0.318624 0.650767 0.19234
0.353063 0.652476 0.182193
0.390784 0.654749 0.171939
0.433173 0.657542 0.161456
0.481209 0.660212 0.151019
0.537148 0.662577 0.144823
0.604685 0.671656 0.146273
0.681422 0.694026 0.150835
0.750469 0.716625 0.155413
0.798093 0.725551 0.160052
0.837552 0.733013 0.164721
0.87097 0.738918 0.169406
0.89958 0.743908 0.174121
0.924376 0.748165 0.178882
0.946197 0.752575 0.183688
0.965743 0.756848 0.188525
0.983551 0.761624 0.193393
1 0.766217 0.198291
0.0199893 0.704662 0.337682
0.0199588 0.703105 0.327749
0.0223392 0.701442 0.317906
0.0315251 0.698817 0.308568
0.0406958 0.697124 0.299107
0.054078 0.694575 0.290211
0.0691386 0.692119 0.281376
0.0854353 0.690318 0.272633
0.103975 0.687892 0.264393
0.123568 0.686824 0.25626
0.145022 0.68632 0.248188
0.175525 0.686458 0.240665
0.210269 0.686656 0.233356
0.244663 0.685939 0.225254
0.279545 0.684367 0.216449
0.31519 0.683604 0.207431
0.350591 0.684627 0.197498
0.387594 0.687083 0.186999
0.429084 0.689677 0.176486
0.475532 0.693004 0.16585
0.527504 0.695384 0.155581
0.585657 0.696605 0.149828
0.653971 0.70753 0.151385
0.730327 0.733669 0.155962
0.790005 0.751842 0.160616
0.831342 0.759121 0.16527
0.866255 0.765774 0.16997
0.896025 0.771832 0.174716
0.921782 0.77641 0.179477
0.944366 0.780621 0.184283
0.964584 0.784131 0.18912
0.982986 0.788266 0.194003
1 0.792035 0.198886
0.0203403 0.734798 0.353841
0.0203098 0.733379 0.343908
0.0224765 0.732082 0.334081
0.0310216 0.729244 0.324437
0.0394446 0.72784 0.314977
0.0521096 0.725216 0.305821
0.0657206 0.723766 0.296727
0.0818341 0.721355 0.287907
0.0995041 0.719249 0.279454
0.118517 0.717632 0.271061
0.139223 0.717266 0.262943
0.169604 0.717311 0.255222
0.204486 0.717784 0.247837
0.239506 0.717586 0.240009
0.274693 0.716762 0.23154
0.311315 0.715221 0.222553
0.34786 0.715572 0.21294
0.384833 0.717739 0.202319
0.425498 0.72076 0.191699
0.471092 0.723766 0.181003
0.521431 0.727077 0.170459
0.576059 0.728649 0.160479
0.634012 0.729305 0.154803
0.699916 0.741146 0.156527
0.774395 0.770809 0.161181
0.825025 0.784833 0.16585
0.861433 0.791302 0.170565
0.892454 0.797116 0.175296
0.919158 0.802838 0.180072
0.942535 0.807584 0.184894
0.963409 0.811383 0.189715
0.982422 0.814847 0.194598
1 0.818006 0.199496
0.0206912 0.763607 0.370306
0.0206607 0.76231 0.36025
0.0226139 0.760922 0.350149
0.0304723 0.758404 0.340581
0.038117 0.757015 0.330938
0.0497444 0.754925 0.321599
0.0628824 0.753109 0.312245
0.0780194 0.751217 0.30341
0.0945144 0.749584 0.294514
0.113237 0.747448 0.286122
0.13344 0.746487 0.277775
0.163638 0.746868 0.270054
0.198703 0.747356 0.262501
0.234165 0.747799 0.254963
0.269734 0.747265 0.246601
0.306294 0.746197 0.23769
0.344244 0.745586 0.228336
0.3823 0.747036 0.218082
0.422248 0.749996 0.207141
0.467109 0.75346 0.196338
0.516411 0.757031 0.185519
0.569451 0.759915 0.175006
0.62533 0.760464 0.165484
0.682292 0.762478 0.159854
0.745998 0.777401 0.161746
0.813291 0.805463 0.16643
0.856565 0.81651 0.171145
0.888808 0.82208 0.175891
0.916503 0.827192 0.180652
0.940703 0.832197 0.185473
0.962264 0.836789 0.190311
0.981842 0.840742 0.195178
1 0.843854 0.200092
0.0210117 0.791028 0.386877
0.0209964 0.789868 0.376715
0.0227512 0.788693 0.366598
0.0295415 0.786542 0.356832
0.0367437 0.784955 0.347082
0.0468147 0.783795 0.337392
0.0598917 0.781491 0.328115
0.0737011 0.780148 0.318837
0.0899825 0.778088 0.310048
0.107988 0.775982 0.301472
0.127535 0.774762 0.292943
0.157717 0.774884 0.285023
0.19295 0.775494 0.277348
0.22858 0.776135 0.269734
0.264607 0.776287 0.261753
0.301381 0.775555 0.252964
0.340246 0.774395 0.243854
0.379522 0.775006 0.233936
0.419333 0.777874 0.222995
0.463432 0.781353 0.211948
0.512184 0.785092 0.200931
0.564157 0.788861 0.189929
0.618463 0.79115 0.179599
0.673243 0.790692 0.170825
0.727077 0.794186 0.164889
0.788449 0.81294 0.16701
0.847639 0.837751 0.171695
0.885115 0.846677 0.176455
0.913832 0.851423 0.181231
0.938857 0.855985 0.186053
0.961105 0.860243 0.19089
0.981292 0.864363 0.195789
1 0.86836 0.200687
0.0209812 0.817685 0.403449
0.0213016 0.816281 0.393179
0.0228275 0.815152 0.383047
0.0278935 0.814145 0.373053
0.0352789 0.811734 0.363317
0.0447395 0.81059 0.353582
0.0568551 0.808499 0.34406
0.0700847 0.807172 0.334737
0.0854353 0.80531 0.325628
0.102098 0.80383 0.316655
0.121401 0.801816 0.308049
0.151781 0.801648 0.30016
0.187167 0.80235 0.292363
0.222919 0.803098 0.284672
0.259419 0.803647 0.276875
0.296529 0.803525 0.268376
0.335286 0.802563 0.25919
0.375814 0.802335 0.249622
0.416861 0.804135 0.239017
0.460151 0.807843 0.227848
0.508309 0.811719 0.216632
0.559731 0.815793 0.205447
0.612924 0.819074 0.194491
0.667094 0.820264 0.184802
0.717769 0.819577 0.176135
0.766583 0.823865 0.16994
0.825711 0.845792 0.17229
0.878187 0.868132 0.17705
0.911131 0.875639 0.181827
0.93698 0.879667 0.186633
0.95993 0.883482 0.191501
0.980728 0.887312 0.196399
1 0.890806 0.201312
0.0199741 0.844221 0.42034
0.0215457 0.841596 0.409857
0.0229038 0.840635 0.399741
0.0272831 0.839582 0.389517
0.0336614 0.837644 0.37969
0.0425879 0.836225 0.369772
0.0530098 0.835401 0.35996
0.0662394 0.833158 0.35053
0.0802472 0.832059 0.341238
0.0967117 0.830091 0.332265
0.115373 0.828199 0.323629
0.145769 0.82742 0.315343
0.181384 0.828046 0.307515
0.217319 0.828809 0.299657
0.253971 0.829816 0.291997
0.291478 0.83003 0.283711
0.330343 0.829557 0.274754
0.37203 0.828534 0.265385
0.414313 0.829618 0.255329
0.457206 0.833036 0.243977
0.504753 0.83714 0.232654
0.555886 0.841291 0.22121
0.608392 0.845533 0.209903
0.661265 0.848173 0.199145
0.712718 0.847959 0.190219
0.757809 0.847272 0.18146
0.801129 0.851743 0.17499
0.858076 0.876234 0.17763
0.905623 0.896925 0.182437
0.935134 0.90338 0.187228
0.958755 0.906844 0.192111
0.980163 0.910124 0.196979
1 0.91339 0.201892
0.0202029 0.868635 0.437171
0.0215763 0.866392 0.42681
