LUT/LumixLab/Treeborn.cube
TITLE "Created by Nick Driftwood"
# #LUMIXPHOTOSTYLE VLOG
# 
LUT_3D_SIZE 5
0.000000 0.000000 0.000000
0.054562 0.000769 0.001395
0.325101 0.019833 0.046882
0.903734 0.144461 0.547796
0.939947 0.166690 0.693802
0.000000 0.050145 0.000000
0.039808 0.059355 0.006431
0.364176 0.068136 0.055323
0.875049 0.133016 0.482038
0.939947 0.166690 0.693802
0.031654 0.318520 0.072912
0.047516 0.322543 0.076535
0.444847 0.388730 0.106697
0.881380 0.281698 0.217217
0.917772 0.259827 0.248718
0.315104 0.804678 0.216510
0.317733 0.805590 0.217162
0.439912 0.837583 0.251907
1.000000 0.853983 0.270474
1.000000 0.773776 0.270094
0.504506 0.897135 0.289368
0.507154 0.897743 0.290183
0.632980 0.929987 0.323424
1.000000 0.971959 0.350814
1.000000 0.935959 0.333568
0.000000 0.004739 0.046465
0.051862 0.006939 0.049436
0.332951 0.021174 0.070359
0.904038 0.144587 0.548521
0.939947 0.166690 0.693802
0.000000 0.065793 0.047443
0.040789 0.091722 0.073787
0.393155 0.081904 0.095559
0.838213 0.128350 0.451880
0.939947 0.166690 0.693802
0.031922 0.316016 0.086155
0.052851 0.327382 0.093925
0.445777 0.388737 0.115159
0.860443 0.298510 0.214307
0.917558 0.259469 0.248646
0.316284 0.804946 0.216728
0.335042 0.765026 0.221858
0.486628 0.808006 0.250741
0.996973 0.823561 0.267399
1.000000 0.773776 0.270167
0.505991 0.897475 0.289803
0.508637 0.898064 0.290637
0.634017 0.930237 0.323642
1.000000 0.971959 0.350814
1.000000 0.935959 0.333568
0.008745 0.019958 0.251508
0.032118 0.019046 0.263409
0.361869 0.036142 0.310237
0.939947 0.166690 0.692407
0.939947 0.166690 0.693802
0.006313 0.080403 0.262286
0.034155 0.096400 0.288941
0.402744 0.091633 0.341985
0.897981 0.150279 0.591319
0.939947 0.166690 0.693802
0.060946 0.445528 0.409887
0.085717 0.454394 0.422828
0.259435 0.517425 0.469648
0.952990 0.413112 0.444522
0.981079 0.299742 0.357480
0.213098 0.754604 0.311686
0.217456 0.742596 0.345803
0.265438 0.759771 0.356570
0.951626 0.807412 0.375897
1.000000 0.766604 0.307664
0.304178 0.787259 0.262975
0.305304 0.787528 0.263192
0.360779 0.804678 0.277214
0.994313 0.910762 0.312211
1.000000 0.915107 0.317628
0.130191 0.062413 0.574878
0.139489 0.063092 0.581888
0.518688 0.111055 0.687426
0.939947 0.166690 0.693802
0.939947 0.166690 0.693802
0.101756 0.066543 0.551438
0.104955 0.093663 0.563235
0.359629 0.104329 0.656556
0.930861 0.164819 0.687608
0.939947 0.166690 0.693802
0.144783 0.425211 0.741301
0.150331 0.436326 0.728996
0.217209 0.469295 0.761958
0.940345 0.414743 0.808099
1.000000 0.338657 0.794902
0.396115 0.908258 0.915004
0.374438 0.884300 0.888428
0.399503 0.888443 0.891515
0.730281 0.935050 0.911805
0.983816 0.951822 0.937141
0.444347 0.957419 0.911617
0.444615 0.957419 0.911671
0.457510 0.959136 0.912939
0.692084 0.998212 0.929949
0.917486 1.000000 0.931941
0.311921 0.082299 0.655833
0.320881 0.083497 0.658370
0.714027 0.138703 0.695813
0.939947 0.166690 0.693802
0.939947 0.166690 0.693802
0.212758 0.069852 0.622847
0.221091 0.070782 0.626288
0.568386 0.118746 0.690361
0.939947 0.166690 0.693802
0.939947 0.166690 0.693802
0.164009 0.424873 0.768092
0.165313 0.425623 0.768926
0.209610 0.448263 0.801369
0.949498 0.414982 0.897687
1.000000 0.360814 0.860080
0.412426 0.908133 0.975544
0.413087 0.908258 0.975544
0.429272 0.910101 0.975599
0.703441 0.953736 0.991069
0.930773 0.950320 0.993732
0.467453 0.961765 0.978679
0.467720 0.961837 0.978733
0.478594 0.962874 0.979076
0.676992 0.993544 0.988134
0.873600 1.000000 0.989402
