LUT/LumixLab/Treeborn.cube
TITLE "Created by Nick Driftwood"
# #LUMIXPHOTOSTYLE VLOG
# 
LUT_3D_SIZE 33
0.000000 0.000000 0.000000
0.000000 0.000000 0.000000
0.000000 0.000000 0.000000
0.000000 0.000000 0.000000
0.000000 0.000000 0.000000
0.002504 0.000000 0.000272
0.016578 0.001037 0.000815
0.034604 0.000894 0.000562
0.054562 0.000769 0.001395
0.077202 0.000858 0.003170
0.102883 0.001484 0.005634
0.131908 0.002826 0.008931
0.165135 0.005454 0.013677
0.202993 0.009299 0.020180
0.244751 0.013806 0.028277
0.286384 0.017615 0.037172
0.325101 0.019833 0.046882
0.390321 0.031922 0.066645
0.486999 0.050163 0.094887
0.590239 0.068546 0.125066
0.664544 0.080100 0.150590
0.711845 0.085697 0.185135
0.754891 0.095443 0.256471
0.823330 0.116152 0.381519
0.903734 0.144461 0.547796
0.939947 0.166673 0.685289
0.939947 0.166690 0.693802
0.939947 0.166690 0.693802
0.939947 0.166690 0.693802
0.939947 0.166690 0.693802
0.939947 0.166690 0.693802
0.939947 0.166690 0.693802
0.939947 0.166690 0.693802
0.000000 0.000000 0.000000
0.000000 0.000000 0.000000
0.000000 0.000000 0.000000
0.000000 0.000000 0.000000
0.000000 0.000000 0.000000
0.002432 0.000000 0.000272
0.016506 0.001037 0.000815
0.034479 0.000894 0.000562
0.054365 0.000769 0.001322
0.077005 0.000858 0.003170
0.102757 0.001484 0.005634
0.131711 0.002826 0.008931
0.164866 0.005454 0.013677
0.202707 0.009299 0.020180
0.244537 0.013806 0.028223
0.286169 0.017615 0.037172
0.324868 0.019833 0.046809
0.389892 0.031850 0.066500
0.486176 0.050037 0.094668
0.589648 0.068475 0.124903
0.664169 0.080028 0.150445
0.711470 0.085625 0.184700
0.754586 0.095372 0.255892
0.822776 0.115938 0.380486
0.903340 0.144264 0.546764
0.939947 0.166673 0.684908
0.939947 0.166690 0.693802
0.939947 0.166690 0.693802
0.939947 0.166690 0.693802
0.939947 0.166690 0.693802
0.939947 0.166690 0.693802
0.939947 0.166690 0.693802
0.939947 0.166690 0.693802
0.000000 0.000000 0.000000
0.000000 0.000000 0.000000
0.000000 0.000000 0.000000
0.000000 0.000000 0.000000
0.000000 0.000000 0.000000
0.002361 0.000000 0.000272
0.016381 0.000966 0.000815
0.034354 0.000894 0.000562
0.054240 0.000787 0.001322
0.076934 0.000858 0.003170
0.102561 0.001484 0.005634
0.131514 0.002826 0.008858
0.164670 0.005401 0.013604
0.202439 0.009299 0.020108
0.244251 0.013734 0.028205
0.286026 0.017615 0.037099
0.324511 0.019761 0.046737
0.389284 0.031707 0.066283
0.485657 0.049894 0.094451
0.589041 0.068332 0.124686
0.663864 0.080028 0.150372
0.711238 0.085625 0.184392
0.754194 0.095300 0.255221
0.822221 0.115812 0.379472
0.902965 0.144050 0.545568
0.939947 0.166673 0.684546
0.939947 0.166690 0.693802
0.939947 0.166690 0.693802
0.939947 0.166690 0.693802
0.939947 0.166690 0.693802
0.939947 0.166690 0.693802
0.939947 0.166690 0.693802
0.939947 0.166690 0.693802
0.000000 0.000000 0.000000
0.000000 0.000000 0.000000
0.000000 0.000000 0.000000
0.000000 0.000000 0.000000
0.000000 0.000000 0.000000
0.002307 0.000054 0.000272
0.016310 0.001037 0.000888
0.034282 0.000966 0.000562
0.054169 0.000787 0.001322
0.076737 0.000858 0.003170
0.102436 0.001484 0.005634
0.131246 0.002826 0.008858
0.164401 0.005401 0.013604
0.202225 0.009246 0.020035
0.243965 0.013734 0.028151
0.285812 0.017615 0.037027
0.324207 0.019761 0.046592
0.388837 0.031653 0.066138
0.484834 0.049769 0.094288
0.588522 0.068279 0.124541
0.663418 0.079957 0.150137
0.710933 0.085554 0.184030
0.753889 0.095157 0.254642
0.821650 0.115615 0.378457
0.902500 0.143853 0.544535
0.939947 0.166673 0.684256
0.939947 0.166690 0.693802
0.939947 0.166690 0.693802
0.939947 0.166690 0.693802
0.939947 0.166690 0.693802
0.939947 0.166690 0.693802
0.939947 0.166690 0.693802
0.939947 0.166690 0.693802
0.000000 0.000000 0.000000
0.000000 0.000000 0.000000
0.000000 0.000000 0.000000
0.000000 0.000000 0.000000
0.000000 0.000000 0.000000
0.002164 0.000054 0.000272
0.016256 0.000966 0.000815
0.034157 0.000894 0.000562
0.054043 0.000787 0.001322
0.076613 0.000858 0.003170
0.102239 0.001484 0.005579
0.131049 0.002772 0.008786
0.164204 0.005329 0.013532
0.202010 0.009246 0.020035
0.243732 0.013734 0.028078
0.285507 0.017561 0.036954
0.324064 0.019690 0.046592
0.388480 0.031510 0.066065
0.484531 0.049698 0.094143
0.587771 0.068136 0.124305
0.663043 0.079903 0.149992
0.710630 0.085554 0.183740
0.753585 0.095086 0.254135
0.821256 0.115490 0.377570
0.902195 0.143710 0.543594
0.939947 0.166673 0.683894
0.939947 0.166690 0.693802
0.939947 0.166690 0.693802
0.939947 0.166690 0.693802
0.939947 0.166690 0.693802
0.939947 0.166690 0.693802
0.939947 0.166690 0.693802
0.939947 0.166690 0.693802
0.000000 0.002808 0.000000
0.000000 0.002808 0.000000
0.000000 0.002808 0.000000
0.000000 0.002808 0.000000
0.000000 0.002808 0.000000
0.001520 0.002879 0.000073
0.015469 0.003988 0.000960
0.033496 0.004060 0.000634
0.053453 0.003916 0.001196
0.076147 0.003863 0.003043
0.101971 0.004399 0.005507
0.130834 0.005544 0.008731
0.164258 0.008047 0.013550
0.202261 0.011803 0.020035
0.244894 0.016381 0.028368
0.287135 0.020137 0.037335
0.326299 0.022265 0.047135
0.384831 0.030777 0.064598
0.479308 0.048768 0.092494
0.583211 0.067331 0.122856
0.660395 0.079491 0.148796
0.708662 0.085268 0.181331
0.751654 0.094567 0.250784
0.818770 0.114614 0.372914
0.900211 0.142834 0.538431
0.939947 0.166601 0.682553
0.939947 0.166690 0.693802
0.939947 0.166690 0.693802
0.939947 0.166690 0.693802
0.939947 0.166690 0.693802
0.939947 0.166690 0.693802
0.939947 0.166690 0.693802
0.939947 0.166690 0.693802
0.000000 0.016506 0.000000
0.000000 0.016435 0.000000
0.000000 0.016435 0.000000
0.000000 0.016435 0.000000
0.000000 0.016435 0.000000
0.000000 0.016649 0.000000
0.012429 0.017776 0.001105
0.029078 0.019922 0.001522
0.050342 0.019672 0.001141
0.074055 0.019350 0.002319
0.100702 0.019171 0.005054
0.130495 0.019690 0.008568
0.164133 0.021210 0.013315
0.203136 0.024303 0.019963
0.248453 0.028864 0.028875
0.298115 0.033656 0.040107
0.340713 0.036053 0.050559
0.375729 0.035302 0.060540
0.459387 0.045102 0.085774
0.564487 0.064004 0.116570
0.650095 0.078025 0.144141
0.702976 0.084642 0.175100
0.745216 0.092832 0.239335
0.810598 0.111986 0.357535
0.895829 0.140921 0.527164
0.939626 0.166315 0.678713
0.939947 0.166690 0.693802
0.939947 0.166690 0.693802
0.939947 0.166690 0.693802
0.939947 0.166690 0.693802
0.939947 0.166690 0.693802
0.939947 0.166690 0.693802
0.939947 0.166690 0.693802
0.000000 0.032047 0.000000
0.000000 0.032047 0.000000
0.000000 0.032047 0.000000
0.000000 0.032047 0.000000
0.000000 0.032047 0.000000
0.000000 0.032244 0.000000
0.008816 0.033549 0.000453
0.024929 0.036428 0.003188
0.045406 0.038968 0.002935
0.070961 0.038217 0.002880
0.099056 0.037412 0.004746
0.130191 0.036893 0.008605
0.164992 0.037466 0.013713
0.204407 0.039379 0.020307
0.250706 0.042974 0.029183
0.302783 0.047677 0.040686
0.356647 0.052684 0.054073
0.400729 0.054955 0.066011
0.430523 0.051808 0.075847
0.534532 0.060446 0.106788
0.634340 0.075628 0.137673
0.692890 0.083676 0.165190
0.737276 0.090865 0.224988
0.800529 0.108927 0.339275
0.889374 0.138184 0.510896
0.939232 0.165975 0.673405
0.939947 0.166690 0.693802
0.939947 0.166690 0.693802
0.939947 0.166690 0.693802
0.939947 0.166690 0.693802
0.939947 0.166690 0.693802
0.939947 0.166690 0.693802
0.939947 0.166690 0.693802
0.000000 0.050145 0.000000
0.000000 0.050145 0.000000
0.000000 0.050145 0.000000
0.000000 0.050145 0.000000
0.000000 0.050145 0.000000
0.000000 0.050413 0.000000
0.005723 0.052023 0.000525
0.021514 0.054133 0.004148
0.039808 0.059355 0.006431
0.065757 0.061554 0.005706
0.096677 0.059981 0.006105
0.129565 0.058461 0.008931
0.166118 0.057638 0.014456
0.207017 0.058192 0.021502
0.254032 0.060142 0.030270
0.307647 0.063808 0.041737
0.364176 0.068136 0.055323
0.419578 0.072803 0.069942
0.466057 0.075432 0.083420
0.488322 0.070353 0.092332
0.595836 0.074949 0.124613
0.677402 0.081817 0.154901
0.726493 0.088254 0.205171
0.785060 0.104206 0.310834
0.875049 0.133016 0.482038
0.937247 0.164402 0.662555
0.939947 0.166690 0.693802
0.939947 0.166690 0.693802
0.939947 0.166690 0.693802
0.939947 0.166690 0.693802
0.939947 0.166690 0.693802
0.939947 0.166690 0.693802
0.939947 0.166690 0.693802
0.000000 0.071176 0.000000
0.000000 0.071176 0.000000
0.000000 0.071176 0.000000
0.000000 0.071176 0.000000
0.000000 0.071176 0.000000
0.000000 0.071515 0.000000
0.003094 0.073286 0.001775
0.017830 0.075271 0.005127
0.036589 0.079169 0.009999
0.058711 0.086806 0.011213
0.091885 0.087664 0.010525
0.128492 0.084892 0.011267
0.166905 0.082639 0.015579
0.209985 0.081655 0.023169
0.259004 0.081942 0.032426
0.313602 0.083569 0.043766
0.372045 0.086377 0.057062
0.430470 0.089774 0.071736
0.485747 0.093959 0.087260
0.532154 0.096015 0.101752
0.548213 0.089112 0.109903
0.636879 0.088254 0.137855
0.706678 0.084982 0.177618
0.762366 0.097464 0.269587
0.854251 0.126078 0.441498
0.931989 0.160610 0.639549
0.939947 0.166690 0.693802
0.939947 0.166690 0.693802
0.939947 0.166690 0.693802
0.939947 0.166690 0.693802
0.939947 0.166690 0.693802
0.939947 0.166690 0.693802
0.939947 0.166690 0.693802
0.000000 0.095694 0.002554
0.000000 0.095694 0.002554
0.000000 0.095765 0.002554
0.000000 0.095765 0.002554
0.000000 0.095765 0.002554
0.000000 0.095962 0.002754
0.000912 0.098037 0.004601
0.014611 0.100235 0.007626
0.032315 0.103312 0.012644
0.054902 0.109857 0.018369
0.083587 0.118852 0.018187
0.125451 0.117493 0.017481
0.167567 0.113452 0.018894
0.213098 0.110661 0.025451
0.264834 0.108998 0.035216
0.321292 0.108320 0.046610
0.381094 0.108695 0.059816
0.442093 0.110251 0.074489
0.499857 0.112504 0.089705
0.552380 0.115132 0.105266
0.597214 0.116438 0.120464
0.608837 0.108158 0.128235
0.666601 0.099932 0.149412
0.730748 0.089274 0.213104
0.817733 0.114346 0.371012
0.919418 0.152759 0.594605
0.939947 0.166690 0.693802
0.939947 0.166690 0.693802
0.939947 0.166690 0.693802
0.939947 0.166690 0.693802
0.939947 0.166690 0.693802
0.939947 0.166690 0.693802
0.939947 0.166690 0.693802
0.000000 0.124021 0.007771
0.000000 0.124021 0.007771
0.000000 0.124021 0.007771
0.000000 0.124021 0.007771
0.000000 0.124021 0.007771
0.000000 0.124289 0.007971
0.000000 0.126364 0.009565
0.012429 0.128903 0.012391
0.028560 0.131997 0.017209
0.050288 0.136486 0.024600
0.077936 0.146536 0.031121
0.115240 0.156533 0.029672
0.167478 0.152044 0.029546
0.216836 0.146965 0.032299
0.271415 0.142744 0.040686
0.330645 0.139204 0.051030
0.392003 0.136664 0.063366
0.454559 0.135502 0.078075
0.515022 0.135573 0.093437
0.570353 0.136253 0.109052
0.618351 0.136986 0.124287
0.659143 0.136718 0.139522
0.666852 0.126667 0.146931
0.687095 0.110590 0.159973
0.759362 0.096660 0.264333
0.885975 0.136896 0.503994
0.939947 0.166673 0.685506
0.939947 0.166673 0.685506
0.939947 0.166673 0.685506
0.939947 0.166673 0.685506
0.939947 0.166673 0.685506
0.939947 0.166673 0.685506
0.939947 0.166673 0.685506
0.000000 0.156247 0.016720
0.000000 0.156247 0.016720
0.000000 0.156247 0.016720
0.000000 0.156247 0.016720
0.000000 0.156247 0.016720
0.000000 0.156515 0.016992
0.001305 0.158714 0.019021
0.012232 0.161254 0.021629
0.026253 0.164455 0.025687
0.045746 0.168550 0.032027
0.073053 0.175345 0.041519
0.107408 0.189796 0.046972
0.156604 0.198702 0.043784
0.219893 0.190994 0.044690
0.278086 0.184019 0.048512
0.340570 0.177491 0.058149
0.405183 0.171787 0.069271
0.468830 0.167210 0.082459
0.531243 0.164473 0.098219
0.588325 0.162273 0.113617
0.637701 0.160556 0.128580
0.679835 0.159233 0.143452
0.716585 0.157194 0.159014
0.720930 0.145302 0.166277
0.699256 0.118995 0.169575
0.797149 0.107890 0.333026
0.923638 0.155281 0.608662
0.923638 0.155281 0.608662
0.923566 0.155281 0.608427
0.923566 0.155281 0.608427
0.923566 0.155281 0.608427
0.923566 0.155281 0.608427
0.923566 0.155281 0.608427
0.000000 0.192442 0.028839
0.000000 0.192442 0.028839
0.000000 0.192442 0.028839
0.000000 0.192442 0.028839
0.000000 0.192442 0.028839
0.000000 0.192657 0.029038
0.005848 0.194625 0.030759
0.015129 0.196842 0.032969
0.026843 0.199900 0.036248
0.043170 0.203977 0.041465
0.067527 0.209771 0.049816
0.101953 0.219732 0.060939
0.144461 0.238384 0.062841
0.209682 0.243786 0.059109
0.284344 0.232984 0.061337
0.350996 0.223380 0.066337
0.418630 0.214528 0.077115
0.485443 0.206946 0.088853
0.548284 0.200419 0.103310
0.606996 0.195232 0.119124
0.658338 0.190833 0.134286
0.702064 0.186988 0.149267
0.739100 0.183125 0.164050
0.770754 0.178028 0.179103
0.770843 0.163399 0.186058
0.698952 0.127186 0.176566
0.818859 0.114686 0.373059
0.818859 0.114686 0.373059
0.818859 0.114686 0.373059
0.818859 0.114686 0.373059
0.818859 0.114686 0.373059
0.818538 0.114614 0.372552
0.818538 0.114614 0.372552
0.006045 0.231983 0.042679
0.006045 0.231983 0.042679
0.006045 0.231983 0.042679
0.006045 0.231983 0.042679
0.006045 0.231983 0.042679
0.006778 0.232197 0.042842
0.013287 0.233752 0.044309
0.020924 0.235666 0.046084
0.030670 0.238152 0.048747
0.043832 0.241764 0.052642
0.063772 0.247023 0.059145
0.094710 0.255159 0.069525
0.137022 0.269967 0.080720
0.190511 0.292196 0.077803
0.275707 0.291141 0.075340
0.360313 0.276762 0.078582
0.432150 0.264852 0.085249
0.501520 0.254175 0.096879
0.566758 0.244752 0.108817
0.625917 0.236114 0.124703
0.678976 0.228066 0.140011
0.724865 0.221109 0.155227
0.763564 0.214940 0.170498
0.796147 0.208483 0.185569
0.823938 0.200776 0.201004
0.819556 0.183304 0.208303
0.733788 0.146893 0.192309
0.733788 0.146893 0.192309
0.734093 0.146947 0.192381
0.734093 0.146947 0.192381
0.734093 0.146947 0.192381
0.734093 0.146947 0.192381
0.734093 0.146947 0.192381
0.017705 0.274098 0.057606
0.017705 0.274098 0.057606
0.017705 0.274098 0.057606
0.017705 0.274098 0.057606
0.017758 0.274259 0.057678
0.018223 0.274241 0.057678
0.023284 0.275456 0.058801
0.029543 0.277030 0.060250
0.037573 0.279105 0.062352
0.048249 0.282216 0.065359
0.063915 0.286670 0.070014
0.088916 0.293573 0.078040
0.128134 0.305108 0.090194
0.179530 0.326782 0.099017
0.248989 0.349798 0.091463
0.355699 0.339604 0.091516
0.444401 0.322400 0.096480
0.516774 0.308202 0.104034
0.584122 0.295450 0.115248
0.644998 0.283397 0.127910
0.698665 0.272310 0.144376
0.746933 0.262938 0.160843
0.787903 0.254515 0.177056
0.822490 0.246235 0.193069
0.852122 0.237186 0.209010
0.876443 0.225938 0.224879
0.873279 0.214546 0.238664
0.873279 0.214546 0.238664
0.873279 0.214546 0.238664
0.873279 0.214546 0.238664
0.873279 0.214546 0.238664
0.873279 0.214546 0.238664
0.873279 0.214546 0.238664
0.031654 0.318520 0.072912
0.031654 0.318520 0.072912
0.031707 0.318663 0.072912
0.031707 0.318663 0.072912
0.031707 0.318663 0.072912
0.032047 0.318734 0.072985
0.035999 0.319522 0.073765
0.040863 0.320809 0.074923
0.047516 0.322543 0.076535
0.056404 0.325065 0.078836
0.068851 0.328892 0.082332
0.088254 0.334668 0.088057
0.120372 0.344075 0.097857
0.169534 0.360992 0.110828
0.231285 0.390876 0.114360
0.323670 0.408044 0.103943
0.444847 0.388730 0.106697
0.531206 0.369523 0.112548
0.600486 0.353232 0.120536
0.662398 0.338102 0.131062
0.718033 0.324689 0.147058
0.766998 0.312725 0.165226
0.810884 0.302299 0.183069
0.848564 0.292267 0.200207
0.881380 0.281698 0.217217
0.911173 0.270270 0.234715
0.917701 0.259755 0.248646
0.917701 0.259755 0.248646
0.917701 0.259755 0.248646
0.917772 0.259827 0.248718
0.917772 0.259827 0.248718
0.917772 0.259827 0.248718
0.917772 0.259827 0.248718
0.049090 0.365589 0.088347
0.049090 0.365589 0.088347
0.049090 0.365589 0.088347
0.049090 0.365589 0.088347
0.049090 0.365589 0.088347
0.049430 0.365732 0.088437
0.052130 0.366304 0.088980
0.056082 0.367306 0.089832
0.061143 0.368683 0.091009
0.068457 0.370846 0.092876
0.078525 0.373887 0.095521
0.093656 0.378661 0.099704
0.118728 0.386495 0.106915
0.160449 0.399889 0.118635
0.221128 0.424533 0.130536
0.294699 0.460692 0.125320
0.412550 0.465646 0.114541
0.536821 0.440216 0.121352
0.615920 0.419310 0.127982
0.678296 0.400550 0.136025
0.734916 0.384277 0.147111
0.785418 0.369684 0.167292
0.830752 0.357220 0.187109
0.872509 0.346257 0.206419
0.910064 0.334794 0.224879
0.935549 0.321865 0.243193
0.947065 0.309488 0.257685
0.947065 0.309488 0.257685
0.947065 0.309488 0.257685
0.947065 0.309488 0.257685
0.947065 0.309488 0.257685
0.947065 0.309579 0.257685
0.947065 0.309579 0.257685
0.069834 0.414696 0.103599
0.069834 0.414696 0.103599
0.069834 0.414839 0.103599
0.069834 0.414839 0.103599
0.069834 0.414839 0.103599
0.069960 0.414768 0.103599
0.071945 0.415340 0.104071
0.074770 0.415984 0.104704
0.078848 0.417147 0.105665
0.084320 0.418810 0.107078
0.092474 0.421439 0.109197
0.104653 0.425516 0.112421
0.124057 0.431900 0.117602
0.157355 0.442630 0.126750
0.210988 0.461748 0.139522
0.282664 0.494260 0.145427
0.372045 0.531671 0.133054
0.509800 0.523319 0.126695
0.625594 0.493884 0.136497
0.694356 0.471315 0.143343
0.749597 0.451554 0.151586
0.800744 0.433939 0.165480
0.847259 0.418416 0.188105
0.892128 0.405487 0.209445
0.929950 0.394095 0.230423
0.955685 0.381612 0.250566
0.974838 0.368324 0.268645
0.974838 0.368324 0.268645
0.974838 0.368324 0.268645
0.974838 0.368324 0.268645
0.974838 0.368324 0.268645
0.974838 0.368324 0.268645
0.974838 0.368324 0.268645
0.093530 0.465539 0.118599
0.093530 0.465539 0.118599
0.093530 0.465539 0.118599
0.093530 0.465539 0.118599
0.093530 0.465539 0.118599
0.093656 0.465611 0.118599
0.095104 0.466057 0.118997
0.097017 0.466558 0.119396
0.099968 0.467434 0.120174
0.104582 0.469043 0.121370
0.110769 0.471065 0.122946
0.120497 0.474337 0.125447
0.136038 0.479703 0.129504
0.162220 0.488232 0.136043
0.206373 0.503075 0.146387
0.272274 0.529328 0.157437
0.354573 0.569942 0.157075
0.464251 0.600611 0.141296
0.608785 0.580082 0.141314
0.708054 0.549143 0.152673
0.766175 0.526288 0.159720
0.813978 0.504775 0.167165
0.860814 0.485908 0.185461
0.907472 0.469902 0.209554
0.942916 0.456757 0.232360
0.971011 0.445313 0.255076
0.993973 0.433617 0.275981
0.993973 0.433617 0.275981
0.993973 0.433617 0.275981
0.993973 0.433617 0.275981
0.993973 0.433617 0.275981
0.994045 0.433850 0.276054
0.994045 0.433850 0.276054
0.120301 0.517901 0.133271
0.120301 0.517901 0.133271
0.120301 0.517901 0.133271
0.120372 0.518062 0.133344
0.120372 0.518062 0.133344
0.120445 0.518133 0.133344
0.121500 0.518401 0.133562
0.123002 0.518902 0.133942
0.125237 0.519618 0.134449
0.128868 0.520673 0.135247
0.134322 0.522604 0.136569
0.142226 0.525394 0.138453
0.154333 0.529561 0.141261
0.175185 0.536822 0.146079
0.210594 0.548714 0.154213
0.267660 0.569762 0.166005
0.345059 0.604117 0.174067
0.439286 0.648878 0.167129
0.566239 0.666028 0.152166
0.702456 0.636307 0.159303
0.782949 0.606692 0.170896
0.831771 0.582728 0.176838
0.874137 0.559283 0.183251
0.919667 0.539110 0.206583
0.952859 0.522819 0.231564
0.982009 0.510247 0.255855
1.000000 0.499660 0.278826
1.000000 0.499660 0.278826
1.000000 0.499660 0.278826
1.000000 0.499660 0.278826
1.000000 0.499660 0.278826
1.000000 0.499660 0.278826
1.000000 0.499660 0.278826
0.151168 0.573160 0.147492
0.151240 0.573322 0.147547
0.151240 0.573322 0.147547
0.151240 0.573322 0.147547
0.151240 0.573322 0.147547
0.151364 0.573393 0.147547
0.152223 0.573679 0.147764
0.153278 0.573965 0.147981
0.155120 0.574609 0.148416
0.157749 0.575539 0.148995
0.162756 0.577274 0.150137
0.169463 0.579742 0.151658
0.180461 0.583533 0.154086
0.196502 0.589345 0.157745
0.225205 0.599377 0.164375
0.272721 0.616313 0.175100
0.342233 0.643961 0.187363
0.431041 0.685450 0.189953
0.538109 0.728369 0.177074
0.670089 0.727958 0.168378
0.788172 0.693516 0.181005
0.852427 0.665367 0.190787
0.894757 0.639633 0.195007
0.932312 0.613881 0.201004
0.961730 0.592582 0.228701
0.990432 0.576826 0.254570
1.000000 0.565577 0.278826
1.000000 0.565811 0.278898
1.000000 0.565811 0.278898
1.000000 0.565811 0.278898
1.000000 0.565811 0.278898
1.000000 0.565811 0.278826
1.000000 0.565811 0.278826
0.188938 0.634983 0.163614
0.188938 0.634983 0.163614
0.188938 0.634983 0.163614
0.189081 0.635126 0.163686
0.189081 0.635126 0.163686
0.189134 0.635198 0.163686
0.189724 0.635358 0.163831
0.190850 0.635716 0.164050
0.192228 0.636324 0.164412
0.194535 0.636986 0.164846
0.199202 0.638756 0.165915
0.205390 0.640903 0.167274
0.214600 0.644229 0.169303
0.230731 0.649916 0.173052
0.255213 0.658553 0.178741
0.293394 0.672073 0.187834
0.352319 0.693908 0.201039
0.433813 0.729211 0.211402
0.534658 0.777924 0.205912
0.643854 0.810347 0.191312
0.771540 0.792499 0.191820
0.868217 0.754676 0.206511
0.922618 0.725831 0.213032
0.951071 0.696394 0.214699
0.972656 0.666976 0.220658
0.998391 0.645927 0.252196
1.000000 0.631675 0.277141
1.000000 0.631675 0.277141
1.000000 0.631675 0.277141
1.000000 0.631675 0.277069
1.000000 0.631675 0.277069
1.000000 0.631675 0.277069
1.000000 0.631675 0.277069
0.239422 0.708162 0.184284
0.239548 0.708323 0.184284
0.239548 0.708323 0.184284
0.239548 0.708323 0.184284
0.239548 0.708323 0.184284
0.239619 0.708394 0.184356
0.240137 0.708626 0.184501
0.241514 0.709091 0.184790
0.242963 0.709628 0.185080
0.245663 0.710558 0.185733
0.249615 0.712025 0.186675
0.255552 0.714206 0.188052
0.263780 0.717049 0.189917
0.278855 0.722629 0.193612
0.299975 0.730320 0.198902
0.335044 0.742927 0.208068
0.384974 0.762420 0.220496
0.455864 0.792589 0.233773
0.549501 0.826263 0.238393
0.648485 0.859240 0.227451
0.755338 0.870024 0.216147
0.869451 0.849297 0.224190
0.948907 0.824028 0.237071
0.977467 0.791676 0.239008
0.994366 0.753889 0.236672
1.000000 0.719625 0.245259
1.000000 0.699453 0.275891
1.000000 0.699542 0.275891
1.000000 0.699542 0.275891
1.000000 0.699542 0.275891
1.000000 0.699542 0.275891
1.000000 0.699542 0.275891
1.000000 0.699542 0.275891
0.315104 0.804678 0.216510
0.315104 0.804678 0.216510
0.315104 0.804678 0.216510
0.315247 0.804803 0.216510
0.315247 0.804803 0.216510
0.315301 0.804803 0.216583
0.315641 0.804803 0.216583
0.316893 0.805268 0.216945
0.317733 0.805590 0.217162
0.319718 0.806127 0.217669
0.322812 0.806985 0.218485
0.327408 0.808237 0.219571
0.336028 0.810668 0.221981
0.348868 0.814031 0.225513
0.367288 0.818842 0.230568
0.397349 0.826531 0.239497
0.439912 0.837583 0.251907
0.505346 0.854304 0.268318
0.590954 0.879252 0.280872
0.680424 0.909778 0.276887
0.767069 0.935119 0.259461
0.866179 0.931953 0.252631
0.965359 0.905039 0.265837
1.000000 0.881147 0.274623
1.000000 0.853983 0.270474
1.000000 0.818609 0.261617
1.000000 0.773596 0.270094
1.000000 0.773596 0.270094
1.000000 0.773596 0.270094
1.000000 0.773776 0.270094
1.000000 0.773776 0.270094
1.000000 0.773776 0.270094
1.000000 0.773776 0.270094
0.412998 0.874441 0.259496
0.413069 0.874441 0.259496
0.413069 0.874441 0.259496
0.413069 0.874441 0.259496
0.413069 0.874441 0.259496
0.413266 0.874512 0.259569
0.413463 0.874512 0.259641
0.413998 0.874709 0.259786
0.415984 0.875227 0.260457
0.417718 0.875692 0.261055
0.421421 0.876676 0.262251
0.425927 0.877857 0.263753
0.433421 0.879895 0.266217
0.444293 0.882738 0.269785
0.464394 0.887800 0.276688
0.494188 0.894775 0.286216
0.537447 0.904967 0.298969
0.597714 0.919721 0.316142
0.669355 0.940573 0.330236
0.745663 0.965771 0.334402
0.820505 0.989538 0.326576
0.895847 1.000000 0.318225
0.981205 0.989269 0.316523
1.000000 0.966826 0.324783
1.000000 0.942147 0.323171
1.000000 0.910368 0.310327
1.000000 0.868253 0.291179
1.000000 0.868450 0.291324
1.000000 0.868450 0.291324
1.000000 0.868450 0.291324
1.000000 0.868450 0.291324
1.000000 0.868450 0.291324
1.000000 0.868646 0.291397
0.504506 0.897135 0.289368
0.504506 0.897135 0.289368
0.504506 0.897135 0.289368
0.504506 0.897135 0.289368
0.504506 0.897135 0.289368
0.504506 0.897135 0.289368
0.505669 0.897403 0.289731
0.505669 0.897403 0.289731
0.507154 0.897743 0.290183
0.509818 0.898333 0.291017
0.513555 0.899192 0.292140
0.519475 0.900568 0.293861
0.528953 0.902929 0.296651
0.543599 0.906559 0.300853
0.563898 0.911549 0.306559
0.593851 0.918862 0.315164
0.634411 0.930379 0.323642
0.686487 0.945777 0.333623
0.745342 0.965771 0.334546
0.808827 0.986175 0.328786
0.876677 1.000000 0.320164
0.957008 1.000000 0.319348
1.000000 0.989395 0.330363
1.000000 0.979272 0.344076
1.000000 0.971708 0.350886
1.000000 0.965646 0.352753
1.000000 0.935959 0.333568
1.000000 0.935959 0.333568
