LUT/LumixLab/Treeborn.cube
TITLE "Created by Nick Driftwood"
# #LUMIXPHOTOSTYLE VLOG
# 
LUT_3D_SIZE 9
0.000000 0.000000 0.000000
0.000000 0.000000 0.000000
0.054562 0.000769 0.001395
0.165135 0.005454 0.013677
0.325101 0.019833 0.046882
0.664544 0.080100 0.150590
0.903734 0.144461 0.547796
0.939947 0.166690 0.693802
0.939947 0.166690 0.693802
0.000000 0.000000 0.000000
0.000000 0.000000 0.000000
0.054043 0.000787 0.001322
0.164204 0.005329 0.013532
0.324064 0.019690 0.046592
0.663043 0.079903 0.149992
0.902195 0.143710 0.543594
0.939947 0.166690 0.693802
0.939947 0.166690 0.693802
0.000000 0.050145 0.000000
0.000000 0.050145 0.000000
0.039808 0.059355 0.006431
0.166118 0.057638 0.014456
0.364176 0.068136 0.055323
0.595836 0.074949 0.124613
0.875049 0.133016 0.482038
0.939947 0.166690 0.693802
0.939947 0.166690 0.693802
0.000000 0.156247 0.016720
0.000000 0.156247 0.016720
0.026253 0.164455 0.025687
0.156604 0.198702 0.043784
0.405183 0.171787 0.069271
0.637701 0.160556 0.128580
0.699256 0.118995 0.169575
0.923566 0.155281 0.608427
0.923566 0.155281 0.608427
0.031654 0.318520 0.072912
0.031707 0.318663 0.072912
0.047516 0.322543 0.076535
0.120372 0.344075 0.097857
0.444847 0.388730 0.106697
0.718033 0.324689 0.147058
0.881380 0.281698 0.217217
0.917701 0.259755 0.248646
0.917772 0.259827 0.248718
0.120301 0.517901 0.133271
0.120372 0.518062 0.133344
0.125237 0.519618 0.134449
0.154333 0.529561 0.141261
0.345059 0.604117 0.174067
0.782949 0.606692 0.170896
0.952859 0.522819 0.231564
1.000000 0.499660 0.278826
1.000000 0.499660 0.278826
0.315104 0.804678 0.216510
0.315247 0.804803 0.216510
0.317733 0.805590 0.217162
0.336028 0.810668 0.221981
0.439912 0.837583 0.251907
0.767069 0.935119 0.259461
1.000000 0.853983 0.270474
1.000000 0.773596 0.270094
1.000000 0.773776 0.270094
0.504506 0.897135 0.289368
0.504506 0.897135 0.289368
0.507154 0.897743 0.290183
0.528953 0.902929 0.296651
0.634017 0.930237 0.323642
0.875854 1.000000 0.320254
1.000000 0.971834 0.350886
1.000000 0.935959 0.333568
1.000000 0.935959 0.333568
0.504506 0.897135 0.289368
0.504506 0.897135 0.289368
0.507154 0.897743 0.290183
0.528649 0.902875 0.296487
0.632980 0.929987 0.323424
0.874154 1.000000 0.320417
1.000000 0.971959 0.350814
1.000000 0.935959 0.333568
1.000000 0.935959 0.333568
0.000000 0.000000 0.000000
0.000000 0.000000 0.000000
0.054491 0.000769 0.001322
0.165081 0.005454 0.013677
0.325011 0.019833 0.046809
0.664544 0.080100 0.150590
0.903734 0.144390 0.547633
0.939947 0.166690 0.693802
0.939947 0.166690 0.693802
0.000000 0.000000 0.000000
0.006805 0.014078 0.010835
0.064482 0.014477 0.012418
0.181950 0.017280 0.022896
0.351713 0.029172 0.057358
0.625160 0.075268 0.186899
0.852392 0.133329 0.483783
0.936664 0.164674 0.679829
0.939947 0.166690 0.693802
0.000000 0.050145 0.000000
0.000000 0.063360 0.010097
0.052132 0.075258 0.018833
0.190043 0.068542 0.025950
0.377257 0.072535 0.060951
0.559687 0.072247 0.117345
0.837804 0.127763 0.445098
0.935188 0.163649 0.671423
0.939947 0.166690 0.693802
0.000000 0.156247 0.016720
0.002274 0.167059 0.026426
0.035835 0.175547 0.034994
0.187539 0.207068 0.048589
0.418352 0.178870 0.073256
0.630888 0.165806 0.131249
0.715710 0.134459 0.175105
0.882490 0.164638 0.475444
0.923566 0.155281 0.608427
0.031654 0.318520 0.072912
0.042022 0.325836 0.073814
0.056692 0.330101 0.077273
0.145139 0.359076 0.098888
0.452929 0.393941 0.106584
0.703090 0.333349 0.148540
0.860823 0.298569 0.214267
0.876710 0.272240 0.235951
0.917772 0.259827 0.248718
0.120301 0.517901 0.133271
0.139291 0.530791 0.136856
0.145791 0.532855 0.138438
0.187515 0.546210 0.148748
0.381858 0.618093 0.175409
0.766570 0.611317 0.177230
0.927375 0.531219 0.226845
0.992358 0.506674 0.267447
1.000000 0.499660 0.278826
0.315104 0.804678 0.216510
0.326864 0.762578 0.219542
0.332435 0.764025 0.221188
0.364822 0.772820 0.229785
0.484616 0.807080 0.250343
0.754624 0.877603 0.266281
0.997487 0.823372 0.267199
1.000000 0.767905 0.288424
1.000000 0.773776 0.270094
0.504506 0.897135 0.289368
0.480598 0.887061 0.280546
0.485883 0.888299 0.282128
0.518533 0.896403 0.291313
0.633694 0.928882 0.309512
0.849699 0.967222 0.322343
1.000000 0.962704 0.331611
1.000000 0.926411 0.325926
1.000000 0.935959 0.333568
0.504506 0.897135 0.289368
0.504506 0.897135 0.289368
0.507154 0.897743 0.290183
0.528649 0.902875 0.296487
0.632980 0.929987 0.323424
0.874083 1.000000 0.320417
1.000000 0.971959 0.350814
1.000000 0.935959 0.333568
1.000000 0.935959 0.333568
0.000000 0.004739 0.046465
0.000000 0.004739 0.046465
0.051862 0.006939 0.049436
0.171876 0.010480 0.055069
0.332951 0.021174 0.070359
0.668908 0.080761 0.152546
0.904038 0.144587 0.548521
0.939947 0.166690 0.693802
0.939947 0.166690 0.693802
0.000000 0.004739 0.046465
0.003758 0.018766 0.056144
0.061296 0.021655 0.062271
0.194043 0.022531 0.067554
0.357604 0.029650 0.081458
0.630210 0.076581 0.194324
0.852478 0.133370 0.484159
0.936664 0.164667 0.679796
0.939947 0.166690 0.693802
0.000000 0.065793 0.047443
0.000000 0.080984 0.062998
0.040789 0.091722 0.073787
0.199179 0.089556 0.080386
0.393155 0.081904 0.095559
0.567762 0.069862 0.120905
0.838213 0.128350 0.451880
0.932999 0.163174 0.669162
0.939947 0.166690 0.693802
0.000000 0.167620 0.054472
0.004615 0.185847 0.071566
0.030093 0.195677 0.079416
0.167850 0.230103 0.100936
0.423227 0.191266 0.103436
0.630843 0.165172 0.131304
0.714199 0.133561 0.174999
0.880833 0.164120 0.474710
0.925212 0.156228 0.614205
0.031922 0.316016 0.086155
0.039722 0.323093 0.090959
0.052851 0.327382 0.093925
0.131509 0.350803 0.113565
0.445777 0.388737 0.115159
0.703408 0.333350 0.148649
0.860443 0.298510 0.214307
0.878647 0.273052 0.236531
0.917558 0.259469 0.248646
0.122483 0.518616 0.133797
0.141357 0.531251 0.137279
0.148251 0.533560 0.138901
0.189750 0.546990 0.149253
0.384092 0.619148 0.175378
0.766601 0.611440 0.177223
0.926882 0.531500 0.226917
0.991377 0.507318 0.267229
1.000000 0.499660 0.278826
0.316284 0.804946 0.216728
0.328901 0.763063 0.220154
0.335042 0.765026 0.221858
0.366930 0.773707 0.230324
0.486628 0.808006 0.250741
0.756014 0.878087 0.266330
0.996973 0.823561 0.267399
1.000000 0.768138 0.288041
1.000000 0.773776 0.270167
0.505991 0.897475 0.289803
0.482920 0.887589 0.281258
0.487875 0.886283 0.282553
0.519855 0.894263 0.291457
0.634759 0.926684 0.309479
0.850460 0.965334 0.321550
1.000000 0.959989 0.331411
1.000000 0.924820 0.325435
1.000000 0.935959 0.333568
0.505991 0.897475 0.289803
0.505991 0.897475 0.289803
0.508637 0.898064 0.290637
0.529669 0.903126 0.296796
0.634017 0.930237 0.323642
0.874154 1.000000 0.320417
1.000000 0.971959 0.350814
1.000000 0.935959 0.333568
1.000000 0.935959 0.333568
0.000000 0.005311 0.122293
0.000000 0.005311 0.122293
0.034157 0.005597 0.136297
0.167173 0.008977 0.141333
0.349691 0.023695 0.143562
0.711899 0.088862 0.244244
0.915215 0.150219 0.580765
0.939947 0.166690 0.693802
0.939947 0.166690 0.693802
0.000000 0.005311 0.122293
0.002522 0.020663 0.136230
0.037680 0.020934 0.153170
0.183772 0.023328 0.159810
0.382020 0.034642 0.166240
0.681416 0.092125 0.308852
0.857715 0.135162 0.495674
0.936691 0.164685 0.679926
0.939947 0.166690 0.693802
0.000000 0.075879 0.140934
0.002839 0.090546 0.160693
0.033329 0.099097 0.174037
0.187251 0.107416 0.196890
0.431109 0.090572 0.194651
0.604253 0.074745 0.204932
0.848482 0.132269 0.476777
0.933828 0.163797 0.674749
0.939947 0.166690 0.693802
0.000000 0.209879 0.172165
0.011280 0.227593 0.194563
0.033756 0.236612 0.204834
0.115067 0.265792 0.228288
0.451598 0.249982 0.235834
0.687302 0.206127 0.235017
0.722691 0.132435 0.191995
0.887535 0.167409 0.496569
0.931132 0.160002 0.635834
0.037770 0.375889 0.198449
0.047670 0.387349 0.209551
0.059567 0.393033 0.214551
0.101151 0.413263 0.228277
0.374775 0.466558 0.255429
0.718734 0.373919 0.231537
0.862174 0.301981 0.223321
0.879687 0.275255 0.242995
0.916520 0.258056 0.248428
0.110108 0.512572 0.184827
0.114444 0.520119 0.190041
0.118394 0.521921 0.191015
0.141614 0.531178 0.196159
0.302511 0.578127 0.233579
0.740568 0.596447 0.212234
0.925798 0.530046 0.231316
0.991015 0.506372 0.270666
1.000000 0.499427 0.278898
0.321416 0.805142 0.217687
0.300177 0.751348 0.216398
0.304089 0.752812 0.217452
0.327196 0.759249 0.223942
0.447909 0.793007 0.253897
0.747424 0.873624 0.263679
0.995211 0.820713 0.267967
1.000000 0.766144 0.286576
1.000000 0.773596 0.270167
0.514181 0.899316 0.292375
0.453775 0.873641 0.274857
0.456792 0.871926 0.275526
0.480579 0.878030 0.282378
0.594902 0.909600 0.309004
0.839484 0.960110 0.316251
1.000000 0.958023 0.329935
1.000000 0.922810 0.323902
1.000000 0.935762 0.333423
0.514181 0.899316 0.292375
0.514181 0.899316 0.292375
0.518062 0.900229 0.293498
0.538467 0.905307 0.299349
0.639597 0.931882 0.324693
0.875782 1.000000 0.320254
1.000000 0.971959 0.350814
1.000000 0.935762 0.333423
1.000000 0.935762 0.333423
0.008745 0.019958 0.251508
0.008745 0.019958 0.251580
0.032118 0.019046 0.263409
0.115597 0.013556 0.312393
0.361869 0.036142 0.310237
0.813655 0.121160 0.458091
0.939947 0.166690 0.692407
0.939947 0.166690 0.693802
0.939947 0.166690 0.693802
0.008745 0.019958 0.251580
0.015283 0.034121 0.263983
0.035610 0.033094 0.276658
0.133812 0.027802 0.328392
0.409961 0.050526 0.334698
0.732483 0.109081 0.443717
0.902082 0.150910 0.596160
0.937705 0.165197 0.683353
0.939947 0.166690 0.693802
0.006313 0.080403 0.262286
0.014648 0.091445 0.278464
0.034155 0.096400 0.288941
0.108297 0.097866 0.337336
0.402744 0.091633 0.341985
0.670515 0.093386 0.363577
0.897981 0.150279 0.591319
0.934758 0.164191 0.677566
0.939947 0.166690 0.693802
0.017633 0.226188 0.334565
0.030084 0.241389 0.351681
0.047570 0.247055 0.359275
0.101851 0.269368 0.388531
0.419399 0.276758 0.430005
0.739780 0.207819 0.389020
0.812374 0.146446 0.369500
0.928302 0.178154 0.600070
0.939947 0.166690 0.693730
0.060946 0.445528 0.409887
0.075004 0.451015 0.418006
0.085717 0.454394 0.422828
0.121793 0.469212 0.438100
0.259435 0.517425 0.469648
0.758034 0.481933 0.465467
0.952990 0.413112 0.444522
0.924715 0.345596 0.389627
0.981079 0.299742 0.357480
0.130906 0.644407 0.402007
0.142490 0.640977 0.414164
0.146027 0.642364 0.415524
0.164298 0.650149 0.422716
0.225805 0.679912 0.440250
0.636366 0.723983 0.465934
0.953599 0.618376 0.413468
1.000000 0.562175 0.391461
1.000000 0.537716 0.349437
0.213098 0.754604 0.311686
0.216185 0.741916 0.345266
0.217456 0.742596 0.345803
0.225286 0.745510 0.347923
0.265438 0.759771 0.356570
0.541378 0.811283 0.415777
0.951626 0.807412 0.375897
1.000000 0.765217 0.369206
1.000000 0.766604 0.307664
0.304249 0.787331 0.262884
0.340285 0.853747 0.342154
0.338736 0.850698 0.341424
0.346333 0.852884 0.343615
0.390862 0.865185 0.355149
0.643472 0.912740 0.409611
0.986527 0.942475 0.390119
1.000000 0.915183 0.392308
1.000000 0.915107 0.317628
0.304178 0.787259 0.262975
0.304178 0.787259 0.262975
0.305304 0.787528 0.263192
0.312475 0.789799 0.264894
0.360779 0.804678 0.277214
0.605351 0.879306 0.325689
0.994313 0.910762 0.312211
1.000000 0.915107 0.317628
1.000000 0.915107 0.317628
0.051540 0.053042 0.458381
0.051593 0.053131 0.458525
0.063182 0.053382 0.467294
0.106156 0.051862 0.502382
0.355216 0.072445 0.591072
0.899960 0.158393 0.661160
0.939947 0.166690 0.693802
0.939947 0.166690 0.693802
0.939947 0.166690 0.693802
0.051593 0.053131 0.458525
0.053108 0.047997 0.433520
0.065568 0.048896 0.443205
0.135901 0.052731 0.484913
0.421060 0.079310 0.557247
0.776486 0.129994 0.586018
0.926496 0.161242 0.661262
0.939947 0.166690 0.693676
0.939947 0.166690 0.693802
0.044619 0.105726 0.444685
0.050756 0.114260 0.445656
0.059703 0.114856 0.450180
0.099960 0.113139 0.481651
0.331355 0.105062 0.569629
0.739282 0.122609 0.562218
0.921477 0.160225 0.657809
0.939239 0.166246 0.690551
0.939947 0.166690 0.693802
0.050091 0.219249 0.486929
0.060372 0.232121 0.492157
0.068722 0.235133 0.495492
0.101955 0.247902 0.515066
0.244112 0.256677 0.603605
0.700765 0.219579 0.583328
0.896602 0.181947 0.586457
0.951814 0.193734 0.691821
0.939947 0.166690 0.693802
0.101166 0.458689 0.618770
0.112193 0.462575 0.615003
0.118616 0.464431 0.616992
0.145531 0.473784 0.626253
0.228810 0.512771 0.664170
0.697303 0.502248 0.699769
0.981816 0.392558 0.635003
0.984198 0.337793 0.593880
1.000000 0.295987 0.569552
0.197896 0.717551 0.692571
0.209154 0.700660 0.682629
0.212197 0.701179 0.683445
0.227770 0.704665 0.688094
0.276386 0.721695 0.701222
0.490467 0.770210 0.728808
0.963007 0.738883 0.721998
1.000000 0.703704 0.710118
1.000000 0.730301 0.737949
0.288386 0.885689 0.671866
0.289023 0.857090 0.666354
0.290300 0.856995 0.666901
0.296084 0.858265 0.668100
0.321792 0.865800 0.674752
0.426183 0.897038 0.694044
0.852023 0.914196 0.713436
1.000000 0.870617 0.676700
1.000000 0.912944 0.695161
0.325370 0.933402 0.636178
0.328853 0.904189 0.620736
0.329409 0.903592 0.622436
0.333349 0.904372 0.623205
0.352391 0.909228 0.627463
0.438575 0.930150 0.641029
0.796519 0.955155 0.684279
1.000000 0.950000 0.657910
1.000000 0.975320 0.687752
0.325441 0.933474 0.636505
0.325441 0.933474 0.636505
0.325905 0.933527 0.636595
0.329053 0.934314 0.638207
0.344719 0.938266 0.643624
0.413623 0.956829 0.659149
0.817501 0.979326 0.714218
1.000000 0.975320 0.687752
1.000000 0.975320 0.687752
0.130191 0.062413 0.574878
0.130334 0.062413 0.574950
0.139489 0.063092 0.581888
0.196287 0.067974 0.615909
0.518688 0.111055 0.687426
0.929950 0.166476 0.693767
0.939947 0.166690 0.693802
0.939947 0.166690 0.693802
0.939947 0.166690 0.693802
0.130334 0.062413 0.574950
0.151880 0.063894 0.572395
0.169826 0.066011 0.579637
0.268328 0.078801 0.607024
0.522850 0.111165 0.650451
0.808930 0.147950 0.681609
0.936257 0.165940 0.690799
0.939947 0.166690 0.693802
0.939947 0.166690 0.693802
0.101756 0.066543 0.551438
0.099775 0.093404 0.559975
0.104955 0.093663 0.563235
0.139415 0.093754 0.589599
0.359629 0.104329 0.656556
0.791926 0.145577 0.679114
0.930861 0.164819 0.687608
0.939932 0.166677 0.693585
0.939947 0.166690 0.693802
0.109392 0.240459 0.645925
0.107541 0.249360 0.627332
0.110966 0.250669 0.629264
0.128806 0.254912 0.641020
0.214240 0.258277 0.703504
0.637175 0.239792 0.782157
0.930851 0.193002 0.701813
0.953840 0.195782 0.717315
0.939947 0.166690 0.693802
0.144783 0.425211 0.741301
0.147493 0.435076 0.728242
0.150331 0.436326 0.728996
0.164556 0.442181 0.733628
0.217209 0.469295 0.761958
0.484825 0.482144 0.861165
0.940345 0.414743 0.808099
1.000000 0.371932 0.781331
1.000000 0.338657 0.794902
0.245342 0.720537 0.884009
0.250073 0.703652 0.851366
0.251887 0.703969 0.851354
0.261269 0.705735 0.852529
0.296609 0.716977 0.859237
0.431227 0.760695 0.888445
0.893840 0.738287 0.901269
1.000000 0.676139 0.868719
1.000000 0.690994 0.899280
0.396115 0.908258 0.915004
0.373410 0.884946 0.888843
0.374438 0.884300 0.888428
0.378932 0.884835 0.888878
0.399503 0.888443 0.891515
0.476407 0.905350 0.899605
0.730281 0.935050 0.911805
0.962816 0.925302 0.910757
0.983816 0.951822 0.937141
0.444347 0.957419 0.911617
0.419965 0.949347 0.882021
0.420276 0.948286 0.881663
0.423291 0.948603 0.881837
0.437471 0.950839 0.883072
0.496631 0.962252 0.888467
0.684861 0.987072 0.900279
0.909487 0.991209 0.905558
0.917486 1.000000 0.931941
0.444347 0.957419 0.911617
0.444347 0.957419 0.911617
0.444615 0.957419 0.911671
0.446725 0.957688 0.911889
0.457510 0.959136 0.912939
0.498766 0.968006 0.917015
0.692084 0.998212 0.929949
0.917486 1.000000 0.931941
0.917486 1.000000 0.931941
0.311921 0.082299 0.655833
0.311921 0.082299 0.655833
0.320881 0.083497 0.658370
0.412890 0.095926 0.676104
0.714331 0.138756 0.695813
0.939947 0.166690 0.693802
0.939947 0.166690 0.693802
0.939947 0.166690 0.693802
0.939947 0.166690 0.693802
0.311921 0.082299 0.655833
0.270092 0.077255 0.640420
0.289186 0.079747 0.646191
0.400830 0.095105 0.665518
0.667847 0.131464 0.684144
0.876646 0.158596 0.693468
0.939041 0.166671 0.693799
0.939947 0.166690 0.693802
0.939947 0.166690 0.693802
0.212758 0.069852 0.622847
0.186778 0.099048 0.622794
0.193899 0.099634 0.626929
0.241009 0.102254 0.651164
0.500724 0.124271 0.697409
0.867271 0.157501 0.692329
0.935308 0.166153 0.693822
0.939947 0.166690 0.693802
0.939947 0.166690 0.693802
0.128206 0.227243 0.653624
0.132956 0.228943 0.657154
0.135446 0.231031 0.659598
0.150569 0.234969 0.672119
0.234380 0.237662 0.733782
0.653110 0.228343 0.793700
0.945367 0.195267 0.717635
0.953866 0.195803 0.717604
0.939947 0.166690 0.693802
0.164009 0.424873 0.768092
0.171393 0.440024 0.776621
0.173174 0.441067 0.776561
0.183631 0.445739 0.781035
0.227419 0.467066 0.806260
0.451490 0.476079 0.892532
0.913899 0.427998 0.891006
1.000000 0.376875 0.828883
1.000000 0.360814 0.860080
0.255409 0.692907 0.921743
0.266386 0.682607 0.898932
0.267550 0.683175 0.898510
0.274415 0.684641 0.899210
0.302558 0.694345 0.904166
0.415244 0.733274 0.930663
0.792988 0.728946 0.978396
1.000000 0.687868 0.941078
1.000000 0.700579 0.955201
0.412426 0.908133 0.975544
0.393535 0.884183 0.961425
0.394237 0.883558 0.960228
0.397766 0.883938 0.960338
0.414319 0.886580 0.961251
0.480402 0.900744 0.966507
0.689694 0.930499 0.979125
0.924374 0.920520 0.981610
0.930773 0.950320 0.993732
0.467453 0.961765 0.978679
0.458805 0.955288 0.970959
0.458135 0.954375 0.969888
0.460958 0.954642 0.970006
0.474074 0.956461 0.970733
0.529519 0.965951 0.974071
0.695674 0.983968 0.979215
0.855686 0.993873 0.981806
0.873600 1.000000 0.989402
0.467453 0.961765 0.978679
0.467453 0.961765 0.978679
0.467720 0.961837 0.978733
0.469491 0.961962 0.978733
0.478594 0.962874 0.979076
0.516327 0.969651 0.981594
0.676992 0.993544 0.988134
0.873600 1.000000 0.989402
0.873600 1.000000 0.989402
0.311921 0.082299 0.655833
0.311921 0.082299 0.655833
0.320881 0.083497 0.658370
0.412890 0.095926 0.676104
0.714027 0.138703 0.695813
0.939947 0.166690 0.693802
0.939947 0.166690 0.693802
0.939947 0.166690 0.693802
0.939947 0.166690 0.693802
0.311921 0.082299 0.655833
0.311921 0.082299 0.655833
0.320576 0.083426 0.658298
0.412139 0.095855 0.675941
0.711739 0.138453 0.695795
0.939947 0.166690 0.693802
0.939947 0.166690 0.693802
0.939947 0.166690 0.693802
0.939947 0.166690 0.693802
0.212758 0.069852 0.622847
0.212758 0.069852 0.622847
0.221091 0.070782 0.626288
0.277781 0.077774 0.646052
0.568386 0.118746 0.690361
0.930147 0.166476 0.693784
0.939947 0.166690 0.693802
0.939947 0.166690 0.693802
0.939947 0.166690 0.693802
0.128206 0.227243 0.653624
0.128277 0.227404 0.653714
0.130316 0.227351 0.655435
0.142477 0.227601 0.666521
0.211845 0.226117 0.726138
0.644748 0.219643 0.814086
0.939947 0.166690 0.693802
0.939947 0.166690 0.693802
0.939947 0.166690 0.693802
0.164009 0.424873 0.768092
0.164061 0.425015 0.768183
0.165313 0.425623 0.768926
0.173540 0.429539 0.773726
0.209610 0.448263 0.801369
0.401909 0.467971 0.922051
0.949498 0.414982 0.897687
1.000000 0.360671 0.859953
1.000000 0.360814 0.860080
0.255409 0.692907 0.921743
0.255409 0.692907 0.921743
0.256411 0.693050 0.921743
0.262652 0.694839 0.922286
0.288977 0.706570 0.926471
0.393147 0.757770 0.954802
0.846328 0.737794 0.995996
1.000000 0.700257 0.955147
1.000000 0.700579 0.955201
0.412426 0.908133 0.975544
0.412426 0.908133 0.975544
0.413087 0.908258 0.975544
0.415787 0.908401 0.975472
0.429272 0.910101 0.975599
0.479863 0.922279 0.980199
0.703441 0.953736 0.991069
0.931095 0.950177 0.993732
0.930773 0.950320 0.993732
0.467453 0.961765 0.978679
0.467453 0.961765 0.978679
0.467648 0.961837 0.978679
0.469491 0.961962 0.978733
0.478719 0.962874 0.979131
0.516738 0.969723 0.981667
0.678690 0.993687 0.988207
0.873600 1.000000 0.989402
0.873600 1.000000 0.989402
0.467453 0.961765 0.978679
0.467453 0.961765 0.978679
0.467720 0.961837 0.978733
0.469491 0.961962 0.978733
0.478594 0.962874 0.979076
0.516327 0.969651 0.981594
0.676992 0.993544 0.988134
0.873600 1.000000 0.989402
0.873600 1.000000 0.989402
