LUT/Custom/El Zone System 33.cube
TITLE "Generated by Resolve"
#LUMIXPHOTOSTYLE NAT
LUT_3D_SIZE 9
0 0 0
0.0258183 0.0258183 0.0258183
0.0519265 0.0519265 0.0519265
0.391073 0.175982 0.391073
0 0.277028 0.470436
0 0.346792 0.588891
0 0.415885 0.706233
0 0.485649 0.824689
0 0.555413 0.943145
0.435065 0.195789 0.435065
0 0.300343 0.510018
0 0.369436 0.627344
0 0.4392 0.745815
0 0.508965 0.864286
0 0.578134 0.981735
0 0.647807 1
0 0.731121 0.996475
0 0.802197 1
0 0.462516 0.785412
0 0.53228 0.903868
0 0.601373 1
0 0.683803 0.931991
0 0.754879 1
0.079469 0.583795 0.055024
0.0863203 0.634089 0.0597543
0.0931563 0.684367 0.0644999
0.100008 0.734646 0.0692302
0 0.707561 0.964385
0 0.778607 1
0.0817578 0.60061 0.0565957
0.0886091 0.650889 0.0613413
0.0954452 0.701167 0.0660716
0.10222 0.750973 0.0707713
0.192966 0.847395 0.142626
0.205081 0.900572 0.151583
0 1 0
0.090898 0.667704 0.0629282
0.097673 0.71751 0.0676127
0.104509 0.767773 0.0723583
0.197024 0.865171 0.145617
0.209125 0.918318 0.154574
0 1 0
0.507027 0.507027 0.507027
0.570687 0.565347 0.528023
1 0.956619 0
0.201068 0.882948 0.148623
0.213062 0.935622 0.157473
0 1 0
0.551934 0.546777 0.510658
0.579965 0.574548 0.536599
1 0.971664 0
1 1 0
1 0.974731 0.465644
1 1 0.485206
0.561288 0.556039 0.519326
1 0.941695 0
1 0.986709 0
1 1 0
1 0.98819 0.472068
1 1 0.491814
1 1 0.511559
0.991562 0.524117 0.0141604
1 0.543511 0.0146944
1 1 0
1 1 0.47866
1 1 0.498405
1 1 0.518105
1 0.530541 0.0143435
1 0.550011 0.0148623
1 0.569497 0.0153964
0.795666 0.795666 0.795666
1 0.62472 0
0.979187 0.517571 0.0139925
1 0.537057 0.0145113
1 0.556527 0.0150454
1 0.575875 0.0155642
1 0.611399 0
1 0.631403 0
1 0.651408 0
1 0 0
1 0 0
0.0107729 0.0107729 0.0107729
0.0370947 0.0370947 0.0370947
0.315816 0.142107 0.315816
0.44744 0.201343 0.44744
0 0.306905 0.521157
0 0.376211 0.638865
0 0.445747 0.756939
0 0.515511 0.87541
0 0.585138 0.993622
0.491432 0.221149 0.491432
0 0.329976 0.560327
0 0.399298 0.678065
0 0.469062 0.796521
0 0.538827 0.914992
0 0.607919 1
0 0.690455 0.94107
0 0.761547 1
0.0801404 0.588678 0.0554818
0 0.492393 0.836149
0 0.561608 0.953674
0 0.631235 1
0 0.714229 0.973465
0 0.785306 1
0.0823987 0.605325 0.0570535
0.08925 0.655619 0.0617838
0.0960861 0.705882 0.0665293
0.102876 0.755688 0.0712139
0 0.737987 1
0 0.808392 1
0.0846876 0.622141 0.0586252
0.0915389 0.672419 0.0633707
0.0983291 0.722301 0.0680705
0.10515 0.772503 0.0728008
0.198154 0.870161 0.146456
0.210269 0.923339 0.155413
0 1 0
0.0938277 0.689235 0.0649577
0.100603 0.739025 0.0696422
0.190097 0.834775 0.140505
0.202213 0.887953 0.149462
0 1 0
0 1 0
0.554574 0.549401 0.513115
0.582742 0.577295 0.539178
1 0.975891 0
0.206256 0.905715 0.152453
0 1 0
0 1 0
0.563989 0.558724 0.521828
1 0.945922 0
1 0.990936 0
1 1 0
1 0.992065 0.473915
1 1 0.49366
0.573144 0.567788 0.530297
1 0.960967 0
1 1 0
1 1 0
1 1 0.480522
1 1 0.500267
0.970687 0.513069 0.0138705
1 0.532372 0.0143893
1 0.551843 0.0149081
1 0.978378 0.467369
1 1 0.487114
1 1 0.506859
0.982834 0.519493 0.0140383
1 0.538888 0.0145571
1 0.558358 0.0150912
1 0.577829 0.01561
1 0.613275 0
1 0.63328 0
0.99498 0.525917 0.0142214
1 0.545388 0.0147402
1 0.564874 0.0152743
1 0.584161 0.0157931
1 0.619959 0
1 0.639963 0
1 0.659876 0
1 0 0
1 0 0
0.0220493 0.0220493 0.0220493
0.0483253 0.0483253 0.0483253
0.372213 0.167498 0.372213
0.503822 0.226719 0.503822
0 0.336797 0.571908
0 0.40589 0.689235
0 0.475654 0.807706
0 0.545403 0.926146
0 0.614862 1
0 0.290349 0.493034
0 0.359701 0.610819
0 0.429191 0.728832
0 0.498955 0.847288
0 0.568612 0.96556
0 0.637812 1
0 0.720928 0.982589
0 0.792004 1
0.0830396 0.610071 0.057496
0 0.522286 0.8869
0 0.591363 1
0 0.661128 1
0 0.744686 1
0 0.815351 1
0.0853285 0.626871 0.0590829
0.0921798 0.67715 0.0638132
0.0990158 0.727352 0.0685435
0.105806 0.777234 0.0732433
0 0.768215 1
0.0807813 0.593393 0.0559243
0.0876173 0.643687 0.0606546
0.0944686 0.693965 0.0654002
0.101244 0.743755 0.0700999
0.191241 0.839765 0.141344
0.203342 0.892943 0.150301
0 1 0
0 1 0
0.0966964 0.710399 0.0669413
0.103532 0.760571 0.0716716
0.195285 0.857542 0.144335
0.207401 0.910719 0.153292
0 1 0
0 1 0
0.566644 0.561349 0.524285
1 0.950164 0
1 0.995178 0
0.211322 0.927993 0.156191
0 1 0
0.54789 0.542779 0.506935
0.575845 0.570459 0.532799
1 0.965209 0
1 1 0
1 0.968841 0.462821
1 1 0.482383
1 1 0.502129
0.546929 0.546929 0.546929
1 0.980255 0
1 1 0
1 0.982269 0.46923
1 1 0.488975
1 1 0.508721
0.986481 0.521416 0.0140993
1 0.540719 0.0146181
1 0.560189 0.0151369
1 0.996078 0.475837
1 1 0.495583
1 1 0.515328
0.998444 0.527749 0.0142672
1 0.547219 0.014786
1 0.566705 0.0153201
1 0.586007 0.0158389
1 0.621851 0
1 0.641855 0
1 0.534264 0.014435
1 0.553735 0.0149691
1 0.57322 0.0154879
1 0.60853 0
1 0.628534 0
1 0.648539 0
1 0.66836 0
1 0 0
1 0 0
0.0333257 0.0333257 0.0333257
0.0594034 0.0594034 0.0594034
0.428611 0.192874 0.428611
0 0.296925 0.504219
0 0.36669 0.62269
0 0.435782 0.740001
0 0.505547 0.858457
0 0.575296 0.976928
0 0.644404 1
0 0.320241 0.543816
0 0.389334 0.661143
0 0.459083 0.779583
0 0.528847 0.898054
0 0.59794 1
0.251972 0.251972 0.251972
0 0.751385 1
0.0791943 0.581811 0.0548257
0.0859846 0.631617 0.0595254
0 0.552117 0.93756
0 0.621271 1
0 0.704067 0.959625
0 0.775143 1
0.0814221 0.598138 0.0563668
0.0882734 0.648417 0.0611124
0.0951095 0.698711 0.0658427
0.10193 0.748791 0.070573
0.19237 0.844785 0.142199
0 0.798535 1
0.083711 0.614954 0.0579538
0.0905623 0.665232 0.0626993
0.0973983 0.71545 0.0674296
0.104173 0.765301 0.0721294
0.196429 0.862562 0.14519
0.20853 0.91574 0.154131
0 1 0
0 1 0
0.0996262 0.731838 0.0689708
0.188357 0.827161 0.139223
0.200473 0.880339 0.14818
0.212512 0.933227 0.157076
0 1 0
0.550546 0.545403 0.509392
0.578683 0.573281 0.535424
1 0.969451 0
1 1 0
0 1 0
0 1 0
0.55996 0.554726 0.518105
1 0.939483 0
1 0.984497 0
1 1 0
1 0.986328 0.471168
1 1 0.490837
1 1 0.510582
1 0.954543 0
1 0.999542 0
1 1 0
1 0.999985 0.477699
1 1 0.497444
1 1 0.517189
1 0.52958 0.014313
1 0.549065 0.014847
1 0.568551 0.0153658
1 1 0.484306
1 1 0.504036
0.977462 0.516655 0.013962
1 0.536095 0.0144961
1 0.555581 0.0150149
1 0.575051 0.0155489
1 0.610407 0
1 0.630411 0
1 0.650431 0
1 0.542611 0.0146639
1 0.562097 0.015198
1 0.581384 0.0157168
1 0.617105 0
1 0.63711 0
1 0.657115 0
1 0 0
1 0 0
1 0 0
0.0446021 0.0446021 0.0446021
0.353384 0.15903 0.353384
0.485008 0.21825 0.485008
0 0.326818 0.554986
0 0.395911 0.672297
0 0.465675 0.790753
0 0.535439 0.909224
0 0.6047 1
0 0.687007 0.936355
0 0.349538 0.593561
0 0.419211 0.711879
0 0.488975 0.83035
0 0.55874 0.948806
0 0.627832 1
0 0.71075 0.968734
0 0.781826 1
0.082063 0.602869 0.0568093
0.0889143 0.653162 0.0615549
0 0.581399 0.987274
0 0.651148 1
0 0.734524 1
0 0.8056 1
0.0843519 0.619684 0.0583963
0.0912032 0.669963 0.0631418
0.0980392 0.720241 0.0678721
0.104829 0.770047 0.0725719
0.197559 0.867567 0.146029
0.0798047 0.586221 0.0552529
0.0866407 0.6365 0.0599832
0.093492 0.686763 0.0647288
0.100267 0.736568 0.0694133
0.189502 0.832166 0.140063
0.201617 0.885344 0.14902
0 1 0
0 1 0
0.553201 0.548028 0.511833
0.102556 0.753384 0.0710002
0.193545 0.849943 0.143053
0.205661 0.90312 0.15201
0 1 0
0 1 0
0.562615 0.557366 0.520562
1 0.943999 0
1 0.988739 0
1 1 0
0 1 0
0.543862 0.538781 0.503212
0.572015 0.566674 0.529244
1 0.95877 0
1 1 0
1 1 0
1 1 0.479561
1 1 0.499306
0.968872 0.512123 0.0138399
1 0.973831 0
1 1 0
1 0.976547 0.466499
1 1 0.486152
1 1 0.505898
0.98117 0.518624 0.014023
1 0.537926 0.0145418
1 0.557412 0.0150607
1 0.576883 0.0155947
1 1 0.49276
1 1 0.512505
0.993164 0.524956 0.0141909
1 0.544442 0.0147097
1 0.563912 0.0152438
1 0.583291 0.0157626
1 0.618982 0
1 0.638987 0
1 0.659007 0
1 0.550958 0.0148928
1 0.570428 0.0154116
1 0.605661 0
1 0.625681 0
1 0.645685 0
1 0.665492 0
1 0 0
1 0 0
1 0 0
0.0557259 0.0557259 0.0557259
0.409812 0.184421 0.409812
0 0.286946 0.487282
0 0.356573 0.605493
0 0.425803 0.723079
0 0.495567 0.841535
0 0.565332 0.959991
0 0.63444 1
0 0.717464 0.97789
0 0.37937 0.644205
0 0.449119 0.762661
0 0.518883 0.881117
0 0.58819 0.99881
0 0.657725 1
0 0.741222 1
0 0.812299 1
0.0849928 0.624414 0.0588388
0.0918441 0.674708 0.0635843
0 0.611307 1
0 0.693904 0.945769
0 0.764981 1
0.0804456 0.590951 0.0556954
0.0872816 0.64123 0.0604257
0.0941329 0.691508 0.0651713
0.100938 0.741466 0.0698711
0.190646 0.837186 0.140917
0.202762 0.890349 0.149859
0.0827344 0.607767 0.0572824
0.0895705 0.658045 0.0620127
0.0964218 0.708324 0.0667582
0.103197 0.758129 0.0714427
0.19469 0.854948 0.143908
0.206806 0.908125 0.15285
0 1 0
0 1 0
0.56527 0.559991 0.523018
0.105486 0.774929 0.0730297
0.198749 0.87274 0.146899
0.210849 0.925917 0.15584
0 1 0
0.546532 0.541421 0.505669
0.574685 0.569314 0.531716
1 0.963012 0
1 1 0
1 1 0
0 1 0
0.555932 0.550744 0.514366
0.545647 0.545647 0.545647
1 0.978058 0
1 1 0
1 0.980652 0.468467
1 1 0.488014
1 1 0.507759
0.98468 0.52047 0.0140688
1 0.993118 0
1 1 0
1 0.994064 0.474876
1 1 0.494621
1 1 0.514366
0.996887 0.526925 0.0142367
1 0.546273 0.0147707
1 0.565759 0.0152895
1 0.585245 0.0158236
1 1 0.501213
0.972442 0.514015 0.0138857
1 0.533303 0.0144198
1 0.552789 0.0149386
1 0.572274 0.0154726
1 0.607553 0
1 0.627558 0
1 0.647562 0
1 0.667506 0
1 0.559304 0.0151217
1 0.578698 0.0156405
1 0.614237 0
1 0.634241 0
1 0.654246 0
1 0 0
1 0 0
1 0 0
1 0 0
0.334569 0.150561 0.334569
0.466178 0.209781 0.466178
0 0.316838 0.538033
0 0.386297 0.655985
0 0.455695 0.773816
0 0.525444 0.892271
0 0.595209 1
0.25069 0.25069 0.25069
0 0.747921 1
0 0.409247 0.694942
0 0.478996 0.813397
0 0.54876 0.931868
0 0.617853 1
0 0.700603 0.954894
0 0.771664 1
0.081117 0.595941 0.0561685
0.0879377 0.64596 0.0608835
0.0947738 0.696254 0.0656138
0 0.641184 1
0 0.724361 0.987274
0 0.795316 1
0.0833753 0.612497 0.0577249
0.0902266 0.662776 0.0624552
0.0970626 0.713054 0.0672007
0.103853 0.76289 0.0719005
0.195834 0.859968 0.144747
0.20795 0.913146 0.153704
0.0856641 0.629313 0.0593118
0.0925154 0.679576 0.0640421
0.0993057 0.729564 0.0687572
0.187778 0.824567 0.138781
0.199878 0.877745 0.147738
0.211994 0.930922 0.156695
0 1 0
0.549172 0.544045 0.50811
0.57734 0.571939 0.534173
0.191821 0.842344 0.141787
0.203937 0.895521 0.150729
0 1 0
0 1 0
0.558587 0.553368 0.516823
1 0.937438 0
1 0.9823 0
1 1 0
1 0.984543 0.470314
0 1 0
0.568002 0.562692 0.525536
1 0.952331 0
1 0.997345 0
1 1 0
1 0.997955 0.476738
1 1 0.496483
1 1 0.516213
1 0.528817 0.0142977
1 1 0
1 0.97084 0.463783
1 1 0.48333
1 1 0.503075
0.975937 0.515846 0.0139467
1 0.535149 0.0144656
1 0.55462 0.0149844
1 0.574105 0.0155184
1 0.60943 0
1 1 0.509682
0.9879 0.522179 0.0141146
1 0.54165 0.0146334
1 0.561135 0.0151675
1 0.580621 0.0156863
1 0.616129 0
1 0.636133 0
1 0.656138 0
1 0 0
1 0.567651 0.0153353
1 0.586938 0.0158694
1 0.622812 0
1 0.642817 0
1 0.662776 0
1 0 0
1 0 0
1 0 0
1 0.273548 0.273548
0.390997 0.175952 0.390997
0 0.276982 0.470344
0 0.346731 0.5888
0 0.415824 0.706127
0 0.485588 0.824598
0 0.555352 0.943053
0 0.624445 1
0 0.707301 0.964019
0 0.778378 1
0 0.439155 0.745724
0 0.508904 0.864179
0 0.578668 0.982635
0 0.647761 1
0 0.73106 0.996399
0 0.802136 1
0.0840162 0.617243 0.0581674
0.0908675 0.667521 0.0629129
0.0977035 0.717784 0.0676432
0 0.683742 0.931914
0 0.754818 1
0.0794995 0.584054 0.0550393
0.086305 0.634043 0.0597543
0.0931563 0.684321 0.0644846
0.0999924 0.7346 0.0692302
0.188907 0.829572 0.139635
0.201022 0.88275 0.148577
0.213138 0.935927 0.157534
0.0885939 0.650858 0.0613413
0.0954452 0.701122 0.0660716
0.10222 0.750927 0.0707713
0.192966 0.847349 0.142626
0.205066 0.900526 0.151568
0 1 0
0 1 0
0.561242 0.556008 0.51928
1 0.941955 0
0.197009 0.865141 0.145617
0.20911 0.918242 0.154559
0 1 0
0.507012 0.507012 0.507012
0.570672 0.565332 0.527993
1 0.956634 0
1 1 0
1 1 0
1 1 0.478706
0.551919 0.546761 0.510643
0.579919 0.574502 0.536568
1 0.971618 0
1 1 0
1 0.974731 0.465644
1 1 0.485191
1 1 0.504936
0.9794 0.517678 0.0139925
1 0.536995 0.0145113
1 1 0
1 0.988159 0.472053
1 1 0.491798
1 1 0.511543
0.991516 0.524086 0.0141604
1 0.543496 0.0146944
1 0.562982 0.0152132
1 0.582452 0.0157473
1 0.618006 0
1 1 0.518135
1 0.530526 0.0143435
1 0.550011 0.0148623
1 0.569482 0.0153964
0.795651 0.795651 0.795651
1 0.624704 0
1 0.644709 0
1 0.664714 0
1 0 0
1 0.575998 0.0155642
1 0.611383 0
1 0.631388 0
1 0.651392 0
1 0 0
1 0 0
1 0 0
1 0 0
1 0.276707 0.276707
0.447364 0.201312 0.447364
0 0.306859 0.52108
0 0.376135 0.638727
0 0.445716 0.756878
0 0.51548 0.875349
0 0.585229 0.99379
0 0.654337 1
0 0.737758 1
0 0.808835 1
0 0.469032 0.796475
0 0.538796 0.914931
0 0.607874 1
0 0.690425 0.941024
0 0.761501 1
0.0801709 0.588983 0.0555123
0.0869459 0.638773 0.0601968
0.0937972 0.689052 0.0649424
0.100649 0.73933 0.0696727
0 0.714199 0.973434
0 0.785275 1
0.0823987 0.605295 0.0570382
0.0892348 0.655589 0.0617838
0.0960861 0.705867 0.0665141
0.102861 0.755673 0.0712139
0.19411 0.852369 0.143465
0.20621 0.905531 0.152422
0 1 0
0.0915236 0.672389 0.0633707
0.0983749 0.722667 0.068101
0.10515 0.772473 0.0728008
0.198154 0.87013 0.146456
0.210254 0.923308 0.155413
0 1 0
0.545144 0.540047 0.504387
0.573312 0.567956 0.530449
1 0.961151 0
0.202197 0.887922 0.149447
0 1 0
0 1 0
0.554559 0.549386 0.5131
0.582727 0.577279 0.539162
1 0.97586 0
1 1 0
1 0.978637 0.467506
1 1 0.487053
0.563973 0.558709 0.521813
1 0.945891 0
1 0.990906 0
1 1 0
1 0.992294 0.474022
1 1 0.493645
1 1 0.51339
0.995193 0.526024 0.0142214
1 0.545327 0.0147402
1 1 0
1 1 0.480507
1 1 0.500252
0.970657 0.513069 0.0138705
1 0.532387 0.0143893
1 0.551843 0.0149081
1 0.571313 0.0154421
1 0.606683 0
1 0.626581 0
0.982788 0.519478 0.0140383
1 0.538872 0.0145571
1 0.558343 0.0150912
1 0.577829 0.01561
1 0.61326 0
1 0.633265 0
1 0.653269 0
1 0 0
1 0 0
1 0.584161 0.0157931
1 0.619959 0
1 0.639963 0
1 0.659861 0
1 0 0
1 0 0
1 0 0
1 0.27248 0.27248
1 0.279866 0.279866
