LUT/Custom/El Zone System 33.cube
TITLE "Generated by Resolve"
#LUMIXPHOTOSTYLE NAT
LUT_3D_SIZE 5
0 0 0
0.0519265 0.0519265 0.0519265
0 0.277028 0.470436
0 0.415885 0.706233
0 0.555413 0.943145
0 0.462516 0.785412
0 0.601373 1
0 0.754879 1
0.0863203 0.634089 0.0597543
0.100008 0.734646 0.0692302
0.090898 0.667704 0.0629282
0.104509 0.767773 0.0723583
0.209125 0.918318 0.154574
0.507027 0.507027 0.507027
1 0.956619 0
0.561288 0.556039 0.519326
1 0.986709 0
1 0.98819 0.472068
1 1 0.511559
1 0.543511 0.0146944
0.979187 0.517571 0.0139925
1 0.556527 0.0150454
1 0.611399 0
1 0.651408 0
1 0 0
0.0220493 0.0220493 0.0220493
0.372213 0.167498 0.372213
0 0.336797 0.571908
0 0.475654 0.807706
0 0.614862 1
0 0.522286 0.8869
0 0.661128 1
0 0.815351 1
0.0921798 0.67715 0.0638132
0.105806 0.777234 0.0732433
0.0966964 0.710399 0.0669413
0.195285 0.857542 0.144335
0 1 0
0.566644 0.561349 0.524285
1 0.995178 0
0.546929 0.546929 0.546929
1 1 0
1 1 0.488975
0.986481 0.521416 0.0140993
1 0.560189 0.0151369
1 0.534264 0.014435
1 0.57322 0.0154879
1 0.628534 0
1 0.66836 0
1 0 0
0.0446021 0.0446021 0.0446021
0.485008 0.21825 0.485008
0 0.395911 0.672297
0 0.535439 0.909224
0 0.687007 0.936355
0 0.581399 0.987274
0 0.734524 1
0.0843519 0.619684 0.0583963
0.0980392 0.720241 0.0678721
0.197559 0.867567 0.146029
0.102556 0.753384 0.0710002
0.205661 0.90312 0.15201
0 1 0
1 0.943999 0
1 1 0
1 0.973831 0
1 0.976547 0.466499
1 1 0.505898
1 0.537926 0.0145418
1 0.576883 0.0155947
1 0.550958 0.0148928
1 0.605661 0
1 0.645685 0
1 0 0
1 0 0
0.334569 0.150561 0.334569
0 0.316838 0.538033
0 0.455695 0.773816
0 0.595209 1
0 0.747921 1
0 0.641184 1
0 0.795316 1
0.0902266 0.662776 0.0624552
0.103853 0.76289 0.0719005
0.20795 0.913146 0.153704
0.191821 0.842344 0.141787
0 1 0
0.558587 0.553368 0.516823
1 0.9823 0
1 0.984543 0.470314
1 1 0
1 1 0.48333
0.975937 0.515846 0.0139467
1 0.55462 0.0149844
1 0.60943 0
1 0.567651 0.0153353
1 0.622812 0
1 0.662776 0
1 0 0
1 0.273548 0.273548
0.447364 0.201312 0.447364
0 0.376135 0.638727
0 0.51548 0.875349
0 0.654337 1
0 0.808835 1
0 0.714199 0.973434
0.0823987 0.605295 0.0570382
0.0960861 0.705867 0.0665141
0.19411 0.852369 0.143465
0 1 0
0.202197 0.887922 0.149447
0 1 0
0.582727 0.577279 0.539162
1 1 0
1 1 0.487053
1 1 0
1 1 0.500252
1 0.532387 0.0143893
1 0.571313 0.0154421
1 0.626581 0
1 0.584161 0.0157931
1 0.639963 0
1 0 0
1 0 0
1 0.279866 0.279866
