LUT/Custom/El Zone System 33XT.cube
TITLE "Generated by Resolve"
#LUMIXPHOTOSTYLE NAT
LUT_3D_SIZE 33
0 0 0
0.00601205 0.00601205 0.00601205
0.0125277 0.0125277 0.0125277
0.0193027 0.0193027 0.0193027
0.0258183 0.0258183 0.0258183
0.0323339 0.0323339 0.0323339
0.0388495 0.0388495 0.0388495
0.0453803 0.0453803 0.0453803
0.0519265 0.0519265 0.0519265
0.0586557 0.0586557 0.0586557
0.325902 0.146654 0.325902
0.358495 0.161318 0.358495
0.391073 0.175982 0.391073
0.423667 0.190646 0.423667
0.456703 0.205509 0.456703
0.490105 0.220554 0.490105
0 0.277028 0.470436
0 0.294301 0.499763
0 0.311574 0.529091
0 0.328847 0.558434
0 0.346792 0.588891
0 0.364065 0.618235
0 0.381338 0.647562
0 0.398611 0.67689
0 0.415885 0.706233
0 0.433555 0.736233
0 0.451102 0.766033
0 0.468376 0.795361
0 0.485649 0.824689
0 0.502922 0.854032
0 0.520195 0.88336
0 0.538003 0.913588
0 0.555413 0.943145
0.0213016 0.0213016 0.0213016
0.0278325 0.0278325 0.0278325
0.0345922 0.0345922 0.0345922
0.0411078 0.0411078 0.0411078
0.0476387 0.0476387 0.0476387
0.0541543 0.0541543 0.0541543
0.0606699 0.0606699 0.0606699
0.337194 0.151736 0.337194
0.369787 0.1664 0.369787
0.40238 0.181079 0.40238
0.434974 0.195743 0.434974
0.467567 0.210407 0.467567
0.500267 0.225116 0.500267
0 0.283024 0.480613
0 0.300298 0.509941
0 0.317571 0.539269
0 0.334844 0.568612
0 0.352117 0.59794
0 0.369604 0.627619
0 0.387335 0.65774
0 0.404593 0.687053
0 0.421866 0.716381
0 0.439139 0.745724
0 0.456428 0.775051
0 0.474052 0.80499
0 0.49163 0.834852
0 0.508904 0.864195
0 0.526177 0.893523
0 0.54345 0.92285
0 0.560739 0.952178
0 0.5785 0.982376
0 0.595941 1
0 0.613214 1
0.0433204 0.0433204 0.0433204
0.049897 0.049897 0.049897
0.0564126 0.0564126 0.0564126
0.314672 0.141604 0.314672
0.347265 0.156268 0.347265
0.379858 0.170932 0.379858
0.413703 0.186175 0.413703
0.446281 0.200824 0.446281
0.478874 0.215488 0.478874
0.102296 0.102296 0.102296
0 0.28835 0.489647
0 0.305638 0.51902
0 0.323568 0.549447
0 0.340841 0.57879
0 0.358114 0.608118
0 0.375387 0.637446
0 0.39266 0.666789
0 0.410101 0.696391
0 0.427878 0.726589
0 0.445151 0.755917
0 0.462425 0.785245
0 0.479698 0.814588
0 0.496971 0.843915
0 0.514916 0.874388
0 0.532189 0.903716
0 0.549447 0.933028
0 0.56672 0.962371
0 0.583993 0.991699
0 0.601587 1
0 0.619211 1
0 0.636484 1
0 0.653758 1
0 0.683696 0.931853
0.325994 0.1467 0.325994
0.358572 0.161364 0.358572
0.391165 0.176028 0.391165
0.423758 0.190692 0.423758
0.456352 0.205356 0.456352
0.490196 0.220584 0.490196
0 0.277089 0.470512
0 0.294362 0.499855
0 0.311635 0.529183
0 0.328908 0.558511
0 0.346807 0.588937
0 0.364126 0.618311
0 0.381384 0.647623
0 0.398657 0.676966
0 0.41593 0.706294
0 0.433204 0.735622
0 0.451148 0.766094
0 0.468421 0.795422
0 0.485695 0.824765
0 0.502968 0.854093
0 0.520241 0.883421
0 0.537636 0.912978
0 0.555459 0.943221
0 0.572732 0.972564
0 0.590005 1
0 0.607279 1
0 0.624552 1
0 0.6421 1
0 0.65977 1
0 0.689815 0.940185
0 0.707408 0.964172
0 0.725002 0.988159
0 0.742611 1
0.435065 0.195789 0.435065
0.467643 0.210437 0.467643
0.500237 0.225101 0.500237
0 0.282841 0.480308
0 0.300343 0.510018
0 0.317617 0.539345
0 0.33489 0.568689
0 0.352163 0.598016
0 0.369436 0.627344
0 0.387304 0.657694
0 0.404654 0.687144
0 0.421927 0.716487
0 0.4392 0.745815
0 0.456474 0.775143
0 0.473747 0.804486
0 0.491691 0.834943
0 0.508965 0.864286
0 0.526238 0.893614
0 0.543496 0.922927
0 0.560769 0.952255
0 0.578134 0.981735
0 0.595987 1
0 0.61326 1
0 0.630533 1
0 0.647807 1
0.25098 0.25098 0.25098
0 0.695918 0.948501
0 0.713512 0.972488
0 0.731121 0.996475
0 0.748714 1
0 0.766308 1
0 0.784161 1
0 0.802197 1
0 0.288411 0.489754
0 0.305669 0.519066
0 0.323354 0.549081
0 0.340887 0.578866
0 0.35816 0.608209
0 0.375433 0.637522
0 0.392706 0.66685
0 0.409979 0.696193
0 0.427924 0.72665
0 0.445197 0.755993
0 0.46247 0.785321
0 0.479744 0.814649
0 0.497017 0.843976
0 0.514839 0.874266
0 0.532235 0.903777
0 0.549508 0.93312
0 0.566781 0.962448
0 0.584054 0.991791
0 0.601328 1
0 0.619272 1
0 0.636545 1
0 0.653819 1
0 0.683742 0.93193
0 0.701335 0.955901
0 0.71899 0.97995
0 0.737224 1
0 0.754818 1
0 0.772412 1
0 0.790021 1
0 0.807614 1
0.0794842 0.583902 0.055024
0.0812238 0.596689 0.0562295
0.0829175 0.60914 0.0574044
0 0.346441 0.588296
0 0.364157 0.618387
0 0.38143 0.647715
0 0.398703 0.677043
0 0.415976 0.706386
0 0.433249 0.735714
0 0.450889 0.765667
0 0.468467 0.795514
0 0.48574 0.824842
0 0.503014 0.854185
0 0.520287 0.883497
0 0.53756 0.912825
0 0.555337 0.943038
0 0.572763 0.972625
0 0.590036 1
0 0.607324 1
0 0.624598 1
0 0.641871 1
0 0.6598 1
0 0.68986 0.940246
0 0.707454 0.964233
0 0.725048 0.98822
0 0.742657 1
0 0.76025 1
0 0.778531 1
0 0.796139 1
0 0.813733 1
0.0800488 0.588098 0.0554208
0.0817426 0.600534 0.0565957
0.0835126 0.613458 0.0578164
0.0852064 0.62591 0.0589914
0.0869001 0.638361 0.0601663
0.0885939 0.650813 0.061326
0 0.4047 0.687236
0 0.421973 0.716564
0 0.439246 0.745892
0 0.456519 0.775235
0 0.473793 0.804562
0 0.491386 0.83444
0 0.50901 0.864363
0 0.526284 0.89369
0 0.543557 0.923018
0 0.56083 0.952361
0 0.578103 0.981689
0 0.596048 1
0 0.613321 1
0 0.630594 1
0 0.647868 1
0.250996 0.250996 0.250996
0 0.695766 0.948318
0 0.713558 0.972564
0 0.731167 0.996551
0 0.74876 1
0 0.766354 1
0 0.783963 1
0 0.802197 1
0 0.819837 1
0.0806439 0.592416 0.0558328
0.0823377 0.604868 0.0570077
0.0840314 0.617319 0.0581826
0.0857252 0.629755 0.0593423
0.08748 0.642695 0.0605631
0.089189 0.655146 0.061738
0.0908827 0.667597 0.0629129
0.0925765 0.680049 0.0640879
0.0942702 0.6925 0.0652628
0 0.462516 0.785412
0 0.479805 0.814755
0 0.497063 0.844068
0 0.514473 0.87364
0 0.53228 0.903868
0 0.549554 0.933196
0 0.566827 0.962539
0 0.5841 0.991867
0 0.601373 1
0 0.618936 1
0 0.636591 1
0 0.653864 1
0 0.683803 0.931991
0 0.701396 0.955978
0 0.719005 0.979965
0 0.737041 1
0 0.754879 1
0 0.772473 1
0 0.790082 1
0 0.807675 1
0.079469 0.583795 0.055024
0.0812238 0.596674 0.0562295
0.0829328 0.609186 0.0574044
0.0846265 0.621637 0.0585794
0.0863203 0.634089 0.0597543
0.088014 0.64654 0.0609293
0.0897078 0.658976 0.0621042
0.0914626 0.671916 0.0633249
0.0931563 0.684367 0.0644999
0.0948501 0.696818 0.0656748
0.0965438 0.70927 0.0668345
0.0982376 0.721721 0.0680095
0.100008 0.734646 0.0692302
0 0.520348 0.883604
0 0.537621 0.912932
0 0.554986 0.942428
0 0.572839 0.972732
0 0.590097 1
0 0.607385 1
0 0.624659 1
0 0.641917 1
0 0.659434 1
0 0.689906 0.940322
0 0.7075 0.964309
0 0.725109 0.988296
0 0.742702 1
0 0.760311 1
0 0.778592 1
0 0.796185 1
0 0.813779 1
0.0800641 0.588129 0.0554208
0.0817578 0.60058 0.0565957
0.0834821 0.613321 0.0578012
0.0852064 0.625956 0.0589914
0.0869001 0.638407 0.0601663
0.0885939 0.650858 0.0613413
0.0902876 0.66331 0.0625162
0.0919814 0.675761 0.0636912
0.0937362 0.688594 0.0648966
0.0954452 0.701137 0.0660716
0.0971389 0.713588 0.0672465
0.0988327 0.72604 0.0684215
0.100526 0.738491 0.0695964
0.10222 0.750942 0.0707713
0.103975 0.763867 0.0719921
0.105684 0.776318 0.073167
0 0.578164 0.981781
0 0.596094 1
0 0.613367 1
0 0.63064 1
0 0.647913 1
0.251011 0.251011 0.251011
0 0.695399 0.947814
0 0.713619 0.972641
0 0.731228 0.996628
0 0.748821 1
0 0.76643 1
0 0.784024 1
0 0.801831 1
0 0.819898 1
0.0806439 0.592447 0.0558328
0.0823377 0.604898 0.0570077
0.0840314 0.61735 0.0581826
0.0857252 0.629801 0.0593576
0.0874647 0.642512 0.0605478
0.089189 0.655177 0.061738
0.0908827 0.667628 0.0629129
0.0925765 0.680079 0.0640879
0.0942702 0.692531 0.0652628
0.095964 0.704982 0.0664378
0.0977035 0.7178 0.0676432
0.0994278 0.730358 0.0688334
0.101122 0.742809 0.0700084
0.102815 0.755261 0.0711833
0.104509 0.767712 0.072343
0.1879 0.825101 0.138872
0.191012 0.838773 0.141176
0.194003 0.851926 0.143389
0.197009 0.865095 0.145617
0 0.636652 1
0 0.65391 1
0 0.683848 0.932067
0 0.701457 0.956054
0 0.719051 0.980041
0 0.73666 1
0 0.754925 1
0 0.772534 1
0 0.790127 1
0 0.807736 1
0.079469 0.583841 0.055024
0.0811933 0.596414 0.056199
0.0829328 0.609232 0.0574197
0.0846265 0.621683 0.0585946
0.0863203 0.634119 0.0597543
0.088014 0.646571 0.0609293
0.0897078 0.659022 0.0621042
0.0914778 0.671962 0.0633249
0.0931716 0.684398 0.0644999
0.0948653 0.696849 0.0656748
0.0965591 0.7093 0.0668498
0.0982528 0.721752 0.0680247
0.0999771 0.734432 0.0692149
0.101701 0.747127 0.0704051
0.103395 0.759579 0.0715801
0.105089 0.77203 0.072755
0.188937 0.829664 0.139651
0.191928 0.842832 0.141863
0.19501 0.856352 0.144137
0.198047 0.869673 0.14638
0.201038 0.882841 0.148592
0.204044 0.89601 0.15082
0.207034 0.909178 0.153033
0 0.707561 0.964385
0 0.725155 0.988373
0 0.742763 1
0 0.760357 1
0 0.778607 1
0 0.796231 1
0 0.813825 1
0.0800641 0.588159 0.055436
0.0817578 0.60061 0.0565957
0.0834516 0.613062 0.0577707
0.0852064 0.625986 0.0589914
0.0869154 0.638437 0.0601663
0.0886091 0.650889 0.0613413
0.0903029 0.66334 0.0625162
0.0919966 0.675792 0.0636912
0.0937057 0.688334 0.0648661
0.0954452 0.701167 0.0660716
0.0971389 0.713619 0.0672465
0.0988327 0.72607 0.0684215
0.100526 0.738521 0.0695964
0.10222 0.750973 0.0707713
0.103944 0.763622 0.0719615
0.105684 0.776349 0.073167
0.189975 0.834226 0.140414
0.192966 0.847395 0.142626
0.195972 0.860563 0.144854
0.198962 0.873732 0.147066
0.202045 0.887221 0.14934
0.205081 0.900572 0.151583
0.208072 0.913741 0.153796
0.211078 0.926909 0.156008
0 1 0
0 1 0
0 0.766476 1
0 0.78407 1
0 0.801663 1
0 0.819867 1
0.0806592 0.592477 0.0558328
0.0823529 0.604929 0.0570077
0.0840467 0.61738 0.0581826
0.0857404 0.629831 0.0593576
0.0874342 0.642283 0.0605325
0.089189 0.655222 0.0617533
0.0908827 0.667659 0.0629282
0.0925765 0.68011 0.0640879
0.0942702 0.692561 0.0652628
0.095964 0.705013 0.0664378
0.097673 0.717525 0.0676127
0.0994278 0.730388 0.0688334
0.101122 0.74284 0.0700084
0.102815 0.755291 0.0711833
0.104509 0.767742 0.0723583
0.1879 0.825132 0.138888
0.191012 0.838804 0.141192
0.194018 0.851972 0.143404
0.197009 0.865141 0.145617
0.200015 0.878309 0.147829
0.203006 0.891478 0.150042
0.206043 0.904814 0.1523
0.209125 0.918318 0.154574
0.212116 0.931487 0.156786
0 1 0
0 1 0
0 1 0
0 1 0
0 1 0
0.0794842 0.583871 0.055024
0.081178 0.596323 0.056199
0.0829328 0.609262 0.0574197
0.0846265 0.621698 0.0585946
0.0863203 0.63415 0.0597696
0.088014 0.646601 0.0609293
0.0897078 0.659052 0.0621042
0.0914626 0.671901 0.0633249
0.0931716 0.684443 0.0644999
0.0948653 0.696895 0.0656748
0.0965591 0.709331 0.0668498
0.0982528 0.721782 0.0680247
0.0999466 0.734234 0.0691997
0.101701 0.747173 0.0704204
0.10341 0.759625 0.0715801
0.105104 0.772061 0.072755
0.188937 0.829694 0.139651
0.191943 0.842863 0.141863
0.194949 0.856062 0.144091
0.198047 0.869703 0.14638
0.201053 0.882872 0.148608
0.204044 0.89604 0.15082
0.20705 0.909209 0.153033
0.21004 0.922377 0.155245
0.213077 0.935683 0.157488
0 1 0
0 1 0
0 1 0
0 1 0
0 1 0
0 1 0
0.544915 0.539834 0.504173
0.551888 0.546731 0.510628
0.0851911 0.625818 0.0589761
0.0869154 0.638483 0.0601663
0.0886091 0.650919 0.0613413
0.0903029 0.663371 0.0625162
0.0919966 0.675822 0.0636912
0.0936904 0.688273 0.0648661
0.0954299 0.701091 0.0660716
0.0971542 0.713664 0.0672618
0.0988479 0.726101 0.0684215
0.100542 0.738552 0.0695964
0.102235 0.751003 0.0707713
0.103929 0.763455 0.0719463
0.105684 0.776379 0.073167
0.189975 0.834272 0.140429
0.192981 0.84744 0.142641
0.195987 0.860609 0.144854
0.198978 0.873777 0.147066
0.201984 0.886946 0.149294
0.205097 0.900618 0.151583
0.208087 0.913787 0.153811
0.211093 0.92694 0.156024
0 1 0
0 1 0
0 1 0
0 1 0
0 1 0
0 1 0
0 1 0
0.547143 0.542016 0.506233
0.554314 0.549142 0.512871
0.561288 0.556039 0.519326
0.568261 0.562951 0.52578
0.575235 0.569863 0.532235
0.090898 0.667704 0.0629282
0.0925917 0.680156 0.0641031
0.0942855 0.692607 0.0652781
0.0959793 0.705058 0.0664378
0.097673 0.71751 0.0676127
0.0994278 0.730434 0.0688334
0.101122 0.742885 0.0700084
0.102815 0.755337 0.0711833
0.104509 0.767773 0.0723583
0.187915 0.825162 0.138888
0.190997 0.838697 0.141161
0.194018 0.852003 0.143404
0.197024 0.865171 0.145617
0.200015 0.87834 0.147845
0.203021 0.891508 0.150057
0.206012 0.904677 0.15227
0.209125 0.918318 0.154574
0.212131 0.931517 0.156786
0 1 0
0 1 0
0 1 0
0 1 0
0 1 0
0 1 0
0.507027 0.507027 0.507027
0.549493 0.544366 0.508415
0.556466 0.551263 0.514855
0.563485 0.558221 0.521355
0.570687 0.565347 0.528023
0.577661 0.572259 0.534478
0.546395 0.546395 0.546395
1 0.945464 0
1 0.956619 0
0.0965591 0.709377 0.0668498
0.0982528 0.721828 0.0680247
0.0999466 0.734279 0.0691997
0.101671 0.746929 0.0703899
0.10341 0.759655 0.0715953
0.105104 0.772107 0.0727703
0.188952 0.82974 0.139666
0.191943 0.842908 0.141878
0.194949 0.856077 0.144091
0.198016 0.869566 0.146365
0.201068 0.882918 0.148608
0.204059 0.896086 0.15082
0.207065 0.909255 0.153048
0.210056 0.922408 0.155261
0.213046 0.935576 0.157473
0 1 0
0 1 0
0 1 0
0 1 0
0 1 0
0 1 0
0.544945 0.539849 0.504204
0.551919 0.546761 0.510658
0.558892 0.553674 0.517098
0.565866 0.560571 0.523552
0.572839 0.567483 0.530007
0.580087 0.57467 0.536721
1 0.938201 0
1 0.94934 0
1 0.960494 0
1 0.971633 0
1 0.982834 0
1 0.994354 0
0.102235 0.751049 0.0707866
0.103929 0.7635 0.0719463
0.105653 0.77612 0.0731365
0.18999 0.834302 0.140429
0.192996 0.847471 0.142641
0.195987 0.860639 0.144854
0.198993 0.873808 0.147082
0.201984 0.886976 0.149294
0.205097 0.900649 0.151598
0.208103 0.913817 0.153811
0.211093 0.926986 0.156024
0 1 0
0 1 0
0 1 0
0 1 0
0 1 0
0 1 0
0 1 0
0.547097 0.541985 0.506188
0.554284 0.549111 0.51284
0.561303 0.556069 0.519341
0.568292 0.562982 0.525795
0.575265 0.569879 0.53225
0.582238 0.576791 0.538705
1 0.941634 0
1 0.953216 0
1 0.964355 0
1 0.975509 0
1 0.986648 0
1 0.997803 0
1 1 0
1 1 0
1 1 0
0.190936 0.838422 0.141115
0.194034 0.852049 0.14342
0.197024 0.865217 0.145632
0.200031 0.878386 0.147845
0.203021 0.891554 0.150057
0.206027 0.904707 0.152285
0.209064 0.918044 0.154528
0.212131 0.931563 0.156802
0 1 0
0 1 0
0 1 0
0 1 0
0 1 0
0 1 0
0.507042 0.507042 0.507042
0.549523 0.544381 0.508431
0.556497 0.551293 0.514885
0.56347 0.558206 0.52134
0.570642 0.565316 0.527977
0.577691 0.57229 0.534493
0.54641 0.54641 0.54641
1 0.94551 0
1 0.956649 0
1 0.967788 0
1 0.97937 0
1 0.990524 0
1 1 0
1 1 0
1 1 0
1 1 0
1 1 0
1 0.971222 0.463966
1 0.98146 0.468849
0.201068 0.882948 0.148623
0.204059 0.896117 0.150835
0.207065 0.909285 0.153048
0.210056 0.922454 0.155261
0.213062 0.935622 0.157473
0 1 0
0 1 0
0 1 0
0 1 0
0 1 0
0 1 0
0.544961 0.539864 0.504219
0.551934 0.546777 0.510658
0.558907 0.553689 0.517113
0.565881 0.560586 0.523568
0.572854 0.567498 0.530022
0.579965 0.574548 0.536599
1 0.938216 0
1 0.949371 0
1 0.96051 0
1 0.971664 0
1 0.982803 0
1 0.994263 0
1 1 0
1 1 0
1 1 0
1 1 0
1 1 0
1 0.974731 0.465644
1 0.985 0.470542
1 0.995239 0.475425
1 1 0.480323
1 1 0.485206
0.211109 0.927031 0.156039
0 1 0
0 1 0
0 1 0
0 1 0
0 1 0
0 1 0
0 1 0
0.547112 0.542 0.506203
0.554131 0.548959 0.512703
0.561334 0.556085 0.519356
0.568307 0.562997 0.525811
0.57528 0.569909 0.532265
0.582254 0.576806 0.53872
1 0.941665 0
1 0.952987 0
1 0.964385 0
1 0.975525 0
1 0.986679 0
1 0.997818 0
1 1 0
1 1 0
1 1 0
1 1 0
1 0.967697 0.462272
1 0.977935 0.46717
1 0.988159 0.472053
1 0.998795 0.477134
1 1 0.482017
1 1 0.486915
1 1 0.491798
1 1 0.496681
1 1 0.501732
0 1 0
0 1 0
0 1 0
0 1 0
0.507057 0.507057 0.507057
0.549538 0.544396 0.508446
0.556512 0.551308 0.5149
0.563485 0.558221 0.521355
0.570489 0.565164 0.52784
0.577707 0.572305 0.534508
0.546426 0.546426 0.546426
1 0.945541 0
1 0.95668 0
1 0.967834 0
1 0.9794 0
1 0.990555 0
1 1 0
1 1 0
1 1 0
1 1 0
1 1 0
1 0.971252 0.463966
1 0.981476 0.468864
1 0.991714 0.473747
1 1 0.478645
1 1 0.483635
1 1 0.488609
1 1 0.493492
1 1 0.498375
1 1 0.503273
1 1 0.508156
1 1 0.513207
1 1 0.51812
0 1 0
0.544945 0.539849 0.504189
0.551949 0.546792 0.510689
0.558938 0.553704 0.517143
0.565911 0.560616 0.523598
0.572885 0.567529 0.530053
0.579858 0.574441 0.536507
1 0.938262 0
1 0.949401 0
1 0.960555 0
1 0.971695 0
1 0.982849 0
1 0.994018 0
1 1 0
1 1 0
1 1 0
1 1 0
1 1 0
1 0.974517 0.465537
1 0.985031 0.470558
1 0.99527 0.475441
1 1 0.480339
1 1 0.485222
1 1 0.49012
1 1 0.495094
1 1 0.500084
1 1 0.504967
1 1 0.50985
1 1 0.514748
0.969985 0.512703 0.0138552
0.979461 0.517708 0.0139925
0.988586 0.522545 0.0141299
0.997711 0.527367 0.0142519
0.561288 0.556039 0.519326
0.568322 0.563012 0.525841
0.575296 0.569924 0.53228
0.582269 0.576837 0.538735
1 0.941695 0
1 0.95285 0
1 0.964416 0
1 0.97557 0
1 0.986709 0
1 0.997864 0
1 1 0
1 1 0
1 1 0
1 1 0
1 0.967727 0.462287
1 0.977966 0.467185
1 0.98819 0.472068
1 0.998825 0.47715
1 1 0.482033
1 1 0.486915
1 1 0.491814
1 1 0.496696
1 1 0.50164
1 1 0.506661
1 1 0.511559
1 1 0.516442
0.973159 0.514382 0.013901
0.982284 0.519203 0.0140383
0.991562 0.524117 0.0141604
1 0.529046 0.0142977
1 0.533867 0.014435
1 0.538689 0.0145571
1 0.543511 0.0146944
0.546441 0.546441 0.546441
1 0.945571 0
1 0.95671 0
1 0.967865 0
1 0.979309 0
1 0.990585 0
1 1 0
1 1 0
1 1 0
1 1 0
1 1 0
1 0.971283 0.463996
1 0.981521 0.468879
1 0.991745 0.473762
1 1 0.47866
1 1 0.483543
1 1 0.488624
1 1 0.493507
1 1 0.49839
1 1 0.503288
1 1 0.508171
1 1 0.5131
1 1 0.518135
0.976318 0.51606 0.0139467
0.985443 0.520882 0.0140841
0.994568 0.525704 0.0142061
1 0.530526 0.0143435
1 0.535424 0.0144656
1 0.540368 0.0146029
1 0.54519 0.0147402
1 0.550011 0.0148623
1 0.554833 0.0149996
1 0.559655 0.0151217
1 0.97174 0
1 0.982879 0
1 0.994034 0
1 1 0
1 1 0
1 1 0
1 1 0
1 1 0
1 0.974441 0.465492
1 0.985016 0.470542
1 0.9953 0.475456
1 1 0.480354
1 1 0.485237
1 1 0.490135
1 1 0.495018
1 1 0.500099
1 1 0.504982
1 1 0.50988
1 1 0.514763
0.970016 0.512718 0.0138552
0.979492 0.517739 0.0139925
0.988617 0.52256 0.0141299
0.997742 0.527382 0.0142519
1 0.532204 0.0143893
1 0.537026 0.0145113
1 0.541878 0.0146487
1 0.546853 0.014786
1 0.551675 0.0149081
1 0.556512 0.0150454
1 0.561334 0.0151675
1 0.566155 0.0153048
1 0.571038 0.0154269
1 0.575982 0.0155642
1 1 0
1 1 0
1 1 0
1 1 0
1 0.967758 0.462303
1 0.977996 0.467201
1 0.98822 0.472084
1 0.998703 0.477089
1 1 0.482048
