LUT/Custom/El Zone Varicam.cube
TITLE "Generated by Resolve"
#LUMIXPHOTOSTYLE NAT
LUT_3D_SIZE 5
0 0 0
0 0.137606 0.233661
0 0.282261 0.38471
0 0.423743 0.577539
0.05449 0.400305 0.0377203
0.0453803 0.333364 0.0314183
0.0590066 0.433448 0.0408484
0.128603 0.564767 0.0950637
0.152712 0.670604 0.112871
0 0.846189 0
0.160815 0.706157 0.118853
0 0.884352 0
0 1 0
0.542519 0.537453 0.501961
0.598581 0.592996 0.553826
0.561288 0.556039 0.519326
0.617426 0.611643 0.571252
1 1 0
1 1 0
1 1 0.550851
1 1 0
1 1 0.56405
1 1 0.603357
1 0.651408 0
1 0.691234 0
0.110231 0.0496071 0.110231
0 0.197269 0.334997
0 0.343145 0.467689
0.0466621 0.342824 0.0323033
0.0603189 0.443168 0.0417639
0.0512398 0.37644 0.0354772
0.0648661 0.476509 0.0449073
0.138918 0.609995 0.102678
0.163088 0.716152 0.120546
0 0.895247 0
0 0.818265 0
0 0.933959 0
0.0333867 1 0
0.566644 0.561349 0.524285
1 0.995178 0
0.585214 0.579751 0.541466
1 1 0
1 1 0
1 1 0.528466
1 1 0.567758
1 1 0.541482
1 1 0.580972
1 0.611994 0.0165408
1 0.66836 0
1 0 0
0 0.118212 0.200732
0 0.257053 0.436515
0 0.403372 0.549783
0.0525368 0.385916 0.0363622
0.117052 0.513985 0.0865187
0.0570382 0.419043 0.0394903
0.125139 0.549523 0.0925002
0.149248 0.655375 0.110307
0 0.829602 0
0 0.944884 0
0 0.867781 0
0 0.983597 0
0.534447 0.529458 0.494499
0.590692 0.585168 0.546532
1 1 0
0.609354 0.603662 0.56379
1 1 0
1 1 0
1 1 0.545205
1 1 0.58468
1 1 0.558404
1 1 0.597696
0.849577 0.849577 0.849577
1 0.685496 0
1 0 0
0 0.177325 0.301106
0 0.32282 0.439994
0.0447089 0.328435 0.0309453
0.0583963 0.428992 0.0404364
0.127428 0.559564 0.0941787
0.0629129 0.462135 0.0435492
0.1355 0.59501 0.100145
0.159625 0.700954 0.117983
0 0.878721 0
0 0.994507 0
0 0.917403 0
0 1 0
0.558587 0.553368 0.516823
0.614664 0.608911 0.568704
1 1 0
1 1 0
1 1 0
1 1 0
1 1 0.562112
1 1 0.601419
1 1 0.575326
1 1 0.614618
1 0.662776 0
1 0 0
1 0.273548 0.273548
0 0.23711 0.40264
0 0.38323 0.522332
0.0505684 0.371542 0.0350195
0.0641947 0.471611 0.0444495
0.137804 0.605127 0.101854
0.121675 0.534325 0.0899367
0.145785 0.640162 0.107744
0 0.813031 0
0 0.928313 0
0 1 0
0 0.967041 0
0.52639 0.521477 0.487037
0.582727 0.577279 0.539162
1 1 0
1 1 0
1 1 0
1 1 0
1 1 0.53959
1 1 0.579034
1 0.610101 0.016495
1 1 0.59205
1 0.623117 0.016846
1 0.679774 0
1 0 0
0.999496 0.999496 0.999496
