LUT/Custom/El Zone Varicam.cube
TITLE "Generated by Resolve"
#LUMIXPHOTOSTYLE NAT
LUT_3D_SIZE 9
0 0 0
0 0.0684215 0.116182
0 0.137606 0.233661
0 0.207263 0.351965
0 0.282261 0.38471
0 0.353338 0.48159
0 0.423743 0.577539
0.0476539 0.350042 0.03299
0.05449 0.400305 0.0377203
0 0.230594 0.391562
0 0.306004 0.417075
0 0.37641 0.513039
0.0430915 0.316548 0.0298314
0.0499428 0.366842 0.0345769
0.0567178 0.416693 0.0392767
0.0635538 0.466911 0.044007
0.124559 0.546975 0.0920729
0.136675 0.600153 0.101015
0.0453803 0.333364 0.0314183
0.0522164 0.383642 0.0361486
0.0590066 0.433448 0.0408484
0.116503 0.511589 0.0861067
0.128603 0.564767 0.0950637
0.140597 0.617426 0.103929
0.152712 0.670604 0.112871
0.164828 0.723781 0.121828
0 0.846189 0
0.120546 0.529366 0.0890974
0.132647 0.582513 0.0980392
0.144656 0.635203 0.10692
0.156756 0.68838 0.115862
0 0.80763 0
0 0.864988 0
0 0.922896 0
0 0.980819 0
0 1 0
0.160815 0.706157 0.118853
0 0.826444 0
0 0.884352 0
0 0.942275 0
0 1 0
0.514351 0.509544 0.475898
0.542519 0.537453 0.501961
0.570687 0.565347 0.528023
0.598581 0.592996 0.553826
0 0.961639 0
0 1 0
0.523766 0.518868 0.484611
0.551934 0.546777 0.510658
0.579965 0.574548 0.536599
0.607996 0.602319 0.562539
1 1 0
1 1 0
1 1 0
0.561288 0.556039 0.519326
0.589258 0.583749 0.54519
0.617426 0.611643 0.571252
1 1 0
1 1 0
1 1 0
1 1 0
1 1 0.531197
1 1 0.550851
1 1 0
1 1 0
1 1 0
1 1 0
1 1 0.537713
1 1 0.557458
1 1 0.577203
1 1 0.59675
1 1 0.616495
1 1 0
1 1 0.544305
1 1 0.56405
1 1 0.583658
1 1 0.603357
1 0.614786 0.0166171
1 0.651408 0
1 0.671229 0
1 0.691234 0
0.0538338 0.0242161 0.0538338
0 0.0982834 0.166903
0 0.167376 0.28423
0 0.23714 0.402701
0 0.312703 0.4262
0 0.383322 0.522438
0.0437324 0.321279 0.0302739
0.0505837 0.371557 0.0350195
0.0574044 0.421729 0.0397498
0 0.260456 0.442298
0 0.336202 0.458228
0 0.406836 0.554498
0.0460212 0.338079 0.0318608
0.0528725 0.388357 0.0366064
0.0596475 0.438163 0.0412909
0.117632 0.516564 0.0869459
0.129747 0.569741 0.0959029
0.141772 0.622583 0.104799
0.0483101 0.354894 0.0334478
0.0551003 0.404776 0.0381476
0.0619364 0.454963 0.0428779
0.121675 0.53434 0.0899367
0.133791 0.587533 0.0988937
0.145785 0.640192 0.107759
0.1579 0.69337 0.116701
0 0.813062 0
0 0.870436 0
0.125734 0.552132 0.0929274
0.137728 0.604791 0.101793
0.149828 0.657969 0.11075
0.161944 0.711147 0.119692
0 0.831968 0
0 0.889784 0
0 0.947707 0
0 1 0
0.516991 0.512154 0.47834
0 0.793881 0
0 0.85124 0
0 0.909148 0
0 0.967071 0
0 1 0
0.526406 0.521492 0.487053
0.554574 0.549401 0.513115
0.582742 0.577295 0.539178
0.610636 0.604929 0.564981
0 0.986419 0
0 1 0
0.535821 0.530816 0.495766
0.563989 0.558724 0.521828
0.591882 0.586358 0.547631
0.62005 0.614267 0.573693
1 1 0
1 1 0
1 1 0
0.573144 0.567788 0.530297
0.601312 0.595682 0.556344
1 1 0
1 1 0
1 1 0
1 1 0
1 1 0
1 1 0.539559
1 1 0.559304
1 1 0
1 1 0
1 1 0
1 1 0
1 1 0.546166
1 1 0.565911
1 1 0.585641
1 1 0.605203
1 0.616617 0.0166629
1 1 0.533028
1 1 0.552758
1 1 0.572503
1 1 0.592065
1 1 0.611811
1 0.623133 0.016846
1 0.659876 0
1 0.679789 0
1 0 0
0.110231 0.0496071 0.110231
0 0.128084 0.217502
0 0.197269 0.334997
0 0.267033 0.453437
0 0.343145 0.467689
0 0.41355 0.563638
0.0466621 0.342824 0.0323033
0.0535134 0.393103 0.0370489
0.0603189 0.443168 0.0417639
0 0.295827 0.403204
0 0.366491 0.499519
0 0.437293 0.596017
0.0489509 0.359625 0.0338903
0.055787 0.409827 0.0386206
0.0625772 0.459709 0.0433204
0.12282 0.539361 0.0907759
0.134936 0.592538 0.099733
0.146929 0.645197 0.108598
0.0512398 0.37644 0.0354772
0.0580148 0.42623 0.0401617
0.0648661 0.476509 0.0449073
0.126879 0.557137 0.0937819
0.138918 0.609995 0.102678
0.150973 0.662974 0.111589
0.163088 0.716152 0.120546
0 0.837781 0
0 0.895247 0
0.130877 0.574746 0.0967422
0.142916 0.627573 0.105638
0.155016 0.680751 0.11458
0 0.799329 0
0 0.856687 0
0 0.914595 0
0 0.972519 0
0 1 0
0.529061 0.524117 0.489509
0 0.818265 0
0 0.876051 0
0 0.933959 0
0 0.991882 0
0.0333867 1 0
0.538476 0.533455 0.498222
0.566644 0.561349 0.524285
0.594537 0.588983 0.550088
1 0.995178 0
0 1 0
0.519722 0.51487 0.480873
0.54789 0.542779 0.506935
0.575845 0.570459 0.532799
0.603967 0.598321 0.558801
1 1 0
1 1 0
1 1 0
1 1 0
0.585214 0.579751 0.541466
0.613382 0.607645 0.567514
1 1 0
1 1 0
1 1 0
1 1 0
1 1 0.528466
1 1 0.548028
1 1 0.567758
1 1 0
1 1 0
1 1 0
1 1 0.534874
1 1 0.55462
1 1 0.574365
1 1 0.593927
1 1 0.613657
1 0.624964 0.0168917
1 1 0.541482
1 1 0.561227
1 1 0.580972
1 1 0.600519
1 0.611994 0.0165408
1 0.648539 0
1 0.66836 0
1 0.688365 0
1 0 0
0 0.0883192 0.149966
0 0.157397 0.267292
0 0.227161 0.385748
0 0.302525 0.412345
0 0.373617 0.509224
0 0.593637 0.470314
0.0496071 0.36437 0.0343328
0.0564431 0.414649 0.0390784
0.0632181 0.464454 0.0437629
0 0.326284 0.444724
0 0.396689 0.540658
0.0450446 0.330892 0.0311894
0.0518807 0.38117 0.0359197
0.0586709 0.430976 0.0406195
0.251972 0.251972 0.251972
0.128008 0.562142 0.0946212
0.140124 0.61532 0.103563
0.152117 0.667994 0.112428
0.0541695 0.39794 0.0375067
0.0609598 0.447791 0.0422065
0.119951 0.526757 0.0886549
0.132067 0.579919 0.097612
0.14406 0.632593 0.106477
0.156161 0.685771 0.115419
0 0.804791 0
0 0.86247 0
0 0.920058 0
0.136049 0.597421 0.100557
0.148104 0.65037 0.109468
0.16022 0.703548 0.118425
0 0.824079 0
0 0.881498 0
0 0.939422 0
0 0.997345 0
0.512963 0.508171 0.474617
0.541131 0.53608 0.500679
0 0.842954 0
0 0.900877 0
0 0.958785 0
0 1 0
0.522377 0.517494 0.48333
0.550546 0.545403 0.509392
0.578683 0.573281 0.535424
0.606622 0.600946 0.561257
1 1 0
0 1 0
0.531792 0.526833 0.492042
0.55996 0.554726 0.518105
0.587869 0.582376 0.543908
0.616037 0.610269 0.56997
1 1 0
1 1 0
1 1 0
1 1 0
0.597284 0.591699 0.552621
1 0.999542 0
1 1 0
1 1 0
1 1 0
1 1 0
1 1 0.536736
1 1 0.556481
1 1 0.576226
1 1 0
1 1 0
1 1 0
1 1 0.543343
1 1 0.563088
1 1 0.582834
1 1 0.60238
1 0.613825 0.0165866
1 0.650431 0
1 1 0.54995
1 1 0.56968
1 1 0.589242
1 1 0.608988
1 0.62034 0.0167697
1 0.657115 0
1 0.676936 0
1 0.696941 0
1 0 0
0 0.118212 0.200732
0 0.187289 0.318044
0 0.257053 0.436515
0 0.332982 0.453849
0 0.403372 0.549783
0.0456855 0.335637 0.031632
0.0525368 0.385916 0.0363622
0.0593271 0.435843 0.0410773
0.117052 0.513985 0.0865187
0 0.356146 0.485405
0 0.427131 0.582162
0.0479744 0.352438 0.0332189
0.0548257 0.402716 0.0379492
0.0616007 0.452522 0.042649
0.121096 0.531746 0.0895094
0.133196 0.584924 0.0984512
0.14519 0.637598 0.107317
0.157305 0.690776 0.116274
0.0570382 0.419043 0.0394903
0.0638895 0.469322 0.0442359
0.125139 0.549523 0.0925002
0.137255 0.602701 0.101442
0.149248 0.655375 0.110307
0.161349 0.708537 0.119265
0 0.829602 0
0 0.886961 0
0 0.944884 0
0.141176 0.619974 0.104356
0.153292 0.673152 0.113298
0.165393 0.726314 0.122255
0 0.848402 0
0 0.906325 0
0 0.964233 0
0 1 0
0.525032 0.520119 0.485771
0.553201 0.548028 0.511833
0 0.867781 0
0 0.925689 0
0 0.983597 0
0 1 0
0.534447 0.529458 0.494499
0.562615 0.557366 0.520562
0.590692 0.585168 0.546532
0.618677 0.612894 0.572427
1 1 0
0.515709 0.510887 0.47715
0.543862 0.538781 0.503212
0.572015 0.566674 0.529244
0.599924 0.594324 0.555077
1 1 0
1 1 0
1 1 0
1 1 0
1 1 0
0.609354 0.603662 0.56379
1 1 0
1 1 0
1 1 0
1 1 0
1 1 0
1 1 0.545205
1 1 0.56495
1 1 0.58468
1 1 0
1 1 0
1 1 0.532052
1 1 0.551797
1 1 0.571542
1 1 0.59118
1 1 0.610834
1 0.622171 0.0168154
1 0.659007 0
1 1 0.558404
1 1 0.578149
1 1 0.597696
0.823255 0.823255 0.823255
0.849577 0.849577 0.849577
1 0.665492 0
1 0.685496 0
1 0 0
1 0 0
0 0.147662 0.250751
0 0.217197 0.368826
0 0.292363 0.398489
0 0.363302 0.495155
0 0.433845 0.591318
0.0486152 0.357183 0.0336614
0.0554665 0.407462 0.038407
0.0622416 0.457282 0.0430915
0.12224 0.536767 0.0903487
0 0.386526 0.526818
0.0440681 0.323705 0.0305028
0.0509041 0.373983 0.0352483
0.0577096 0.423941 0.0399481
0.0645304 0.474067 0.0446784
0.126284 0.554543 0.0933394
0.138399 0.607721 0.102296
0.150378 0.66038 0.111147
0.162493 0.713558 0.120104
0.0599832 0.440604 0.0415198
0.118227 0.519142 0.0873732
0.130327 0.57232 0.0963302
0.142321 0.624994 0.105196
0.154437 0.678157 0.114153
0 0.796506 0
0 0.854047 0
0 0.911788 0
0 0.969696 0
0.146365 0.642771 0.108186
0.15848 0.695933 0.117144
0 0.815869 0
0 0.873228 0
0 0.931136 0
0 0.989059 0
0 1 0
0.537102 0.532082 0.496956
0.56527 0.559991 0.523018
0 0.892592 0
0 0.9505 0
0 1 0
0.518364 0.513512 0.479606
0.546532 0.541421 0.505669
0.574685 0.569314 0.531716
0.602594 0.596963 0.557534
1 1 0
1 1 0
0.527779 0.522835 0.488319
0.555932 0.550744 0.514366
0.583841 0.578378 0.540185
0.612009 0.606287 0.566247
1 1 0
1 1 0
1 1 0
1 1 0
1 1 0
1 1 0
1 1 0
1 1 0
1 1 0
1 1 0
1 1 0.534051
1 1 0.553658
1 1 0.573404
1 1 0.593149
1 1 0
1 1 0
1 1 0.54052
1 1 0.560265
1 1 0.580011
1 1 0.599557
1 0.611048 0.0165103
1 0.647562 0
1 0.667506 0
1 1 0.566857
1 1 0.586511
1 1 0.606165
1 0.617563 0.0166934
1 0.654246 0
1 0.674067 0
1 0.694072 0
1 0 0
0.994675 0.270405 0.270405
0 0.177325 0.301106
0 0.247074 0.419562
0 0.32282 0.439994
0 0.393591 0.536446
0.0447089 0.328435 0.0309453
0.0515602 0.378729 0.0356909
0.0583963 0.428992 0.0404364
0.0651713 0.478798 0.0451209
0.127428 0.559564 0.0941787
0 0.416968 0.568307
0.0469978 0.345235 0.0325322
0.0538338 0.395529 0.0372778
0.0606241 0.445319 0.0419623
0.119356 0.524147 0.0882277
0.131472 0.577325 0.0971695
0.143526 0.630259 0.106081
0.155566 0.683162 0.114992
0 0.801953 0
0.0629129 0.462135 0.0435492
0.123415 0.541924 0.0912184
0.1355 0.59501 0.100145
0.147509 0.647761 0.109026
0.159625 0.700954 0.117983
0 0.821317 0
0 0.878721 0
0 0.936599 0
0 0.994507 0
0.151568 0.665553 0.112016
0.163668 0.718715 0.120974
0 0.84033 0
0 0.898039 0
0 0.955947 0
0 1 0
0.521004 0.516136 0.482048
0.549172 0.544045 0.50811
0.57734 0.571939 0.534173
0 0.917403 0
0 0.975326 0
0 1 0
0.530419 0.52546 0.490761
0.558587 0.553368 0.516823
0.586587 0.581109 0.542733
0.614664 0.608911 0.568704
1 1 0
1 1 0
0.539834 0.534798 0.499474
0.568002 0.562692 0.525536
0.595911 0.590341 0.551354
1 0.997345 0
1 1 0
1 1 0
1 1 0
1 1 0
1 1 0.535958
1 1 0
1 1 0
1 1 0
1 1 0
1 1 0
1 1 0.542382
1 1 0.562112
1 1 0.581857
1 1 0.601419
1 1 0
1 1 0.529229
1 1 0.548974
1 1 0.568719
1 1 0.588464
1 1 0.608011
1 0.619394 0.0167391
1 0.656138 0
1 0.675959 0
1 1 0.575326
1 1 0.594873
1 1 0.614618
1 0.62591 0.0169223
1 0.662776 0
1 0.682643 0
1 0 0
1 0 0
1 0.273548 0.273548
0 0.207233 0.351888
0 0.2822 0.384634
0 0.353277 0.481498
0 0.423682 0.577447
0.0476387 0.349996 0.03299
0.05449 0.400275 0.0377203
0.061265 0.45008 0.0424201
0.1205 0.529168 0.0890669
0.132616 0.582345 0.098024
0.0430915 0.316518 0.0298314
0.0499275 0.366796 0.0345617
0.0567788 0.417075 0.0393072
0.0635538 0.46688 0.0439918
0.124544 0.546929 0.0920577
0.13666 0.600107 0.101015
0.148653 0.652781 0.10988
0.160769 0.705959 0.118822
0 0.82678 0
0.116487 0.511543 0.0861067
0.128603 0.564721 0.0950484
0.140658 0.617685 0.103975
0.152697 0.670558 0.112871
0.164813 0.723735 0.121813
0 0.846143 0
0 0.903502 0
0 0.961425 0
0 1 0
0.156756 0.688334 0.115862
0 0.807584 0
0 0.864942 0
0 0.922866 0
0 0.980774 0
0 1 0
0.533074 0.528099 0.493217
0.561242 0.556008 0.51928
0.58941 0.583902 0.545342
0 0.942229 0
0 1 0
0.514336 0.509514 0.475868
0.542504 0.537423 0.50193
0.570672 0.565332 0.527993
0.598596 0.592996 0.553841
1 1 0
1 1 0
1 1 0
0.551919 0.546761 0.510643
0.579919 0.574502 0.536568
0.60798 0.602289 0.562524
1 1 0
1 1 0
1 1 0
1 1 0
1 1 0
1 1 0.544259
1 1 0
1 1 0
1 1 0
1 1 0
1 1 0.531167
1 1 0.550835
1 1 0.570581
1 1 0.590326
1 1 0.609873
1 1 0
1 1 0.537697
1 1 0.557443
1 1 0.577173
1 1 0.596735
1 1 0.61648
1 0.627741 0.016968
1 0.664714 0
1 0.68452 0
1 1 0.58378
1 1 0.603342
1 0.614771 0.0166171
1 0.651392 0
1 0.671214 0
1 0.691218 0
1 0 0
0.990753 0.269337 0.269337
1 0.276707 0.276707
0 0.23711 0.40264
0 0.312657 0.426139
0 0.38323 0.522332
0.0437324 0.321248 0.0302739
0.0505684 0.371542 0.0350195
0.0574197 0.421805 0.0397498
0.0641947 0.471611 0.0444495
0.125689 0.551949 0.0928969
0.137804 0.605127 0.101854
0.0460212 0.338064 0.0318608
0.0528573 0.388342 0.0365911
0.0596475 0.438132 0.0412909
0.117632 0.516548 0.0869459
0.129732 0.569726 0.0958877
0.141848 0.622904 0.104845
0.153841 0.675563 0.11371
0 0.793667 0
0 0.851591 0
0.121675 0.534325 0.0899367
0.133791 0.587503 0.0988937
0.145785 0.640162 0.107744
0.157885 0.693339 0.116701
0 0.813031 0
0 0.870405 0
0 0.928313 0
0 0.986221 0
0 1 0
0.161944 0.711116 0.119692
0 0.832395 0
0 0.889754 0
0 0.947662 0
0 1 0
0.516976 0.512154 0.478325
0.545144 0.540047 0.504387
0.573312 0.567956 0.530449
0.601419 0.595804 0.556451
0 0.967041 0
0 1 0
0.52639 0.521477 0.487037
0.554559 0.549386 0.5131
0.582727 0.577279 0.539162
0.610636 0.604929 0.564981
1 1 0
1 1 0
1 1 0
0.563973 0.558709 0.521813
0.591882 0.586343 0.547616
0.62005 0.614252 0.573693
1 1 0
1 1 0
1 1 0
1 1 0
1 1 0.533135
1 1 0.552697
1 1 0
1 1 0
1 1 0
1 1 0
1 1 0.53959
1 1 0.559289
1 1 0.579034
1 1 0.598703
1 0.610101 0.016495
1 1 0
1 1 0.546151
1 1 0.565896
1 1 0.585641
1 1 0.605188
1 0.616602 0.0166629
1 0.653269 0
1 0.673121 0
1 0.693095 0
1 1 0.59205
1 1 0.611795
1 0.623117 0.016846
1 0.659861 0
1 0.679774 0
1 0 0
1 0 0
1 0.27248 0.27248
0.999496 0.999496 0.999496
