LUT/Custom/El Zone Varicam.cube
TITLE "Generated by Resolve"
#LUMIXPHOTOSTYLE NAT
LUT_3D_SIZE 33
0 0 0
0.0300603 0.0135195 0.0300603
0.0626535 0.0281987 0.0626535
0.0964981 0.0434272 0.0964981
0 0.0684215 0.116182
0 0.0856947 0.14551
0 0.102968 0.174853
0 0.120241 0.204181
0 0.137606 0.233661
0 0.155459 0.263981
0 0.172732 0.293324
0 0.190005 0.322652
0 0.207263 0.351965
0 0.224537 0.381292
0 0.242054 0.411032
0 0.259754 0.441093
0 0.282261 0.38471
0 0.299855 0.408698
0 0.317464 0.432685
0 0.335058 0.456672
0 0.353338 0.48159
0 0.370932 0.505577
0 0.38854 0.529564
0 0.406134 0.553552
0 0.423743 0.577539
0 0.441733 0.602075
0.0442664 0.325139 0.0306401
0.0459602 0.337591 0.0318151
0.0476539 0.350042 0.03299
0.0493477 0.362493 0.034165
0.0510414 0.374929 0.0353399
0.052781 0.387762 0.0365454
0.05449 0.400305 0.0377203
0.106538 0.0479438 0.106538
0 0.0737469 0.125231
0 0.0916762 0.155673
0 0.108949 0.185016
0 0.126223 0.214343
0 0.143496 0.243671
0 0.160769 0.273014
0 0.178714 0.303471
0 0.195987 0.332815
0 0.21326 0.362142
0 0.230533 0.39147
0 0.247807 0.420813
0 0.265141 0.450248
0 0.288365 0.393027
0 0.305959 0.417014
0 0.323568 0.441001
0 0.341161 0.464988
0 0.35877 0.488991
0 0.376577 0.513252
0 0.394644 0.537881
0 0.412238 0.561852
0 0.429831 0.58584
0.0430915 0.316518 0.0298314
0.0447852 0.328969 0.0310063
0.0465095 0.34168 0.0321965
0.0482338 0.354345 0.0333867
0.0499275 0.366796 0.0345617
0.0516213 0.379248 0.0357366
0.053315 0.391699 0.0369116
0.0550088 0.40415 0.0380865
0.0567636 0.416968 0.039292
0.0584726 0.429526 0.0404822
0.0601663 0.441978 0.0416571
0 0.114824 0.194965
0 0.132235 0.224537
0 0.149508 0.25388
0 0.166781 0.283207
0 0.184054 0.312535
0 0.201328 0.341878
0 0.219272 0.372335
0 0.23653 0.401648
0 0.253803 0.430991
0.102296 0.102296 0.102296
0 0.293797 0.400427
0 0.311406 0.424445
0 0.329671 0.449332
0 0.347265 0.47332
0 0.364874 0.497307
0 0.382467 0.521294
0 0.400076 0.545281
0 0.417838 0.569497
0 0.43595 0.594186
0.0436713 0.320851 0.0302434
0.0453651 0.333288 0.0314031
0.0470588 0.345739 0.032578
0.0487526 0.35819 0.033753
0.0505226 0.37113 0.0349737
0.0522164 0.383581 0.0361486
0.0539101 0.396017 0.0373236
0.0556039 0.408469 0.0384985
0.0572976 0.42092 0.0396735
0.0590219 0.4336 0.0408637
0.0607462 0.446296 0.0420539
0.0624552 0.458747 0.0432288
0.0641489 0.471199 0.0444038
0.116487 0.511513 0.0860914
0 0.172778 0.2934
0 0.190051 0.322713
0 0.207324 0.352056
0 0.224598 0.381384
0 0.241871 0.410712
0 0.2598 0.441184
0 0.282307 0.384771
0 0.299916 0.408759
0 0.31751 0.432761
0 0.335103 0.456748
0 0.353353 0.481621
0 0.370993 0.505638
0 0.388571 0.52961
0 0.40618 0.553597
0 0.423774 0.5776
0 0.441382 0.601587
0.0442664 0.32517 0.0306401
0.0459602 0.337621 0.0318151
0.0476539 0.350072 0.03299
0.0493477 0.362509 0.034165
0.0510414 0.37496 0.0353399
0.0527504 0.387503 0.0365148
0.05449 0.400351 0.0377356
0.056199 0.412802 0.0388952
0.0578927 0.425254 0.0400702
0.0595865 0.437705 0.0412451
0.0612802 0.450141 0.0424201
0.0630045 0.462791 0.0436103
0.0647288 0.475532 0.0448157
0.117525 0.516091 0.0868696
0.120516 0.529244 0.0890822
0.123522 0.542412 0.0912947
0.126513 0.555581 0.0935073
0 0.230594 0.391562
0 0.247852 0.42089
0 0.265126 0.450217
0 0.288182 0.392782
0 0.306004 0.417075
0 0.323613 0.441062
0 0.341207 0.465049
0 0.358816 0.489036
0 0.37641 0.513039
0 0.394614 0.537835
0 0.412284 0.561929
0 0.429892 0.585916
0.0430915 0.316548 0.0298314
0.0447852 0.329 0.0310063
0.046479 0.341451 0.0321813
0.0482338 0.354391 0.033402
0.0499428 0.366842 0.0345769
0.0516365 0.379294 0.0357519
0.0533303 0.39173 0.0369116
0.055024 0.404181 0.0380865
0.0567178 0.416693 0.0392767
0.0584726 0.429557 0.0404822
0.0601663 0.442008 0.0416571
0.0618601 0.454459 0.0428321
0.0635538 0.466911 0.044007
0.0652476 0.479362 0.045182
0.118563 0.520653 0.0876326
0.121569 0.533822 0.0898451
0.124559 0.546975 0.0920729
0.127565 0.560143 0.0942855
0.130556 0.573312 0.0964981
0.133593 0.586664 0.0987411
0.136675 0.600153 0.101015
0 0.293843 0.400504
0 0.311437 0.424491
0 0.329458 0.449027
0 0.347326 0.473396
0 0.36492 0.497383
0 0.382513 0.521355
0 0.400107 0.545342
0 0.417716 0.569329
0 0.435996 0.594247
0.0436866 0.320867 0.0302434
0.0453803 0.333318 0.0314183
0.0470741 0.345769 0.0325933
0.0487678 0.358221 0.033753
0.0505074 0.371084 0.0349737
0.0522164 0.383612 0.0361486
0.0539101 0.396063 0.0373236
0.0556039 0.408499 0.0384985
0.0572976 0.420951 0.0396735
0.0589914 0.433402 0.0408484
0.0607614 0.446342 0.0420691
0.0624552 0.458793 0.0432441
0.0641489 0.471244 0.0444038
0.116487 0.511543 0.0861067
0.119493 0.524712 0.0883192
0.122499 0.537911 0.0905318
0.125597 0.551553 0.0928359
0.128603 0.564721 0.0950484
0.131594 0.57789 0.097261
0.1346 0.591043 0.0994888
0.137591 0.604212 0.101701
0.140627 0.617533 0.103944
0.143709 0.631067 0.106218
0.1467 0.644221 0.108431
0 0.352972 0.481102
0 0.371023 0.505699
0 0.388632 0.529686
0 0.406226 0.553674
0 0.423835 0.577661
0 0.441428 0.601648
0.0442359 0.324987 0.0306249
0.0459602 0.337652 0.0318151
0.0476539 0.350103 0.03299
0.0493477 0.362554 0.034165
0.0510414 0.37499 0.0353399
0.0527352 0.387442 0.0365148
0.05449 0.400259 0.0377203
0.056199 0.412833 0.0389105
0.0578927 0.425269 0.0400854
0.0595865 0.43772 0.0412451
0.0612802 0.450172 0.0424201
0.062974 0.462623 0.043595
0.0647288 0.475547 0.0448157
0.117525 0.516121 0.0868696
0.120531 0.529274 0.0890822
0.123522 0.542443 0.09131
0.126528 0.555611 0.0935225
0.129519 0.56878 0.0957351
0.132647 0.582452 0.0980392
0.135637 0.595621 0.100252
0.138643 0.608789 0.102464
0.141634 0.621958 0.104692
0.144625 0.635126 0.106905
0.147753 0.648798 0.109209
0.150744 0.661967 0.111421
0.15375 0.675135 0.113634
0.156741 0.688304 0.115846
0 0.412345 0.562005
0 0.429938 0.585992
0.0430915 0.316594 0.0298314
0.0447852 0.329046 0.0310063
0.046479 0.341497 0.0321813
0.0482185 0.354177 0.0333715
0.0499428 0.366873 0.0345769
0.0516365 0.379324 0.0357519
0.0533303 0.391775 0.0369268
0.055024 0.404227 0.0381018
0.0567178 0.416678 0.0392615
0.0584878 0.429603 0.0404822
0.0601816 0.442054 0.0416571
0.0618753 0.454505 0.0428321
0.0635691 0.466957 0.044007
0.0652628 0.479393 0.045182
0.118532 0.520546 0.0876173
0.121569 0.533852 0.0898604
0.124575 0.547021 0.0920729
0.127565 0.560189 0.0942855
0.130571 0.573358 0.0964981
0.133562 0.586526 0.0987259
0.136675 0.600168 0.101015
0.139681 0.613367 0.103243
0.142672 0.626535 0.105455
0.145678 0.639704 0.107668
0.148669 0.652857 0.109895
0.151675 0.666026 0.112108
0.154788 0.679713 0.114412
0.157778 0.692882 0.116625
0.160784 0.706035 0.118837
0.163775 0.719203 0.12105
0 0.797635 0
0.0453803 0.333364 0.0314183
0.0470741 0.345815 0.0325933
0.0487678 0.358267 0.0337682
0.0504768 0.370809 0.0349432
0.0522164 0.383642 0.0361486
0.0539254 0.396094 0.0373236
0.0556191 0.408545 0.0384985
0.0573129 0.420996 0.0396735
0.0590066 0.433448 0.0408484
0.0607309 0.446097 0.0420386
0.0624552 0.458824 0.0432441
0.0641489 0.471275 0.044419
0.116503 0.511589 0.0861067
0.119493 0.524758 0.0883192
0.122499 0.537911 0.090547
0.125566 0.551415 0.0928054
0.128603 0.564767 0.0950637
0.131609 0.577935 0.0972763
0.1346 0.591104 0.0994888
0.137606 0.604257 0.101701
0.140597 0.617426 0.103929
0.143694 0.631037 0.106218
0.146715 0.644266 0.108446
0.149706 0.657435 0.110658
0.152712 0.670604 0.112871
0.155703 0.683772 0.115084
0.158709 0.696941 0.117311
0.161822 0.710613 0.1196
0.164828 0.723781 0.121828
0 0.802609 0
0 0.816953 0
0 0.831296 0
0 0.846189 0
0.0510567 0.375036 0.0353399
0.0527504 0.387488 0.0365148
0.0544442 0.4 0.0376898
0.056199 0.412863 0.0389105
0.0578927 0.425315 0.0400854
0.0595865 0.437766 0.0412604
0.0612802 0.450217 0.0424353
0.062974 0.462669 0.043595
0.0646983 0.475288 0.0447852
0.11754 0.516152 0.0868696
0.120531 0.52932 0.0890974
0.123537 0.542489 0.09131
0.126528 0.555657 0.0935225
0.129534 0.568826 0.0957351
0.132647 0.582498 0.0980392
0.135653 0.595666 0.100267
0.138643 0.608835 0.10248
0.141649 0.622003 0.104692
0.14464 0.635172 0.106905
0.147707 0.648646 0.109178
0.150759 0.662013 0.111421
0.15375 0.675181 0.113649
0.156756 0.68835 0.115862
0.159747 0.701518 0.118074
0.162753 0.714672 0.120287
0 0.793149 0
0 0.807584 0
0 0.821927 0
0 0.836271 0
0 0.850614 0
0 0.864958 0
0 0.87985 0
0 0.894194 0
0.056733 0.416709 0.0392767
0.0584878 0.429648 0.0404822
0.0601816 0.442084 0.0416571
0.0618753 0.454536 0.0428321
0.0635691 0.466987 0.044007
0.0652628 0.479438 0.045182
0.118471 0.520272 0.0875715
0.121584 0.533898 0.0898604
0.124575 0.547066 0.0920729
0.127581 0.560235 0.0943008
0.130571 0.573404 0.0965133
0.133577 0.586572 0.0987259
0.136614 0.599893 0.100969
0.139681 0.613397 0.103243
0.142687 0.626566 0.105455
0.145678 0.639735 0.107683
0.148684 0.652903 0.109895
0.151675 0.666072 0.112108
0.154742 0.679515 0.114366
0.157794 0.692912 0.116625
0.160784 0.706081 0.118853
0.16379 0.719249 0.121065
0 0.797681 0
0 0.812024 0
0 0.82678 0
0 0.84126 0
0 0.855604 0
0 0.869932 0
0 0.884276 0
0 0.898619 0
0 0.913512 0
0 0.92784 0
0 0.942184 0
0.0624704 0.458869 0.0432441
0.0641642 0.471305 0.044419
0.116503 0.51162 0.0861219
0.119509 0.524788 0.0883345
0.122499 0.537957 0.090547
0.125505 0.551141 0.0927596
0.128618 0.564797 0.0950637
0.131609 0.577966 0.0972763
0.134615 0.591134 0.0995041
0.137606 0.604303 0.101717
0.140612 0.617472 0.103929
0.143633 0.630762 0.106172
0.146731 0.644312 0.108446
0.149722 0.657481 0.110658
0.152728 0.670649 0.112886
0.155718 0.683818 0.115099
0.158724 0.696986 0.117311
0.161837 0.710658 0.119615
0.164828 0.723812 0.121828
0 0.802655 0
0 0.816999 0
0 0.831342 0
0 0.845945 0
0 0.860578 0
0 0.874907 0
0 0.88925 0
0 0.903593 0
0 0.917937 0
0 0.932662 0
0 0.947173 0
0 0.961517 0
0 0.975845 0
0 0.990188 0
0.120546 0.529366 0.0890974
0.123552 0.542519 0.09131
0.126543 0.555688 0.0935378
0.129549 0.568856 0.0957504
0.132647 0.582513 0.0980392
0.135653 0.595697 0.100267
0.138659 0.608865 0.10248
0.141649 0.622034 0.104692
0.144656 0.635203 0.10692
0.147646 0.648371 0.109133
0.150759 0.662043 0.111437
0.153765 0.675212 0.113649
0.156756 0.68838 0.115862
0.159762 0.701549 0.118074
0.162753 0.714717 0.120302
0 0.792844 0
0 0.80763 0
0 0.821973 0
0 0.836316 0
0 0.85066 0
0 0.864988 0
0 0.879561 0
0 0.894224 0
0 0.908568 0
0 0.922896 0
0 0.93724 0
0 0.951583 0
0 0.966278 0
0 0.980819 0
0 0.995163 0
0 1 0
0 1 0
0 1 0
0.130587 0.573434 0.0965133
0.133577 0.586603 0.0987411
0.136584 0.599771 0.100954
0.139681 0.613382 0.103243
0.142687 0.626612 0.10547
0.145693 0.63978 0.107683
0.148684 0.652934 0.109895
0.15169 0.666102 0.112123
0.154681 0.679271 0.114336
0.157794 0.692958 0.11664
0.1608 0.706111 0.118853
0.16379 0.71928 0.121065
0 0.797711 0
0 0.812055 0
0 0.826459 0
0 0.841291 0
0 0.855634 0
0 0.869978 0
0 0.884306 0
0 0.89865 0
0 0.913542 0
0 0.927886 0
0 0.942229 0
0 0.956573 0
0 0.970901 0
0 0.985443 0
0 1 0
0 1 0
0 1 0
0 1 0
0.514321 0.509514 0.475868
0.521462 0.516579 0.482475
0.528542 0.523613 0.489036
0.140627 0.617502 0.103929
0.143618 0.630671 0.106157
0.146731 0.644343 0.108461
0.149737 0.657511 0.110674
0.152728 0.67068 0.112886
0.155734 0.683848 0.115099
0.158724 0.697017 0.117311
0.161822 0.710597 0.1196
0.164843 0.723857 0.121843
0 0.802701 0
0 0.817044 0
0 0.831373 0
0 0.845716 0
0 0.860609 0
0 0.874952 0
0 0.889281 0
0 0.903624 0
0 0.917967 0
0 0.932357 0
0 0.947204 0
0 0.961547 0
0 0.975891 0
0 0.990219 0
0 1 0
0 1 0
0 1 0
0.0333562 1 0
0.516747 0.511925 0.478111
0.52372 0.518837 0.484565
0.530709 0.525734 0.49102
0.53782 0.532784 0.497597
0.544915 0.539834 0.504173
0.551888 0.546731 0.510628
0.150713 0.66186 0.111406
0.153765 0.675258 0.113649
0.156771 0.688411 0.115877
0.159762 0.701579 0.11809
0.162768 0.714748 0.120302
0 0.792782 0
0 0.807553 0
0 0.822019 0
0 0.836362 0
0 0.85069 0
0 0.865034 0
0 0.879377 0
0 0.89427 0
0 0.908614 0
0 0.922957 0
0 0.937285 0
0 0.951629 0
0 0.965972 0
0 0.980865 0
0 0.995209 0
0 1 0
0 1 0
0 1 0
0.5122 0.507408 0.473899
0.519173 0.514321 0.480354
0.526146 0.521233 0.486809
0.53312 0.528145 0.493263
0.540093 0.535042 0.499718
0.547143 0.542016 0.506233
0.554314 0.549142 0.512871
0.561288 0.556039 0.519326
0.568261 0.562951 0.52578
0.575235 0.569863 0.532235
0.160815 0.706157 0.118853
0.163806 0.719326 0.12108
0 0.797757 0
0 0.8121 0
0 0.826444 0
0 0.841337 0
0 0.85568 0
0 0.870024 0
0 0.884352 0
0 0.898695 0
0 0.913436 0
0 0.927932 0
0 0.942275 0
0 0.956603 0
0 0.970947 0
0 0.98529 0
0 1 0
0 1 0
0 1 0
0 1 0
0.514351 0.509544 0.475898
0.521324 0.516457 0.482353
0.528572 0.523629 0.489052
0.535546 0.530541 0.495506
0.542519 0.537453 0.501961
0.549493 0.544366 0.508415
0.556466 0.551263 0.514855
0.563485 0.558221 0.521355
0.570687 0.565347 0.528023
0.577661 0.572259 0.534478
0.584634 0.579171 0.540917
0.591608 0.586084 0.547372
0.598581 0.592996 0.553826
0 0.81709 0
0 0.831418 0
0 0.845762 0
0 0.860334 0
0 0.874998 0
0 0.889342 0
0 0.90367 0
0 0.918013 0
0 0.932357 0
0 0.947066 0
0 0.961593 0
0 0.975937 0
0 0.99028 0
0 1 0
0 1 0
0 1 0
0.0333562 1 0
0.516777 0.51194 0.478141
0.523751 0.518853 0.484596
0.530724 0.525765 0.491035
0.537697 0.532677 0.49749
0.544945 0.539849 0.504204
0.551919 0.546761 0.510658
0.558892 0.553674 0.517098
0.565866 0.560571 0.523552
0.572839 0.567483 0.530007
0.580087 0.57467 0.536721
0.58706 0.581567 0.54316
0.594034 0.588479 0.549615
0.601007 0.595392 0.556069
0.60798 0.602304 0.562524
0.614984 0.609247 0.569009
1 0.994354 0
0 0.86508 0
0 0.879423 0
0 0.893965 0
0 0.90866 0
0 0.922988 0
0 0.937331 0
0 0.951675 0
0 0.966018 0
0 0.980911 0
0 0.995254 0
0 1 0
0 1 0
0 1 0
0.512108 0.507332 0.473823
0.519203 0.514351 0.480385
0.526177 0.521248 0.486839
0.53315 0.528161 0.493278
0.540124 0.535073 0.499733
0.547097 0.541985 0.506188
0.554284 0.549111 0.51284
0.561303 0.556069 0.519341
0.568292 0.562982 0.525795
0.575265 0.569879 0.53225
0.582238 0.576791 0.538705
0.589212 0.583703 0.545159
0.59646 0.590875 0.551858
0.603433 0.597787 0.558312
0.610407 0.6047 0.564767
0.61738 0.611612 0.571221
1 0.997803 0
1 1 0
1 1 0
1 1 0
0 0.91313 0
0 0.927977 0
0 0.942321 0
0 0.956664 0
0 0.970993 0
0 0.985336 0
0 0.999847 0
0 1 0
0 1 0
0 1 0
0.514366 0.50956 0.475914
0.521355 0.516472 0.482368
0.528466 0.523522 0.48896
0.535561 0.530556 0.495521
0.542535 0.537469 0.501976
0.549523 0.544381 0.508431
0.556497 0.551293 0.514885
0.56347 0.558206 0.52134
0.570642 0.565316 0.527977
0.577691 0.57229 0.534493
0.584665 0.579202 0.540948
0.591638 0.586099 0.547402
0.598611 0.593011 0.553857
0.605585 0.599924 0.560296
0.612818 0.607095 0.56701
0.619791 0.614008 0.573465
1 1 0
1 1 0
1 1 0
1 1 0
1 1 0
1 1 0
1 1 0
0 0.961639 0
0 0.975967 0
0 0.990311 0
0 1 0
0 1 0
0 1 0
0.0333562 1 0
0.516793 0.511971 0.478157
0.523766 0.518868 0.484611
0.530739 0.52578 0.491066
0.537713 0.532692 0.497505
0.544961 0.539864 0.504219
0.551934 0.546777 0.510658
0.558907 0.553689 0.517113
0.565881 0.560586 0.523568
0.572854 0.567498 0.530022
0.579965 0.574548 0.536599
0.587076 0.581582 0.543175
0.594049 0.588495 0.54963
0.601022 0.595407 0.556085
0.607996 0.602319 0.562539
0.614969 0.609232 0.568994
1 0.994263 0
1 1 0
1 1 0
1 1 0
1 1 0
1 1 0
1 1 0
1 1 0
1 1 0
1 1 0
1 1 0
0 1 0
0 1 0
0 1 0
0.511971 0.507179 0.473686
0.519219 0.514366 0.4804
0.526192 0.521263 0.486839
0.533165 0.528176 0.493294
0.540139 0.535088 0.499748
0.547112 0.542 0.506203
0.554131 0.548959 0.512703
0.561334 0.556085 0.519356
0.568307 0.562997 0.525811
0.57528 0.569909 0.532265
0.582254 0.576806 0.53872
0.589227 0.583719 0.545174
0.596307 0.590738 0.551736
0.603449 0.597803 0.558328
0.610422 0.604715 0.564782
0.617395 0.611627 0.571237
1 0.997818 0
1 1 0
1 1 0
1 1 0
1 1 0
1 1 0
1 1 0
1 1 0
1 1 0
1 1 0
1 1 0
1 1 0
1 1 0
1 1 0
0.514397 0.50959 0.475929
0.52137 0.516503 0.482383
0.528344 0.5234 0.488838
0.535576 0.530571 0.495537
0.542565 0.537484 0.501991
0.549538 0.544396 0.508446
0.556512 0.551308 0.5149
0.563485 0.558221 0.521355
0.570489 0.565164 0.52784
0.577707 0.572305 0.534508
0.58468 0.579217 0.540963
0.591653 0.586114 0.547417
0.598627 0.593027 0.553872
0.6056 0.599939 0.560327
0.612848 0.607111 0.567025
0.619821 0.614023 0.57348
1 1 0
1 1 0
1 1 0
1 1 0
1 1 0
1 1 0
1 1 0
1 1 0
1 1 0
1 1 0
1 1 0
1 1 0
1 1 0
1 1 0
1 1 0
1 1 0
1 1 0
0.537743 0.532708 0.497536
0.544945 0.539849 0.504189
0.551949 0.546792 0.510689
0.558938 0.553704 0.517143
0.565911 0.560616 0.523598
0.572885 0.567529 0.530053
0.579858 0.574441 0.536507
0.587106 0.581613 0.543206
0.594064 0.588525 0.549661
0.601053 0.595422 0.5561
0.608026 0.602335 0.562554
0.615 0.609247 0.569009
1 0.994018 0
1 1 0
1 1 0
1 1 0
1 1 0
1 1 0
1 1 0
1 1 0
1 1 0
1 1 0
1 1 0
1 1 0
1 1 0
1 1 0
1 1 0
1 1 0
1 1 0
1 1 0
1 1 0
1 1 0.529595
1 1 0.534493
0.561288 0.556039 0.519326
0.568322 0.563012 0.525841
0.575296 0.569924 0.53228
0.582269 0.576837 0.538735
0.589258 0.583749 0.54519
0.596231 0.590646 0.551644
0.603464 0.597833 0.558343
0.610437 0.604746 0.564797
0.617426 0.611643 0.571252
1 0.997864 0
1 1 0
1 1 0
1 1 0
1 1 0
1 1 0
1 1 0
1 1 0
1 1 0
1 1 0
1 1 0
1 1 0
1 1 0
1 1 0
1 1 0
1 1 0
1 1 0
1 1 0
1 1 0
1 1 0.531197
1 1 0.536187
1 1 0.54107
1 1 0.545968
1 1 0.550851
0.584695 0.579232 0.540978
0.591669 0.586145 0.547433
0.598642 0.593057 0.553887
0.605615 0.599954 0.560342
0.612787 0.607065 0.566979
0.619837 0.614054 0.573495
1 1 0
1 1 0
1 1 0
1 1 0
1 1 0
1 1 0
1 1 0
1 1 0
1 1 0
1 1 0
1 1 0
1 1 0
1 1 0
1 1 0
1 1 0
1 1 0
1 1 0
1 1 0
1 1 0
1 1 0.532815
1 1 0.537697
1 1 0.542657
1 1 0.547662
1 1 0.552544
1 1 0.557443
1 1 0.562325
1 1 0.567224
0.608042 0.602365 0.562585
0.615015 0.609277 0.569039
1 0.994034 0
1 1 0
1 1 0
1 1 0
1 1 0
1 1 0
1 1 0
1 1 0
1 1 0
1 1 0
1 1 0
1 1 0
1 1 0
1 1 0
1 1 0
1 1 0
1 1 0
1 1 0
1 1 0
1 1 0.52961
1 1 0.534508
1 1 0.539391
1 1 0.544274
1 1 0.549187
1 1 0.554253
1 1 0.559136
1 1 0.564019
1 1 0.568917
1 1 0.5738
1 1 0.578759
1 1 0.583764
1 1 0
1 1 0
1 1 0
1 1 0
1 1 0
1 1 0
1 1 0
1 1 0
1 1 0
