LUT/Custom/PSCHT_Canteen_Special_GTX_33.cube
TITLE "Generated by Resolve"
#Author: Petr Schreiber
#LUMIXPHOTOSTYLE NAT
LUT_3D_SIZE 9
0.0156863 0.0156863 0.0156863
0.0495155 0.0230411 0.0235294
0.186267 0.0382391 0.0392157
0.38088 0.0573587 0.0470588
0.513726 0.0823529 0.0588235
0.631861 0.107347 0.0745098
0.74902 0.138231 0.0911727
0.860792 0.165194 0.106371
0.956863 0.188235 0.113725
0.027451 0.0808881 0.0539254
0.0607767 0.0882277 0.0661173
0.220951 0.104417 0.0583352
0.399695 0.103914 0.0544137
0.52108 0.106615 0.0607919
0.631556 0.111086 0.0745098
0.745098 0.138231 0.0911727
0.860349 0.165194 0.106371
0.952941 0.188235 0.113725
0.0500038 0.226474 0.127459
0.0660563 0.23003 0.162371
0.274266 0.242161 0.126955
0.420706 0.257847 0.0920272
0.570092 0.264698 0.107851
0.680888 0.247547 0.0988937
0.777447 0.220829 0.102693
0.871077 0.196078 0.108949
0.952941 0.188235 0.113725
0.0691234 0.365194 0.189212
0.07776 0.362737 0.187869
0.115816 0.378561 0.156008
0.447181 0.401404 0.176532
0.564218 0.420096 0.124758
0.715694 0.426413 0.13872
0.836759 0.424018 0.141176
0.927459 0.393133 0.129412
0.975006 0.350484 0.129412
0.0901961 0.494118 0.239216
0.0955825 0.490196 0.232105
0.121569 0.495583 0.199023
0.296574 0.5299 0.19411
0.564706 0.54902 0.203922
0.699504 0.564706 0.146319
0.847059 0.564706 0.153918
0.962249 0.573037 0.168627
0.988235 0.552941 0.14902
0.103426 0.605875 0.270588
0.11078 0.602274 0.259495
0.133455 0.6038 0.228916
0.278004 0.630396 0.218631
0.463722 0.669123 0.203922
0.679469 0.681315 0.203922
0.826963 0.694972 0.15404
0.962737 0.696071 0.163424
0.988235 0.692164 0.176471
0.114702 0.708827 0.287251
0.126345 0.704906 0.274998
0.151965 0.705638 0.25098
0.297429 0.729046 0.244114
0.436271 0.763729 0.220584
0.612253 0.797177 0.203922
0.804654 0.807111 0.19118
0.94313 0.818753 0.156863
0.988235 0.815686 0.175494
0.1299 0.80589 0.305882
0.145098 0.801465 0.287251
0.181857 0.805753 0.278798
0.318318 0.827634 0.271077
0.437507 0.854902 0.259556
0.579416 0.893141 0.224323
0.753918 0.915312 0.212619
0.926528 0.920043 0.200488
0.992157 0.926955 0.169604
0.145098 0.886275 0.321569
0.168139 0.886275 0.309804
0.205875 0.886275 0.301961
0.33138 0.901961 0.295583
0.44509 0.923537 0.286275
0.562753 0.946563 0.253437
0.707851 0.973526 0.234318
0.88481 0.996078 0.242649
0.996078 1 0.247059
0.0156863 0.0196078 0.0803998
0.0421607 0.0226139 0.111269
0.190066 0.0382391 0.142641
0.38088 0.0573587 0.13872
0.509804 0.0803845 0.131365
0.629404 0.107347 0.124025
0.745098 0.138231 0.116548
0.861219 0.165194 0.11281
0.956863 0.188235 0.113725
0.0235294 0.0960708 0.181369
0.0421149 0.103426 0.18088
0.186984 0.114824 0.137438
0.368704 0.126009 0.123522
0.513451 0.125277 0.124453
0.627634 0.116854 0.119951
0.745098 0.138231 0.112322
0.860792 0.165194 0.109377
0.956863 0.188235 0.113725
0.042649 0.235172 0.1897
0.0572519 0.257481 0.284123
0.234165 0.249546 0.208331
0.424018 0.253361 0.178882
0.543389 0.25687 0.170596
0.658747 0.236774 0.134142
0.767102 0.223529 0.118563
0.871397 0.2103 0.108949
0.952941 0.19118 0.113725
0.0691234 0.374319 0.239216
0.0807507 0.373861 0.241856
0.232349 0.386282 0.306004
0.463615 0.396567 0.247242
0.587747 0.412345 0.200244
0.714214 0.424689 0.210117
0.820096 0.408377 0.183154
0.908827 0.371572 0.133364
0.971084 0.3402 0.127947
0.0901961 0.501717 0.28333
0.0973068 0.497826 0.275975
0.259983 0.509804 0.351843
0.376379 0.528527 0.298497
0.591058 0.545098 0.272419
0.708247 0.561669 0.203677
0.843137 0.564767 0.211276
0.958572 0.573007 0.220096
0.988235 0.539208 0.17966
0.102144 0.613535 0.312932
0.112932 0.609918 0.303532
0.222492 0.619791 0.323583
0.312123 0.63267 0.274128
0.502754 0.669123 0.296971
0.694286 0.6804 0.278141
0.826963 0.694972 0.211933
0.96231 0.696071 0.213672
0.988235 0.694606 0.226474
0.114702 0.71667 0.333333
0.133333 0.713497 0.324514
0.195132 0.720104 0.305974
0.315007 0.732754 0.285389
0.446082 0.761761 0.275731
0.621668 0.796567 0.28983
0.806867 0.803922 0.277241
0.942153 0.818753 0.230411
0.988235 0.815686 0.225116
0.129473 0.816663 0.356374
0.156374 0.813169 0.34461
0.209689 0.816663 0.321569
0.32314 0.831098 0.308736
0.440711 0.857908 0.295583
0.587701 0.893141 0.297063
0.753918 0.916548 0.289601
0.926528 0.920043 0.277394
0.992157 0.926955 0.239643
0.145098 0.894118 0.379416
0.182422 0.897551 0.370657
0.225483 0.897551 0.34461
0.326772 0.904418 0.328435
0.440925 0.923537 0.314946
0.568139 0.950484 0.304906
0.714336 0.977447 0.312261
0.881376 0.996567 0.315755
0.996078 1 0.31667
0.0196078 0.0235294 0.227451
0.0382391 0.027451 0.234806
0.188479 0.0431373 0.293141
0.400488 0.0573587 0.298528
0.528435 0.0843214 0.282353
0.639094 0.109194 0.262379
0.751965 0.138231 0.253193
0.860288 0.165194 0.237873
0.956863 0.192157 0.218631
0.0300298 0.0986496 0.327077
0.0381323 0.117342 0.278477
0.190478 0.116426 0.298405
0.395956 0.121935 0.293095
0.524514 0.131365 0.261769
0.64036 0.127947 0.262165
0.749081 0.138231 0.249363
0.85687 0.165194 0.233845
0.953307 0.191302 0.211276
0.0267185 0.264958 0.344121
0.0416724 0.268635 0.395956
0.189212 0.276722 0.330144
0.3841 0.26569 0.282597
0.513726 0.276722 0.263355
0.633799 0.277607 0.25034
0.756313 0.258213 0.236576
0.864576 0.222065 0.229908
0.952941 0.193378 0.199023
0.0465705 0.397055 0.330022
0.0565347 0.404883 0.37499
0.216785 0.412741 0.400977
0.406256 0.40943 0.337575
0.570596 0.417151 0.316365
0.680385 0.4103 0.299565
0.770581 0.3841 0.254902
0.876951 0.361456 0.214755
0.967163 0.344976 0.184314
0.0749981 0.517159 0.357839
0.0843214 0.515373 0.355032
0.284932 0.52108 0.442161
0.40209 0.527642 0.402884
0.57966 0.546807 0.364462
0.7196 0.556863 0.320836
0.839216 0.564706 0.327947
0.936217 0.553307 0.307912
0.984802 0.504906 0.233829
0.0922866 0.629038 0.382849
0.106004 0.625116 0.377813
0.321416 0.629038 0.452949
0.392096 0.634867 0.423529
0.526467 0.665202 0.396567
0.698528 0.677943 0.376013
0.834104 0.692164 0.318135
0.958373 0.696071 0.325795
0.988235 0.696071 0.330388
0.106126 0.73138 0.405875
0.129046 0.728344 0.398688
0.31133 0.733089 0.441794
0.373678 0.740658 0.413138
0.4804 0.761761 0.4
0.630854 0.796567 0.396323
0.806867 0.803922 0.380941
0.942153 0.816052 0.331838
0.988235 0.813474 0.329412
0.122911 0.828916 0.429908
0.155886 0.827619 0.424628
0.303273 0.832837 0.436545
0.375784 0.84036 0.412024
0.478981 0.862257 0.408087
0.601114 0.88922 0.408652
0.753918 0.916548 0.399756
0.922713 0.919173 0.384741
0.992157 0.926955 0.345586
0.141176 0.908827 0.455879
0.182849 0.912383 0.451957
0.314946 0.91986 0.455879
0.381857 0.921202 0.427817
0.480888 0.932845 0.422065
0.583459 0.950484 0.409934
0.721569 0.981369 0.411032
0.880888 1 0.400977
0.996078 1 0.400977
0.0299077 0.0352941 0.366674
0.0458991 0.0413672 0.368627
0.182345 0.056733 0.411765
0.395651 0.064271 0.439704
0.54902 0.0882429 0.442405
0.674998 0.11519 0.436759
0.776471 0.141787 0.409796
0.870771 0.165194 0.383032
0.964706 0.192157 0.365194
0.0392157 0.112078 0.461952
0.0463874 0.124971 0.432303
0.150988 0.150973 0.422675
0.395102 0.127871 0.441184
0.554009 0.149508 0.447547
0.674449 0.158907 0.434623
0.774014 0.140688 0.402777
0.870771 0.165194 0.380575
0.964706 0.192157 0.365194
0.0392157 0.264698 0.518624
0.0432593 0.265568 0.514214
0.166415 0.299504 0.456641
0.391959 0.26836 0.439796
0.549081 0.279347 0.44448
0.658625 0.280888 0.390814
0.768627 0.265538 0.365194
0.876204 0.240757 0.383795
0.962615 0.20061 0.356252
0.0235294 0.427939 0.494606
0.0269627 0.430579 0.511696
0.215976 0.439017 0.533623
0.388724 0.427375 0.462089
0.531838 0.424018 0.422492
0.652033 0.41976 0.402045
0.757641 0.410956 0.378576
0.864317 0.396155 0.352148
0.963241 0.364279 0.335286
0.042649 0.543633 0.468635
0.0552987 0.543633 0.475486
0.229664 0.553429 0.542275
0.403464 0.536522 0.494575
0.544366 0.552941 0.481865
0.699504 0.560327 0.452949
0.803616 0.54725 0.430884
0.880644 0.508827 0.370092
0.966659 0.487495 0.325978
0.0656901 0.650004 0.477028
0.0872511 0.646738 0.474952
0.287388 0.646082 0.533455
0.433875 0.639353 0.514473
0.523247 0.658091 0.511833
0.687663 0.6804 0.483742
0.831373 0.688243 0.449409
0.948348 0.694789 0.461097
0.988235 0.679347 0.441611
0.0848096 0.748653 0.490684
0.117159 0.747906 0.48957
0.303929 0.74519 0.52166
0.444175 0.744503 0.528923
0.516732 0.759075 0.509316
0.637751 0.788861 0.507378
0.803922 0.803922 0.493355
0.941924 0.815152 0.453925
0.988235 0.811765 0.462623
0.106065 0.847059 0.51519
0.148211 0.844877 0.513726
0.30338 0.845228 0.524147
0.444175 0.848035 0.537087
0.518135 0.862257 0.522637
0.616175 0.88304 0.521462
0.753429 0.915236 0.519158
0.919112 0.91725 0.503639
0.992157 0.923537 0.469123
0.126955 0.92549 0.542153
0.178927 0.927947 0.540688
0.314824 0.931868 0.548531
0.449012 0.933333 0.554894
0.520592 0.937255 0.536767
0.612314 0.94902 0.532296
0.730022 0.975616 0.535286
0.880888 1 0.511269
0.996078 1 0.497551
0.0431373 0.0568704 0.505882
0.0573587 0.0602884 0.505882
0.188724 0.0725414 0.520592
0.384802 0.0796521 0.553429
0.547066 0.0931411 0.576471
0.688975 0.119112 0.584314
0.817655 0.149996 0.587747
0.917159 0.173037 0.568139
0.982361 0.192157 0.533333
0.0507362 0.129656 0.587259
0.057847 0.133547 0.578241
0.150668 0.175982 0.540322
0.387259 0.145342 0.553429
0.55465 0.156374 0.58407
0.696071 0.180392 0.592157
0.820584 0.203983 0.591669
0.913237 0.174548 0.560998
0.980392 0.192157 0.52549
0.0509804 0.26569 0.642161
0.0544747 0.269123 0.638727
0.148043 0.318624 0.540566
0.368261 0.297124 0.571694
0.551232 0.284062 0.581857
0.692348 0.301656 0.588724
0.805386 0.311894 0.570596
0.900008 0.271565 0.546319
0.979904 0.207355 0.513726
0.037995 0.431861 0.686763
0.0414282 0.428336 0.685054
0.178988 0.445838 0.649516
0.386267 0.44538 0.599939
0.543877 0.427939 0.570459
0.682811 0.434073 0.580392
0.782101 0.423285 0.534981
0.879896 0.400824 0.492409
0.972549 0.376959 0.49485
0.0205844 0.574502 0.636271
0.0240177 0.574502 0.637003
0.222309 0.57966 0.679896
0.402579 0.573648 0.633341
0.541665 0.564218 0.592157
0.660044 0.563973 0.548653
0.777447 0.548531 0.539223
0.873045 0.530266 0.508339
0.970581 0.504906 0.477455
0.042649 0.676966 0.590188
0.0646983 0.673228 0.593957
0.245533 0.67248 0.631617
0.403922 0.66128 0.60708
0.548409 0.659312 0.632715
0.676005 0.682322 0.614923
0.82034 0.689769 0.583764
0.919112 0.672892 0.564157
0.979904 0.623285 0.492897
0.0612802 0.773526 0.58677
0.0992599 0.769604 0.587198
0.281254 0.762737 0.612863
0.432166 0.754406 0.606378
0.556374 0.762997 0.616175
0.640925 0.783337 0.649699
0.802945 0.804288 0.607843
0.936584 0.814832 0.586526
0.988235 0.811765 0.59559
0.0808881 0.866178 0.604166
0.138445 0.866178 0.606378
0.292409 0.860792 0.614221
0.442649 0.856458 0.621973
0.561151 0.859434 0.629908
0.641978 0.877455 0.629664
0.757534 0.908156 0.633341
0.915221 0.919112 0.622614
0.992157 0.923537 0.592401
0.103914 0.94313 0.629404
0.171084 0.947066 0.633341
0.311269 0.945098 0.637263
0.449027 0.945098 0.643626
0.569604 0.945098 0.649012
0.644846 0.94902 0.643137
0.737743 0.964218 0.645106
0.876967 0.996567 0.634806
0.996078 1 0.619608
0.0588235 0.0798962 0.641169
0.0727398 0.0833295 0.641169
0.202335 0.0916609 0.627329
0.384802 0.0950332 0.654841
0.539223 0.110536 0.690196
0.689708 0.12604 0.713237
0.827451 0.149996 0.723522
0.948348 0.18088 0.731563
0.992157 0.188235 0.722545
0.0640269 0.147555 0.706859
0.0697795 0.150973 0.702144
0.170459 0.191577 0.663844
0.383398 0.169314 0.65301
0.547066 0.172549 0.697215
0.697551 0.188235 0.72108
0.831373 0.212726 0.731365
0.950484 0.238666 0.735485
0.992157 0.204715 0.718624
0.06421 0.275608 0.760784
0.0663615 0.27808 0.757351
0.153307 0.340475 0.629404
0.295827 0.347921 0.678264
0.547066 0.293812 0.696574
0.694011 0.305882 0.717769
0.82562 0.324117 0.72433
0.940276 0.346639 0.725536
0.992157 0.307347 0.707469
0.0554513 0.431861 0.808331
0.0588693 0.431861 0.806241
0.175952 0.457969 0.730388
0.361334 0.469749 0.696178
0.538476 0.437263 0.693843
0.685786 0.437247 0.711757
0.815686 0.449027 0.715694
0.919539 0.454704 0.699992
0.984863 0.411765 0.671504
0.0308843 0.582361 0.845838
0.0343175 0.578927 0.844114
0.175738 0.584314 0.821439
0.39556 0.588235 0.782635
0.550973 0.578561 0.730999
0.675517 0.570306 0.675334
0.805829 0.571023 0.705272
0.893721 0.549661 0.666667
0.973281 0.51838 0.632349
0.0235294 0.707835 0.762753
0.0340124 0.707835 0.762432
0.210224 0.707835 0.790158
0.40351 0.706722 0.768704
0.543908 0.698802 0.739498
0.676478 0.691814 0.718349
0.78648 0.690486 0.671244
0.893141 0.667338 0.667155
0.974014 0.642649 0.635721
0.042649 0.800488 0.712261
0.0804456 0.796567 0.708339
0.243137 0.7897 0.717159
0.408255 0.778286 0.703685
0.545159 0.776959 0.702449
0.679469 0.782177 0.765652
0.803769 0.804288 0.739681
0.93138 0.811902 0.713222
0.987137 0.791058 0.692653
0.0630503 0.893141 0.702632
0.120439 0.88922 0.702937
0.263844 0.881376 0.70663
0.427436 0.869612 0.706554
0.56109 0.867063 0.712657
0.680583 0.881376 0.734005
0.769726 0.900496 0.738552
0.915022 0.9196 0.733562
0.992157 0.923537 0.715694
0.0823529 0.962249 0.718135
0.157534 0.964706 0.72549
0.299504 0.958953 0.725978
0.44062 0.956863 0.729351
0.571817 0.952941 0.737011
0.685847 0.960784 0.750057
0.765194 0.966796 0.749508
0.880385 0.994797 0.753124
0.996078 1 0.739208
0.0754864 0.105882 0.769604
0.0895857 0.110292 0.765194
0.219608 0.11078 0.736278
0.38909 0.114702 0.754406
0.541176 0.126467 0.797055
0.685786 0.141543 0.82855
0.828428 0.156863 0.847791
0.954894 0.18088 0.861891
0.992157 0.188235 0.866667
0.0792859 0.168139 0.822553
0.0862745 0.171572 0.818158
0.200885 0.206287 0.778775
0.390066 0.19118 0.754726
0.547066 0.191669 0.797055
0.693629 0.20061 0.835782
0.835294 0.218387 0.85417
0.958328 0.242161 0.863233
0.992157 0.246082 0.866667
0.0784314 0.290196 0.871809
0.0799268 0.290745 0.868376
0.185901 0.355154 0.748348
0.302052 0.365408 0.777447
0.53431 0.315312 0.789578
0.689708 0.313817 0.831861
0.827451 0.327764 0.847242
0.947921 0.349142 0.854994
0.992157 0.356863 0.855879
0.0687572 0.432837 0.921569
0.0712139 0.43534 0.916304
0.19939 0.467643 0.833646
0.350896 0.487541 0.782467
0.50956 0.475975 0.831434
0.681865 0.441184 0.824018
0.817151 0.449546 0.837232
0.936584 0.464698 0.843137
0.9897 0.47071 0.843137
0.049012 0.582361 0.963241
0.0534371 0.580392 0.961089
0.183703 0.592157 0.913237
0.388907 0.594797 0.876783
0.53872 0.596567 0.841184
0.676478 0.568933 0.816785
0.809812 0.572549 0.831373
0.92726 0.582162 0.835294
0.988235 0.581857 0.826474
0.0269627 0.722911 0.966918
0.0320897 0.720714 0.965072
0.151568 0.7196 0.963363
0.38764 0.715694 0.937057
0.552209 0.714763 0.899199
0.687541 0.704158 0.847059
0.803922 0.696071 0.810147
0.920104 0.69897 0.830045
0.987137 0.671931 0.796567
0.027451 0.831373 0.883085
0.0504005 0.831373 0.882353
0.186465 0.83064 0.890196
0.386267 0.82565 0.878431
0.53872 0.823529 0.867155
0.675578 0.818784 0.854536
0.800732 0.81416 0.838422
0.908339 0.804685 0.816419
0.983581 0.782101 0.792401
0.0475471 0.920104 0.839826
0.095964 0.916075 0.833539
0.233234 0.908339 0.827939
0.399954 0.896574 0.812619
0.544182 0.889586 0.808026
0.675608 0.892653 0.820172
0.799023 0.904418 0.843137
0.914763 0.920043 0.846143
0.988724 0.923033 0.839094
0.0666667 0.984314 0.823529
0.138231 0.983948 0.822187
0.276463 0.981369 0.818875
0.415564 0.97464 0.818631
0.555886 0.965682 0.822553
0.684306 0.968627 0.835416
0.802213 0.980392 0.853925
0.885298 0.988724 0.857847
0.996078 1 0.853925
0.0946059 0.1299 0.888243
0.112261 0.133333 0.880888
0.246571 0.133333 0.842039
0.402274 0.135973 0.85098
0.545342 0.145342 0.891661
0.688243 0.157351 0.928435
0.828428 0.16997 0.955276
0.958328 0.184375 0.970092
0.992157 0.188235 0.973526
0.0946059 0.19118 0.930388
0.108827 0.194614 0.923858
0.240177 0.214969 0.882597
0.406485 0.209857 0.856184
0.547097 0.210788 0.887953
0.693462 0.218631 0.929717
0.832349 0.229923 0.958328
0.962249 0.245716 0.973526
0.992157 0.249516 0.977447
0.0901961 0.302449 0.965072
0.0972915 0.305882 0.964218
0.227939 0.363729 0.872053
0.347692 0.364218 0.900557
0.532357 0.337011 0.88333
0.68632 0.326299 0.922454
0.825238 0.335332 0.951476
0.950713 0.350698 0.96585
0.992157 0.356863 0.969604
0.0759747 0.437568 0.97911
0.0799878 0.441276 0.979095
0.227451 0.468803 0.945602
0.352026 0.503914 0.868315
0.47892 0.499504 0.936095
0.675166 0.451957 0.910979
0.815686 0.453071 0.942962
0.938903 0.466484 0.95227
0.992157 0.472541 0.958328
0.054902 0.582361 0.988235
0.0607919 0.582101 0.988235
0.202457 0.591669 0.986954
0.386023 0.603189 0.958083
0.526223 0.613733 0.941299
0.672557 0.590204 0.92491
0.807843 0.575189 0.93579
0.930877 0.584314 0.946563
0.988235 0.592157 0.948775
0.0352941 0.715694 0.992157
0.042649 0.712032 0.992157
0.157214 0.715694 0.992157
0.371756 0.717037 0.988235
0.544915 0.723522 0.984802
0.686702 0.718318 0.964401
0.802777 0.696071 0.931044
0.923537 0.700008 0.942672
0.988235 0.707851 0.945281
0.0392157 0.843992 0.992157
0.0465705 0.843992 0.992157
0.146532 0.842771 0.992157
0.359075 0.835828 0.989578
0.542153 0.843137 0.989578
0.689342 0.835523 0.988724
0.812131 0.826474 0.95346
0.9196 0.815686 0.942641
0.988235 0.818753 0.941787
0.0431373 0.950988 0.988724
0.073106 0.950072 0.988235
0.195224 0.946563 0.987808
0.361913 0.942641 0.98349
0.519539 0.94464 0.98024
0.66569 0.938567 0.969451
0.796506 0.933501 0.960586
0.916014 0.926162 0.946242
0.988235 0.915251 0.93138
0.0509804 1 0.966171
0.103487 0.996567 0.958831
0.237629 0.996567 0.948409
0.393439 0.996078 0.93579
0.522545 0.996078 0.929656
0.66421 0.992462 0.930877
0.79559 0.992157 0.93579
0.911269 0.992218 0.950057
0.996078 1 0.953918
0.105882 0.145098 0.952941
0.131365 0.14902 0.942153
0.269612 0.145098 0.91078
0.413733 0.14902 0.916182
0.550973 0.156863 0.947066
0.692164 0.166171 0.974014
0.828428 0.176471 0.989212
0.958328 0.188724 0.992157
0.992157 0.188235 0.992157
0.101961 0.202457 0.968627
0.123598 0.209812 0.968627
0.28481 0.218143 0.946441
0.421576 0.222065 0.932845
0.552941 0.225986 0.950988
0.696071 0.229908 0.981857
0.832715 0.235172 0.992157
0.962249 0.249577 0.992157
0.992157 0.249516 0.992157
0.0941176 0.309804 0.980392
0.108339 0.313359 0.980392
0.281376 0.326223 0.977203
0.433341 0.332235 0.968139
0.556863 0.333333 0.958328
0.688609 0.337255 0.977935
0.827451 0.341176 0.992157
0.951843 0.353063 0.996078
0.992157 0.357839 0.996078
0.0784314 0.441184 0.992157
0.087068 0.447242 0.992157
0.253437 0.451469 0.988846
0.432776 0.45687 0.996078
0.568627 0.460792 0.984802
0.681865 0.45687 0.974014
0.817151 0.45687 0.993133
0.940505 0.465202 0.996078
0.992157 0.472541 0.996078
0.0568704 0.580392 0.996078
0.0647135 0.58407 0.996078
0.214221 0.584802 0.996078
0.417395 0.584314 0.996078
0.580392 0.596078 0.996078
0.692653 0.58677 0.987503
0.806378 0.580392 0.989212
0.929168 0.584558 0.996078
0.988235 0.592157 0.996078
0.0377508 0.715694 0.996078
0.0452888 0.71519 0.996078
0.172793 0.715694 0.996078
0.401465 0.712688 0.996078
0.569116 0.723522 0.996078
0.705455 0.7196 0.996078
0.803922 0.700008 0.986404
0.923537 0.703914 0.996078
0.988235 0.707851 1
0.0392157 0.831373 0.996078
0.0479133 0.830884 0.996078
0.132357 0.835294 0.996078
0.354894 0.835294 1
0.543633 0.845106 1
0.69546 0.839216 0.997055
0.819608 0.831373 0.999268
0.918257 0.818631 0.996078
0.988235 0.822553 1
0.0431373 0.950484 1
0.0617685 0.950484 1
0.173404 0.950484 1
0.346075 0.950484 1
0.507591 0.962249 1
0.666178 0.953124 1
0.807355 0.942641 1
0.923033 0.93431 1
0.992157 0.926955 1
0.0470588 1 1
0.0926528 1 1
0.218631 1 1
0.376959 1 1
0.501961 1 1
0.638727 1 1
0.784314 1 1
0.907835 1 1
0.996078 1 1
