LUT/Custom/Pscht Blue Skies.cube
TITLE "Generated by Resolve"
#LUMIXPHOTOSTYLE NAT
LUT_3D_SIZE 9
0 0 0
0.117739 0 0
0.252201 0 0
0.392752 0 0
0.555901 0 0
0.709407 0 0
0.86479 0 0
1 0 0
1 0 0
0 0.0486458 0
0.0800183 0.0800183 0.0159457
0.258473 0.133272 0.0268406
0.421973 0.155901 0.0398871
0.589197 0.175463 0.044007
0.740505 0.181048 0.0417945
0.896178 0.190509 0.0408026
1 0.2439 0.0534676
1 0.239475 0.0484169
0 0.103944 0
0.0479438 0.133928 0.00781262
0.171771 0.171771 0.0342412
0.331304 0.219974 0.0402838
0.56109 0.301183 0.0592203
0.754147 0.345434 0.0757305
0.929229 0.379675 0.0925612
1 0.446662 0.111864
1 0.452811 0.116548
0 0.168872 0
0.0437171 0.202991 0.00331121
0.146471 0.235859 0.0246738
0.28249 0.28249 0.0563973
0.412451 0.310658 0.0559396
0.629068 0.391119 0.0728618
0.857618 0.470832 0.0916457
1 0.55729 0.112734
1 0.594247 0.128557
0 0.233845 0
0.0416266 0.270253 0
0.122713 0.303975 0.0197299
0.249378 0.33904 0.0442512
0.383932 0.383932 0.0766308
0.491096 0.39353 0.0710307
0.702174 0.48249 0.087892
0.94316 0.585504 0.109239
1 0.656733 0.126452
0 0.293721 0
0.0365148 0.331182 0
0.104311 0.368292 0.0156405
0.218784 0.398993 0.0358892
0.35137 0.440955 0.0640879
0.495415 0.495415 0.0988327
0.607614 0.513252 0.0938582
0.7888 0.581415 0.104891
1 0.662516 0.121645
0 0.378347 0
0.0502327 0.428244 0
0.122744 0.467658 0.016022
0.226474 0.49868 0.036408
0.353658 0.533486 0.0606851
0.485588 0.575357 0.0904707
0.621942 0.621942 0.124025
0.706645 0.613657 0.113313
0.863432 0.661738 0.11899
0 0.436973 0
0.0440375 0.4869 0
0.116548 0.526314 0.00979629
0.196612 0.561135 0.032166
0.320394 0.590799 0.0524605
0.448875 0.628367 0.0788739
0.581949 0.671489 0.109636
0.718074 0.718074 0.143206
0.797665 0.704753 0.131014
0 0.495033 0
0.0371252 0.544839 0
0.10959 0.584222 0.00300603
0.178347 0.621729 0.0269932
0.287816 0.650355 0.0459297
0.41323 0.683589 0.068986
0.543145 0.722988 0.0968185
0.676432 0.766629 0.128023
0.813611 0.813611 0.161929
0 0 0.0478981
0.078996 0.0133822 0.078996
0.20148 0.00767529 0.0880751
0.3579 0.00547799 0.101564
0.525032 0.00485237 0.119234
0.682307 0.00415045 0.129503
0.839796 0.00387579 0.14052
1 0.00520333 0.178561
1 0.00445563 0.180667
0.0147555 0.0792706 0.0792706
0.104128 0.104128 0.104128
0.238544 0.104219 0.104219
0.380163 0.10547 0.10547
0.541711 0.118547 0.118547
0.692607 0.124453 0.124453
0.847303 0.133364 0.133364
1 0.169879 0.169879
1 0.169787 0.169833
0.00761425 0.1337 0.0476692
0.0748913 0.159655 0.0748913
0.194934 0.194934 0.111055
0.382437 0.254948 0.130678
0.57052 0.29839 0.163256
0.721447 0.307424 0.169497
0.876188 0.318181 0.175814
1 0.361151 0.209949
1 0.357305 0.205432
0.00321965 0.202609 0.0435187
0.0653697 0.236851 0.0653697
0.179004 0.268132 0.091249
0.311696 0.311696 0.134936
0.468544 0.358343 0.137926
0.686183 0.42797 0.169772
0.889906 0.483284 0.207858
1 0.546883 0.259739
1 0.555489 0.267018
0 0.27039 0.0417182
0.0650034 0.306798 0.0650034
0.158083 0.338781 0.0859083
0.285985 0.375631 0.111788
0.417945 0.417945 0.149508
0.543511 0.441657 0.137606
0.775418 0.539193 0.178912
1 0.637049 0.237598
1 0.683314 0.266453
0 0.330983 0.0363928
0.0603647 0.36846 0.0603647
0.131243 0.404562 0.0834516
0.255818 0.435798 0.104692
0.390005 0.479576 0.13521
0.536645 0.536645 0.174517
0.666499 0.569512 0.179263
0.872084 0.652003 0.199542
1 0.728069 0.229541
0 0.428183 0.0502022
0.0819562 0.477821 0.0819562
0.154635 0.517494 0.107347
0.274769 0.546395 0.126787
0.403204 0.58294 0.152392
0.535821 0.625605 0.182788
0.672068 0.672068 0.216281
0.765759 0.671107 0.205112
0.941863 0.73135 0.209918
0 0.486839 0.044007
0.0757916 0.536507 0.0757916
0.148455 0.576181 0.101167
0.244221 0.607675 0.121645
0.369482 0.639582 0.143664
0.498787 0.678233 0.170916
0.631983 0.721538 0.201846
0.768429 0.768429 0.23566
0.854673 0.760662 0.222889
0 0.544747 0.0370642
0.0687877 0.594324 0.0687877
0.141344 0.63386 0.0940871
0.213428 0.670329 0.117449
0.336156 0.698054 0.136172
0.462516 0.732708 0.160311
0.592782 0.772595 0.188571
0.726558 0.816754 0.220157
0.863905 0.863905 0.254185
0 0 0.102632
0.0334173 0 0.135729
0.169406 0.0289616 0.169406
0.270237 0.0195621 0.166644
0.435309 0.018555 0.200275
0.60148 0.0168307 0.224353
0.766979 0.01561 0.245762
0.951293 0.0175479 0.291218
1 0.0153964 0.29958
0 0.0337072 0.135729
0.0498512 0.0498665 0.158419
0.188708 0.104265 0.188708
0.317128 0.0917067 0.202396
0.493614 0.105928 0.234241
0.655985 0.114229 0.249638
0.817456 0.124743 0.265263
1 0.161746 0.311788
1 0.162646 0.313695
0.0315251 0.169436 0.169436
0.108034 0.191989 0.191989
0.223743 0.223743 0.223743
0.369253 0.229206 0.229206
0.527794 0.244358 0.244358
0.675578 0.249424 0.249424
0.830625 0.261585 0.261585
1 0.305074 0.305074
1 0.30486 0.304845
0.0229191 0.233768 0.144228
0.0885328 0.265843 0.176516
0.204486 0.292134 0.204486
0.335088 0.335073 0.247639
0.525093 0.397101 0.26891
0.698222 0.426551 0.290593
0.859449 0.446677 0.307988
1 0.48716 0.345068
1 0.483589 0.34049
0.0191043 0.303685 0.122103
0.0848402 0.338384 0.157168
0.186206 0.364706 0.186206
0.309087 0.397482 0.220615
0.438132 0.438132 0.261448
0.588876 0.479118 0.259892
0.831083 0.574044 0.315267
1 0.648478 0.374273
1 0.66775 0.391135
0.0154879 0.367849 0.104051
0.08336 0.404517 0.131136
0.163592 0.435096 0.163592
0.2851 0.463722 0.195499
0.414771 0.503502 0.236667
0.555917 0.555917 0.288792
0.704753 0.604181 0.299672
0.92987 0.694636 0.338125
1 0.761334 0.371328
0.0160067 0.467643 0.122728
0.107271 0.517388 0.154559
0.186313 0.552758 0.186313
0.3084 0.578607 0.216587
0.433097 0.611643 0.252003
0.561135 0.650187 0.291539
0.692622 0.692622 0.334173
0.801434 0.704967 0.31548
0.995666 0.775128 0.331441
0.00968948 0.526146 0.116442
0.101106 0.576074 0.148394
0.173617 0.615488 0.173617
0.282445 0.645243 0.193225
0.406043 0.675532 0.223682
0.531548 0.710338 0.260578
0.660731 0.749813 0.30106
0.792508 0.792508 0.34406
0.891478 0.796368 0.320638
0.0028687 0.584039 0.109483
0.0940871 0.63386 0.14136
0.166552 0.673259 0.166567
0.251164 0.707027 0.188312
0.374777 0.736263 0.208225
0.501549 0.771618 0.232959
0.629679 0.809232 0.268482
0.759289 0.849226 0.309499
0.892424 0.892424 0.353124
0 0 0.159762
0.00180056 0 0.192538
0.12604 0.00326543 0.224537
0.264515 0.0453651 0.264515
0.3626 0.0354009 0.264027
0.504768 0.0317388 0.287205
0.667308 0.0302892 0.317281
0.851621 0.0324865 0.369009
1 0.0298161 0.386526
0 0.00204471 0.192981
0.00972 0.00972 0.220752
0.149233 0.0496223 0.252796
0.288991 0.112276 0.288991
0.40827 0.0999619 0.305074
0.565682 0.0986038 0.332158
0.735637 0.107332 0.360433
0.934905 0.143679 0.415946
1 0.146166 0.425605
0.00355535 0.125551 0.222553
0.0502174 0.148684 0.25095
0.165331 0.165331 0.276631
0.313649 0.226688 0.313649
0.455406 0.226871 0.340917
0.622919 0.234913 0.364309
0.791379 0.250324 0.386084
0.987488 0.295216 0.435935
1 0.29691 0.439124
0.0514229 0.275914 0.275914
0.127062 0.303853 0.303853
0.241016 0.328527 0.328527
0.367926 0.367926 0.367926
0.515496 0.373648 0.373648
0.658213 0.374212 0.374212
0.8168 0.390463 0.390463
1 0.432868 0.432868
1 0.432898 0.432898
0.0408789 0.337041 0.24683
0.107958 0.373419 0.283207
0.217929 0.395041 0.306508
0.338277 0.426017 0.338277
0.4654 0.4654 0.377798
0.649149 0.521019 0.393164
0.846052 0.574762 0.438865
1 0.613214 0.474891
1 0.610925 0.471031
0.0337377 0.397086 0.21622
0.101488 0.433356 0.252613
0.192508 0.461158 0.282139
0.312123 0.489006 0.312123
0.440192 0.528145 0.35198
0.58024 0.58024 0.403937
0.755322 0.646342 0.427451
0.988067 0.73164 0.474113
1 0.771862 0.500862
0.0348669 0.497948 0.225055
0.124697 0.545571 0.27306
0.214481 0.57731 0.306493
0.334859 0.602579 0.334859
0.458106 0.635126 0.368978
0.584817 0.673167 0.407568
0.715587 0.715587 0.449958
0.839826 0.739635 0.437705
1 0.817685 0.463844
0.031632 0.560845 0.196002
0.120684 0.607477 0.243381
0.191608 0.644633 0.280995
0.308339 0.667842 0.308339
0.42977 0.696849 0.340078
0.554208 0.731517 0.37615
0.682567 0.770977 0.416144
0.813748 0.813748 0.458915
0.922225 0.82533 0.439185
0.0268559 0.6215 0.17821
0.117388 0.67042 0.213413
0.187716 0.706874 0.250584
0.28159 0.73492 0.28159
0.401816 0.760906 0.311482
0.524407 0.79234 0.345373
0.650629 0.828779 0.383139
0.779629 0.86891 0.423835
0.912337 0.912337 0.467308
0 0 0.217594
0 0 0.249638
0.0743267 0 0.287953
0.223545 0.0215305 0.319692
0.375494 0.0644694 0.375494
0.455741 0.0514382 0.35935
0.584451 0.0460975 0.377646
0.75584 0.0474098 0.429007
0.912016 0.0447547 0.45182
0 0 0.250065
0 0 0.278584
0.0914931 0.0161746 0.313603
0.253437 0.073518 0.351888
0.408133 0.132967 0.408133
0.499672 0.116289 0.400992
0.645014 0.112734 0.428016
0.841062 0.130648 0.492256
1 0.129778 0.510491
0 0.0758526 0.288594
0.0167391 0.092958 0.313863
0.112642 0.112642 0.339712
0.272068 0.171283 0.373388
0.422507 0.244648 0.422507
0.527749 0.22388 0.426383
0.693706 0.231556 0.463004
0.898482 0.274678 0.526436
1 0.277852 0.540902
0.0250248 0.2336 0.327947
0.0819104 0.265278 0.361852
0.181888 0.28278 0.38381
0.308202 0.308202 0.42089
0.456672 0.369024 0.456672
0.582559 0.354559 0.468437
0.762173 0.374914 0.504082
0.960845 0.420356 0.556237
1 0.422965 0.561639
0.0708629 0.380652 0.380652
0.143725 0.414405 0.414405
0.256458 0.433555 0.433555
0.374701 0.462364 0.462364
0.49929 0.49929 0.49929
0.640848 0.498711 0.498711
0.808499 0.5243 0.5243
0.985168 0.558862 0.558862
1 0.55874 0.55874
0.0586099 0.434623 0.344396
0.12723 0.471824 0.381582
0.22771 0.495293 0.406119
0.345739 0.52195 0.433783
0.472084 0.559686 0.472084
0.610376 0.610376 0.522774
0.819165 0.691493 0.563409
1 0.733501 0.597955
1 0.736782 0.599512
0.0564126 0.531044 0.350301
0.147433 0.580194 0.399481
0.247242 0.608042 0.428916
0.366171 0.632547 0.45536
0.487739 0.66389 0.487739
0.61323 0.701152 0.525353
0.742733 0.742733 0.566888
0.892561 0.783764 0.565698
1 0.855497 0.598871
0.0495613 0.589456 0.318029
0.140017 0.637827 0.366583
0.219547 0.673136 0.402609
0.337667 0.694865 0.427466
0.457542 0.723003 0.457542
0.580972 0.757244 0.49276
0.708247 0.79617 0.532021
0.838514 0.838514 0.574258
0.962676 0.86183 0.560983
0.0442817 0.64979 0.286381
0.133806 0.697169 0.334188
0.205158 0.734874 0.372183
0.309392 0.759503 0.399863
0.428122 0.784787 0.428122
0.549798 0.816022 0.461173
0.675044 0.85214 0.498192
0.803006 0.891783 0.538155
0.935286 0.935286 0.581567
0 0 0.277241
0 0 0.310002
0.0396429 0 0.351675
0.182757 0 0.387457
0.335439 0.0420233 0.430365
0.476478 0.0817884 0.476478
0.555917 0.068864 0.461036
0.694301 0.0653391 0.495094
0.827482 0.0603037 0.51104
0 0 0.310903
0 0 0.341299
0.044419 0 0.381308
0.20827 0.0419471 0.419257
0.370535 0.103914 0.466606
0.513359 0.148608 0.513359
0.600717 0.139849 0.504585
0.76228 0.151934 0.555764
0.907256 0.143877 0.575174
0 0.0419471 0.355596
0 0.0460517 0.384756
0.0670634 0.0670634 0.414435
0.227192 0.117876 0.446601
0.387625 0.195575 0.483787
0.523568 0.253483 0.523568
0.626612 0.238422 0.5299
0.802777 0.264942 0.588983
0.960204 0.261555 0.61236
0 0.190158 0.391943
0.0463417 0.215915 0.424353
0.123491 0.232319 0.450568
0.253452 0.253452 0.480018
0.410117 0.309422 0.510948
0.545815 0.369192 0.545815
0.662989 0.361685 0.562585
0.857053 0.398047 0.628046
1 0.40087 0.649592
0.0455482 0.336858 0.429969
0.108751 0.371893 0.466056
0.201892 0.392309 0.487602
0.312062 0.412619 0.513344
0.437736 0.437736 0.550439
0.580682 0.492958 0.580682
0.732326 0.504616 0.618402
0.928725 0.542031 0.670985
1 0.545739 0.680674
0.0894026 0.48011 0.48011
0.158907 0.518044 0.518044
0.268803 0.536507 0.536507
0.385672 0.56199 0.56199
0.510063 0.597635 0.597635
0.646342 0.646342 0.646342
0.813001 0.671061 0.671061
0.968261 0.684138 0.684138
1 0.683955 0.683955
0.0835279 0.57116 0.480751
0.175113 0.620996 0.530571
0.284123 0.644144 0.554742
0.401923 0.667857 0.579385
0.522057 0.697902 0.609949
0.646067 0.733791 0.646067
0.774044 0.774044 0.686336
0.957305 0.829725 0.701839
1 0.857801 0.722271
0.073106 0.62504 0.444526
0.164385 0.674449 0.49395
0.254047 0.705837 0.526253
0.371054 0.727047 0.549432
0.489738 0.754345 0.577981
0.611887 0.787594 0.611887
0.737911 0.825528 0.650065
0.866758 0.866758 0.691249
1 0.907393 0.689326
0.0645609 0.681285 0.409705
0.155138 0.729946 0.458473
0.227207 0.768566 0.497154
0.340795 0.788815 0.520256
0.458442 0.813565 0.547143
0.579004 0.844099 0.579004
0.703166 0.879515 0.615076
0.830701 0.919127 0.654902
0.961517 0.961517 0.697185
0 0 0.345403
0 0 0.382422
0.0205539 0 0.424048
0.14229 0 0.46247
0.293629 0.0138705 0.492119
0.433555 0.0598459 0.527703
0.58616 0.100664 0.58616
0.681697 0.0906691 0.587655
0.7794 0.0799878 0.583047
0 0 0.383017
0 0 0.417075
0.0260471 0 0.45626
0.163882 0.0157321 0.493294
0.324575 0.0710613 0.527245
0.469413 0.123964 0.564126
0.627359 0.174899 0.627359
0.735576 0.180499 0.640696
0.842863 0.167773 0.641688
0 0.0212711 0.425086
0 0.0264744 0.457069
0.038117 0.038117 0.491081
0.182788 0.0691386 0.523323
0.345678 0.137301 0.55404
0.490379 0.206928 0.584756
0.640864 0.277104 0.640864
0.758648 0.281788 0.663981
0.88249 0.263203 0.67686
0 0.142916 0.461295
0.0158389 0.164324 0.491661
0.0694438 0.182406 0.521126
0.201144 0.201144 0.544106
0.355734 0.247547 0.572198
0.505623 0.316091 0.600305
0.6607 0.393713 0.6607
0.782696 0.399939 0.687327
0.920653 0.3879 0.707683
0.0144808 0.291096 0.486366
0.0716259 0.321538 0.52105
0.137881 0.343938 0.550027
0.24828 0.356176 0.572198
0.378576 0.378576 0.604425
0.53228 0.4318 0.632578
0.69752 0.521462 0.69752
0.824628 0.525154 0.724956
0.979706 0.521706 0.750561
0.0658579 0.440452 0.532769
0.134508 0.478325 0.571221
0.223301 0.503075 0.596231
0.334646 0.523537 0.617868
0.451408 0.551858 0.652125
0.588373 0.588373 0.701076
0.754894 0.66717 0.754894
0.889616 0.662333 0.77612
1 0.66656 0.795544
0.114778 0.616342 0.616342
0.206394 0.666163 0.666163
0.324453 0.68452 0.68452
0.441459 0.707561 0.707561
0.560372 0.736294 0.736294
0.682887 0.770596 0.770596
0.809247 0.809247 0.809247
0.951034 0.80914 0.80914
1 0.80914 0.80914
0.101213 0.666377 0.576181
0.192721 0.716014 0.625803
0.291966 0.743008 0.653483
0.408057 0.763684 0.675074
0.525826 0.790173 0.70219
0.646723 0.822217 0.734585
0.771298 0.858793 0.771298
0.898894 0.898894 0.811414
1 0.954253 0.826474
0.0895399 0.718685 0.537758
0.180575 0.76788 0.586969
0.260121 0.803983 0.623392
0.375708 0.822629 0.643961
0.492454 0.846784 0.669505
0.611948 0.876463 0.700053
0.73489 0.910826 0.73489
0.861372 0.949569 0.7738
0.991089 0.991089 0.815274
0 0 0.405203
0 0 0.442679
0 0 0.483345
0.0906844 0 0.526558
0.243687 0 0.553979
0.389624 0.032105 0.584588
0.552697 0.0810407 0.64654
0.712917 0.122469 0.712917
0.775418 0.106706 0.681086
0 0 0.442817
0 0 0.477775
0.000549325 0 0.516075
0.106493 0 0.556435
0.269459 0.0364996 0.586877
0.422553 0.0915694 0.620157
0.595865 0.158175 0.690074
0.76318 0.213611 0.76318
0.828321 0.196857 0.733425
0 0 0.483467
0 0.000518807 0.51606
0.013489 0.013489 0.550301
0.125093 0.0403906 0.585367
0.29131 0.0863203 0.61883
0.452537 0.149798 0.654307
0.620401 0.244053 0.714122
0.776837 0.319142 0.776837
0.856229 0.287465 0.761471
0 0.0907912 0.526757
0 0.106203 0.555444
0.0398566 0.124315 0.583413
0.146624 0.146624 0.608438
0.300282 0.188632 0.635737
0.461326 0.256458 0.666178
0.635019 0.356176 0.727657
0.791714 0.433478 0.791714
0.872419 0.402106 0.778088
0 0.241749 0.548699
0.0359808 0.267201 0.581201
0.0858625 0.288838 0.613138
0.188968 0.300282 0.634714
0.323049 0.323049 0.663722
0.487816 0.380301 0.702983
0.665019 0.476692 0.759197
0.816526 0.551369 0.816526
0.902388 0.521477 0.806775
0.0378424 0.406653 0.597421
0.106798 0.444572 0.638285
0.174563 0.472923 0.670787
0.283146 0.486931 0.690288
0.39942 0.506935 0.721813
0.539681 0.539681 0.765209
0.712047 0.611841 0.812406
0.850202 0.67454 0.850202
0.948196 0.648417 0.847883
0.0913863 0.572839 0.664393
0.180575 0.62182 0.713771
0.276921 0.647593 0.739406
0.389578 0.666575 0.75848
0.503273 0.691234 0.785
0.618982 0.719326 0.819409
0.747509 0.747509 0.859953
0.890028 0.802533 0.890028
1 0.787045 0.900725
0.132647 0.711772 0.711772
0.224247 0.761532 0.761532
0.332601 0.783612 0.783612
0.44802 0.803845 0.803845
0.565057 0.829587 0.829587
0.68484 0.860395 0.860395
0.808026 0.895506 0.895506
0.934279 0.934279 0.934279
1 0.933639 0.933639
0.118288 0.7608 0.669932
0.209567 0.810315 0.719448
0.29868 0.841764 0.751278
0.413535 0.860105 0.770535
0.529641 0.883787 0.794873
0.648173 0.91252 0.824063
0.769802 0.945586 0.857374
0.895262 0.983368 0.895262
1 1 0.935683
0 0 0.477195
0 0 0.52105
0 0 0.563577
0.0779431 0 0.607645
0.217563 0 0.642344
0.373953 0.00810254 0.675578
0.529549 0.0580911 0.721996
0.669841 0.101686 0.763882
0.808927 0.138918 0.808927
0 0 0.521431
0 0 0.562417
0 0 0.602441
0.083299 0 0.645808
0.244923 0.0198367 0.680125
0.410803 0.0774853 0.718547
0.576059 0.141238 0.770657
0.7196 0.191119 0.813901
0.859236 0.230121 0.859236
0 0 0.56405
0 0 0.602655
0.00349432 0.00349432 0.639033
0.0976577 0.0309453 0.677775
0.265904 0.0723735 0.712764
0.438972 0.132891 0.754788
0.607477 0.211688 0.804318
0.746273 0.276829 0.840116
0.878996 0.326452 0.878996
0 0.0792096 0.609537
0 0.0843366 0.647639
0.0313115 0.0986648 0.678248
0.124727 0.124727 0.706523
0.28043 0.166232 0.735302
0.448402 0.233356 0.770489
0.616388 0.319966 0.813931
0.756664 0.387549 0.849271
0.889799 0.438819 0.889799
0 0.220859 0.642344
0.0215763 0.248478 0.680354
0.0744793 0.269184 0.712917
0.170001 0.283619 0.737102
0.307301 0.307301 0.764431
0.466957 0.356054 0.799313
0.634974 0.432151 0.838056
0.776959 0.500862 0.86949
0.910124 0.554238 0.910109
0.0106355 0.382605 0.679118
0.0856184 0.421912 0.724956
0.141833 0.450034 0.76144
0.247349 0.461082 0.780896
0.365789 0.476539 0.808377
0.502998 0.502998 0.842878
0.658167 0.550774 0.873167
0.806165 0.618433 0.900557
0.93901 0.674113 0.93901
0.0622416 0.528603 0.717174
0.146563 0.575021 0.765789
0.218265 0.607263 0.800626
0.327001 0.62121 0.817151
0.437095 0.639414 0.841993
0.553002 0.660349 0.875257
0.686473 0.686473 0.912383
0.839841 0.739681 0.940688
0.974609 0.798718 0.974609
0.109499 0.667872 0.759838
0.199298 0.717083 0.809308
0.286564 0.747585 0.83975
0.398917 0.764691 0.856458
0.511971 0.787076 0.879286
0.626551 0.814099 0.908415
0.743145 0.84329 0.944121
0.871946 0.871946 0.985168
1 0.926711 1
0.150072 0.806653 0.806653
0.241428 0.85626 0.85626
0.339788 0.882719 0.882719
0.454261 0.900999 0.900999
0.569757 0.924132 0.924117
0.687419 0.951934 0.951934
0.808576 0.984421 0.984421
0.932265 1 1
1 1 1
