LUT/Custom/PSCHT_Canteen_Special_GTX_33.cube
TITLE "Generated by Resolve"
#Author: Petr Schreiber
#LUMIXPHOTOSTYLE NAT
LUT_3D_SIZE 5
0.0156863 0.0156863 0.0156863
0.186267 0.0382391 0.0392157
0.513726 0.0823529 0.0588235
0.74902 0.138231 0.0911727
0.956863 0.188235 0.113725
0.0500038 0.226474 0.127459
0.274266 0.242161 0.126955
0.570092 0.264698 0.107851
0.777447 0.220829 0.102693
0.952941 0.188235 0.113725
0.0901961 0.494118 0.239216
0.121569 0.495583 0.199023
0.564706 0.54902 0.203922
0.847059 0.564706 0.153918
0.988235 0.552941 0.14902
0.114702 0.708827 0.287251
0.151965 0.705638 0.25098
0.436271 0.763729 0.220584
0.804654 0.807111 0.19118
0.988235 0.815686 0.175494
0.145098 0.886275 0.321569
0.205875 0.886275 0.301961
0.44509 0.923537 0.286275
0.707851 0.973526 0.234318
0.996078 1 0.247059
0.0196078 0.0235294 0.227451
0.188479 0.0431373 0.293141
0.528435 0.0843214 0.282353
0.751965 0.138231 0.253193
0.956863 0.192157 0.218631
0.0267185 0.264958 0.344121
0.189212 0.276722 0.330144
0.513726 0.276722 0.263355
0.756313 0.258213 0.236576
0.952941 0.193378 0.199023
0.0749981 0.517159 0.357839
0.284932 0.52108 0.442161
0.57966 0.546807 0.364462
0.839216 0.564706 0.327947
0.984802 0.504906 0.233829
0.106126 0.73138 0.405875
0.31133 0.733089 0.441794
0.4804 0.761761 0.4
0.806867 0.803922 0.380941
0.988235 0.813474 0.329412
0.141176 0.908827 0.455879
0.314946 0.91986 0.455879
0.480888 0.932845 0.422065
0.721569 0.981369 0.411032
0.996078 1 0.400977
0.0431373 0.0568704 0.505882
0.188724 0.0725414 0.520592
0.547066 0.0931411 0.576471
0.817655 0.149996 0.587747
0.982361 0.192157 0.533333
0.0509804 0.26569 0.642161
0.148043 0.318624 0.540566
0.551232 0.284062 0.581857
0.805386 0.311894 0.570596
0.979904 0.207355 0.513726
0.0205844 0.574502 0.636271
0.222309 0.57966 0.679896
0.541665 0.564218 0.592157
0.777447 0.548531 0.539223
0.970581 0.504906 0.477455
0.0612802 0.773526 0.58677
0.281254 0.762737 0.612863
0.556374 0.762997 0.616175
0.802945 0.804288 0.607843
0.988235 0.811765 0.59559
0.103914 0.94313 0.629404
0.311269 0.945098 0.637263
0.569604 0.945098 0.649012
0.737743 0.964218 0.645106
0.996078 1 0.619608
0.0754864 0.105882 0.769604
0.219608 0.11078 0.736278
0.541176 0.126467 0.797055
0.828428 0.156863 0.847791
0.992157 0.188235 0.866667
0.0784314 0.290196 0.871809
0.185901 0.355154 0.748348
0.53431 0.315312 0.789578
0.827451 0.327764 0.847242
0.992157 0.356863 0.855879
0.049012 0.582361 0.963241
0.183703 0.592157 0.913237
0.53872 0.596567 0.841184
0.809812 0.572549 0.831373
0.988235 0.581857 0.826474
0.027451 0.831373 0.883085
0.186465 0.83064 0.890196
0.53872 0.823529 0.867155
0.800732 0.81416 0.838422
0.983581 0.782101 0.792401
0.0666667 0.984314 0.823529
0.276463 0.981369 0.818875
0.555886 0.965682 0.822553
0.802213 0.980392 0.853925
0.996078 1 0.853925
0.105882 0.145098 0.952941
0.269612 0.145098 0.91078
0.550973 0.156863 0.947066
0.828428 0.176471 0.989212
0.992157 0.188235 0.992157
0.0941176 0.309804 0.980392
0.281376 0.326223 0.977203
0.556863 0.333333 0.958328
0.827451 0.341176 0.992157
0.992157 0.357839 0.996078
0.0568704 0.580392 0.996078
0.214221 0.584802 0.996078
0.580392 0.596078 0.996078
0.806378 0.580392 0.989212
0.988235 0.592157 0.996078
0.0392157 0.831373 0.996078
0.132357 0.835294 0.996078
0.543633 0.845106 1
0.819608 0.831373 0.999268
0.988235 0.822553 1
0.0470588 1 1
0.218631 1 1
0.501961 1 1
0.784314 1 1
0.996078 1 1
