LUT/Custom/Pscht Cloudy BWR.cube
TITLE "Generated by Resolve"
#LUMIXPHOTOSTYLE NAT
LUT_3D_SIZE 9
0 0 0
0.117739 0 0
0.252201 0 0
0.392752 0 0
0.555901 0 0
0.709407 0 0
0.86479 0 0
1 0 0
1 0 0
0 0.0486458 0
0.0800183 0.0800183 0.0159457
0.258473 0.133272 0.0268406
0.421973 0.155901 0.0398871
0.589197 0.175463 0.044007
0.740505 0.181048 0.0417945
0.896178 0.190509 0.0408026
1 0.2439 0.0534676
1 0.239475 0.0484169
0 0.103944 0
0.0479438 0.133928 0.00781262
0.171771 0.171771 0.0342412
0.331304 0.219974 0.0402838
0.56109 0.301183 0.0592203
0.754147 0.345434 0.0757305
0.929229 0.379675 0.0925612
1 0.446662 0.111864
1 0.452811 0.116548
0 0.168872 0
0.0437171 0.202991 0.00331121
0.146471 0.235859 0.0246738
0.28249 0.28249 0.0563973
0.412451 0.310658 0.0559396
0.629068 0.391119 0.0728618
0.857618 0.470832 0.0916457
1 0.55729 0.112734
1 0.594247 0.128557
0 0.233845 0
0.0416266 0.270253 0
0.122713 0.303975 0.0197299
0.249378 0.33904 0.0442512
0.383932 0.383932 0.0766308
0.491096 0.39353 0.0710307
0.702174 0.48249 0.087892
0.94316 0.585504 0.109239
1 0.656733 0.126452
0 0.293721 0
0.0365148 0.331182 0
0.104311 0.368292 0.0156405
0.218784 0.398993 0.0358892
0.35137 0.440955 0.0640879
0.495415 0.495415 0.0988327
0.607614 0.513252 0.0938582
0.7888 0.581415 0.104891
1 0.662516 0.121645
0 0.378347 0
0.0502327 0.428244 0
0.122744 0.467658 0.016022
0.226474 0.49868 0.036408
0.353658 0.533486 0.0606851
0.485588 0.575357 0.0904707
0.621942 0.621942 0.124025
0.706645 0.613657 0.113313
0.863432 0.661738 0.11899
0 0.436973 0
0.0440375 0.4869 0
0.116548 0.526314 0.00979629
0.196612 0.561135 0.032166
0.320394 0.590799 0.0524605
0.448875 0.628367 0.0788739
0.581949 0.671489 0.109636
0.718074 0.718074 0.143206
0.797665 0.704753 0.131014
0 0.495033 0
0.0371252 0.544839 0
0.10959 0.584222 0.00300603
0.178347 0.621729 0.0269932
0.287816 0.650355 0.0459297
0.41323 0.683589 0.068986
0.543145 0.722988 0.0968185
0.676432 0.766629 0.128023
0.813611 0.813611 0.161929
0 0 0.0504005
0.078996 0.0133822 0.078996
0.20148 0.00767529 0.0880751
0.3579 0.00547799 0.101564
0.525032 0.00485237 0.119234
0.682307 0.00415045 0.129503
0.839796 0.00387579 0.14052
1 0.00520333 0.178561
1 0.00445563 0.180667
0.0147555 0.0792706 0.0792706
0.104128 0.104128 0.104128
0.238544 0.104219 0.104219
0.380163 0.10547 0.10547
0.541711 0.118547 0.118547
0.692607 0.124453 0.124453
0.847303 0.133364 0.133364
1 0.169879 0.169879
1 0.169787 0.169833
0.00761425 0.1337 0.0476692
0.0748913 0.159655 0.0748913
0.194934 0.194934 0.111055
0.382437 0.254948 0.130678
0.57052 0.29839 0.163256
0.721447 0.307424 0.169497
0.876188 0.318181 0.175814
1 0.361151 0.209949
1 0.357305 0.205432
0.00321965 0.202609 0.0435187
0.0653697 0.236851 0.0653697
0.179004 0.268132 0.091249
0.311696 0.311696 0.134936
0.468544 0.358343 0.137926
0.686183 0.42797 0.169772
0.889906 0.483284 0.207858
1 0.546883 0.259739
1 0.555489 0.267018
0 0.27039 0.0417182
0.0650034 0.306798 0.0650034
0.158083 0.338781 0.0859083
0.285985 0.375631 0.111788
0.417945 0.417945 0.149508
0.543511 0.441657 0.137606
0.775418 0.539193 0.178912
1 0.637049 0.237598
1 0.683314 0.266453
0 0.330983 0.0363928
0.0603647 0.36846 0.0603647
0.131243 0.404562 0.0834516
0.255818 0.435798 0.104692
0.390005 0.479576 0.13521
0.536645 0.536645 0.174517
0.666499 0.569512 0.179263
0.872084 0.652003 0.199542
1 0.728069 0.229541
0 0.428183 0.0502022
0.0819562 0.477821 0.0819562
0.154635 0.517494 0.107347
0.274769 0.546395 0.126787
0.403204 0.58294 0.152392
0.535821 0.625605 0.182788
0.672068 0.672068 0.216281
0.765759 0.671107 0.205112
0.941863 0.73135 0.209918
0 0.486839 0.044007
0.0757916 0.536507 0.0757916
0.148455 0.576181 0.101167
0.244221 0.607675 0.121645
0.369482 0.639582 0.143664
0.498787 0.678233 0.170916
0.631983 0.721538 0.201846
0.768429 0.768429 0.23566
0.854673 0.760662 0.222889
0 0.544747 0.0370642
0.0687877 0.594324 0.0687877
0.141344 0.63386 0.0940871
0.213428 0.670329 0.117449
0.336156 0.698054 0.136172
0.462516 0.732708 0.160311
0.592782 0.772595 0.188571
0.726558 0.816754 0.220157
0.863905 0.863905 0.254185
0 0 0.107988
0.0471962 0.00694286 0.138384
0.169406 0.0289616 0.169406
0.270237 0.0195621 0.166644
0.435309 0.018555 0.200275
0.60148 0.0168307 0.224353
0.766979 0.01561 0.245762
0.951293 0.0175479 0.291218
1 0.0153964 0.29958
0.00698863 0.0474098 0.138216
0.0717021 0.0717021 0.15903
0.188708 0.104265 0.188708
0.317128 0.0917067 0.202396
0.493614 0.105928 0.234241
0.655985 0.114229 0.249638
0.817456 0.124743 0.265263
1 0.161746 0.311788
1 0.162646 0.313695
0.0315251 0.169436 0.169436
0.108034 0.191989 0.191989
0.223743 0.223743 0.223743
0.369253 0.229206 0.229206
0.527794 0.244358 0.244358
0.675578 0.249424 0.249424
0.830625 0.261585 0.261585
1 0.305074 0.305074
1 0.30486 0.304845
0.0229191 0.233768 0.144228
0.0885328 0.265843 0.176516
0.204486 0.292134 0.204486
0.335088 0.335073 0.247639
0.525093 0.397101 0.26891
0.698222 0.426551 0.290593
0.859449 0.446677 0.307988
1 0.48716 0.345068
1 0.483589 0.34049
0.0191043 0.303685 0.122103
0.0848402 0.338384 0.157168
0.186206 0.364706 0.186206
0.309087 0.397482 0.220615
0.438132 0.438132 0.261448
0.588876 0.479118 0.259892
0.831083 0.574044 0.315267
1 0.648478 0.374273
1 0.66775 0.391135
0.0154879 0.367849 0.104051
0.08336 0.404517 0.131136
0.163592 0.435096 0.163592
0.2851 0.463722 0.195499
0.414771 0.503502 0.236667
0.555917 0.555917 0.288792
0.704753 0.604181 0.299672
0.92987 0.694636 0.338125
1 0.761334 0.371328
0.0160067 0.467643 0.122728
0.107271 0.517388 0.154559
0.186313 0.552758 0.186313
0.3084 0.578607 0.216587
0.433097 0.611643 0.252003
0.561135 0.650187 0.291539
0.692622 0.692622 0.334173
0.801434 0.704967 0.31548
0.995666 0.775128 0.331441
0.00968948 0.526146 0.116442
0.101106 0.576074 0.148394
0.173617 0.615488 0.173617
0.282445 0.645243 0.193225
0.406043 0.675532 0.223682
0.531548 0.710338 0.260578
0.660731 0.749813 0.30106
0.792508 0.792508 0.34406
0.891478 0.796368 0.320638
0.0028687 0.584039 0.109483
0.0940871 0.63386 0.14136
0.166552 0.673259 0.166567
0.251164 0.707027 0.188312
0.374777 0.736263 0.208225
0.501549 0.771618 0.232959
0.629679 0.809232 0.268482
0.759289 0.849226 0.309499
0.892424 0.892424 0.353124
0 0 0.168093
0.0381323 0.00169375 0.199954
0.13254 0.0175784 0.225177
0.264515 0.0453651 0.264515
0.3626 0.0354009 0.264027
0.504768 0.0317388 0.287205
0.667308 0.0302892 0.317281
0.851621 0.0324865 0.369009
1 0.0298161 0.386526
0.00196841 0.038407 0.200427
0.0579232 0.0579232 0.232273
0.162219 0.073579 0.254368
0.288991 0.112276 0.288991
0.40827 0.0999619 0.305074
0.565682 0.0986038 0.332158
0.735637 0.107332 0.360433
0.934905 0.143679 0.415946
1 0.146166 0.425605
0.0179294 0.131991 0.22298
0.0744488 0.161563 0.252049
0.183337 0.183337 0.270588
0.313649 0.226688 0.313649
0.455406 0.226871 0.340917
0.622919 0.234913 0.364309
0.791379 0.250324 0.386084
0.987488 0.295216 0.435935
1 0.29691 0.439124
0.0514229 0.275914 0.275914
0.127062 0.303853 0.303853
0.241016 0.328527 0.328527
0.367926 0.367926 0.367926
0.515496 0.373648 0.373648
0.658213 0.374212 0.374212
0.8168 0.390463 0.390463
1 0.432868 0.432868
1 0.432898 0.432898
0.0408789 0.337041 0.24683
0.107958 0.373419 0.283207
0.217929 0.395041 0.306508
0.338277 0.426017 0.338277
0.4654 0.4654 0.377798
0.649149 0.521019 0.393164
0.846052 0.574762 0.438865
1 0.613214 0.474891
1 0.610925 0.471031
0.0337377 0.397086 0.21622
0.101488 0.433356 0.252613
0.192508 0.461158 0.282139
0.312123 0.489006 0.312123
0.440192 0.528145 0.35198
0.58024 0.58024 0.403937
0.755322 0.646342 0.427451
0.988067 0.73164 0.474113
1 0.771862 0.500862
0.0348669 0.497948 0.225055
0.124697 0.545571 0.27306
0.214481 0.57731 0.306493
0.334859 0.602579 0.334859
0.458106 0.635126 0.368978
0.584817 0.673167 0.407568
0.715587 0.715587 0.449958
0.839826 0.739635 0.437705
1 0.817685 0.463844
0.031632 0.560845 0.196002
0.120684 0.607477 0.243381
0.191608 0.644633 0.280995
0.308339 0.667842 0.308339
0.42977 0.696849 0.340078
0.554208 0.731517 0.37615
0.682567 0.770977 0.416144
0.813748 0.813748 0.458915
0.922225 0.82533 0.439185
0.0268559 0.6215 0.17821
0.117388 0.67042 0.213413
0.187716 0.706874 0.250584
0.28159 0.73492 0.28159
0.401816 0.760906 0.311482
0.524407 0.79234 0.345373
0.650629 0.828779 0.383139
0.779629 0.86891 0.423835
0.912337 0.912337 0.467308
0 0 0.228962
0.0318608 0 0.260822
0.102617 0.0151217 0.293278
0.2271 0.032166 0.320027
0.375494 0.0644694 0.375494
0.455741 0.0514382 0.35935
0.584451 0.0460975 0.377646
0.75584 0.0474098 0.429007
0.912016 0.0447547 0.45182
0 0.0321355 0.261265
0.0516518 0.0516518 0.293126
0.132097 0.068864 0.321553
0.259663 0.0898146 0.352651
0.408133 0.132967 0.408133
0.499672 0.116289 0.400992
0.645014 0.112734 0.428016
0.841062 0.130648 0.492256
1 0.129778 0.510491
0.0149996 0.103792 0.293446
0.0691997 0.133028 0.320638
0.157778 0.157778 0.340047
0.280644 0.191867 0.369879
0.422507 0.244648 0.422507
0.527749 0.22388 0.426383
0.693706 0.231556 0.463004
0.898482 0.274678 0.526436
1 0.277852 0.540902
0.0355535 0.237003 0.328237
0.0986191 0.271489 0.36257
0.203525 0.292256 0.381109
0.324681 0.324681 0.412573
0.456672 0.369024 0.456672
0.582559 0.354559 0.468437
0.762173 0.374914 0.504082
0.960845 0.420356 0.556237
1 0.422965 0.561639
0.0708629 0.380652 0.380652
0.143725 0.414405 0.414405
0.256458 0.433555 0.433555
0.374701 0.462364 0.462364
0.49929 0.49929 0.49929
0.640848 0.498711 0.498711
0.808499 0.5243 0.5243
0.985168 0.558862 0.558862
1 0.55874 0.55874
0.0586099 0.434623 0.344396
0.12723 0.471824 0.381582
0.22771 0.495293 0.406119
0.345739 0.52195 0.433783
0.472084 0.559686 0.472084
0.610376 0.610376 0.522774
0.819165 0.691493 0.563409
1 0.733501 0.597955
1 0.736782 0.599512
0.0564126 0.531044 0.350301
0.147433 0.580194 0.399481
0.247242 0.608042 0.428916
0.366171 0.632547 0.45536
0.487739 0.66389 0.487739
0.61323 0.701152 0.525353
0.742733 0.742733 0.566888
0.892561 0.783764 0.565698
1 0.855497 0.598871
0.0495613 0.589456 0.318029
0.140017 0.637827 0.366583
0.219547 0.673136 0.402609
0.337667 0.694865 0.427466
0.457542 0.723003 0.457542
0.580972 0.757244 0.49276
0.708247 0.79617 0.532021
0.838514 0.838514 0.574258
0.962676 0.86183 0.560983
0.0442817 0.64979 0.286381
0.133806 0.697169 0.334188
0.205158 0.734874 0.372183
0.309392 0.759503 0.399863
0.428122 0.784787 0.428122
0.549798 0.816022 0.461173
0.675044 0.85214 0.498192
0.803006 0.891783 0.538155
0.935286 0.935286 0.581567
0 0 0.291707
0.0268559 0 0.324712
0.0918288 0.0120089 0.362676
0.200381 0.0262913 0.389578
0.337575 0.0501259 0.430625
0.476478 0.0817884 0.476478
0.555917 0.068864 0.461036
0.694301 0.0653391 0.495094
0.827482 0.0603037 0.51104
0 0.0272831 0.325643
0.0477455 0.0477455 0.359121
0.113313 0.0711681 0.397772
0.234165 0.0862745 0.422736
0.374029 0.115709 0.467124
0.513359 0.148608 0.513359
0.600717 0.139849 0.504585
0.76228 0.151934 0.555764
0.907256 0.143877 0.575174
0.0126802 0.0939956 0.366583
0.0729076 0.115267 0.401343
0.144121 0.144121 0.429755
0.262394 0.170535 0.446769
0.391882 0.210895 0.482521
0.523568 0.253483 0.523568
0.626612 0.238422 0.5299
0.802777 0.264942 0.588983
0.960204 0.261555 0.61236
0.0272831 0.207019 0.393362
0.0909285 0.241291 0.426764
0.176593 0.267567 0.450019
0.292195 0.292195 0.470542
0.416785 0.32842 0.505241
0.545815 0.369192 0.545815
0.662989 0.361685 0.562585
0.857053 0.398047 0.628046
1 0.40087 0.649592
0.0538186 0.339055 0.430274
0.120912 0.375509 0.466651
0.218112 0.397314 0.487007
0.332555 0.420737 0.509071
0.453513 0.453513 0.541299
0.580682 0.492958 0.580682
0.732326 0.504616 0.618402
0.928725 0.542031 0.670985
1 0.545739 0.680674
0.0894026 0.48011 0.48011
0.158907 0.518044 0.518044
0.268803 0.536507 0.536507
0.385672 0.56199 0.56199
0.510063 0.597635 0.597635
0.646342 0.646342 0.646342
0.813001 0.671061 0.671061
0.968261 0.684138 0.684138
1 0.683955 0.683955
0.0835279 0.57116 0.480751
0.175113 0.620996 0.530571
0.284123 0.644144 0.554742
0.401923 0.667857 0.579385
0.522057 0.697902 0.609949
0.646067 0.733791 0.646067
0.774044 0.774044 0.686336
0.957305 0.829725 0.701839
1 0.857801 0.722271
0.073106 0.62504 0.444526
0.164385 0.674449 0.49395
0.254047 0.705837 0.526253
0.371054 0.727047 0.549432
0.489738 0.754345 0.577981
0.611887 0.787594 0.611887
0.737911 0.825528 0.650065
0.866758 0.866758 0.691249
1 0.907393 0.689326
0.0645609 0.681285 0.409705
0.155138 0.729946 0.458473
0.227207 0.768566 0.497154
0.340795 0.788815 0.520256
0.458442 0.813565 0.547143
0.579004 0.844099 0.579004
0.703166 0.879515 0.615076
0.830701 0.919127 0.654902
0.961517 0.961517 0.697185
0 0 0.363439
0.0272831 0 0.40087
0.0942397 0.00802625 0.439292
0.18143 0.0255436 0.469184
0.305211 0.0411536 0.493202
0.43505 0.0665141 0.527962
0.58616 0.100664 0.58616
0.681697 0.0906691 0.587655
0.7794 0.0799878 0.583047
0 0.0276188 0.401495
0.0505074 0.0505074 0.438849
0.117586 0.0740978 0.477348
0.216083 0.0891737 0.502571
0.341451 0.107286 0.529107
0.471672 0.133043 0.564538
0.627359 0.174899 0.627359
0.735576 0.180499 0.640696
0.842863 0.167773 0.641688
0.00828565 0.0948959 0.44033
0.0745403 0.11809 0.478187
0.14168 0.14168 0.516716
0.250751 0.155657 0.535729
0.369543 0.18407 0.555001
0.493156 0.218738 0.584527
0.640864 0.277104 0.640864
0.758648 0.281788 0.663981
0.88249 0.263203 0.67686
0.0248722 0.181598 0.467185
0.0889906 0.215885 0.499397
0.155566 0.249454 0.531014
0.267445 0.267445 0.541497
0.38468 0.294911 0.564279
0.508614 0.330312 0.597681
0.6607 0.393713 0.6607
0.782696 0.399939 0.687327
0.920653 0.3879 0.707683
0.0419928 0.302647 0.487114
0.108232 0.338354 0.522377
0.185595 0.36817 0.550759
0.297246 0.386603 0.565484
0.414328 0.414328 0.591104
0.538064 0.449973 0.625971
0.69752 0.521462 0.69752
0.824628 0.525154 0.724956
0.979706 0.521706 0.750561
0.0726329 0.442008 0.533059
0.143954 0.480735 0.57174
0.235721 0.506264 0.596353
0.350042 0.527611 0.616281
0.471122 0.559167 0.647044
0.603708 0.603708 0.691432
0.754894 0.66717 0.754894
0.889616 0.662333 0.77612
1 0.66656 0.795544
0.114778 0.616342 0.616342
0.206394 0.666163 0.666163
0.324453 0.68452 0.68452
0.441459 0.707561 0.707561
0.560372 0.736294 0.736294
0.682887 0.770596 0.770596
0.809247 0.809247 0.809247
0.951034 0.80914 0.80914
1 0.80914 0.80914
0.101213 0.666377 0.576181
0.192721 0.716014 0.625803
0.291966 0.743008 0.653483
0.408057 0.763684 0.675074
0.525826 0.790173 0.70219
0.646723 0.822217 0.734585
0.771298 0.858793 0.771298
0.898894 0.898894 0.811414
1 0.954253 0.826474
0.0895399 0.718685 0.537758
0.180575 0.76788 0.586969
0.260121 0.803983 0.623392
0.375708 0.822629 0.643961
0.492454 0.846784 0.669505
0.611948 0.876463 0.700053
0.73489 0.910826 0.73489
0.861372 0.949569 0.7738
0.991089 0.991089 0.815274
0 0 0.426368
0.0221561 0 0.464469
0.0892348 0.00205997 0.502647
0.156252 0.0253147 0.540551
0.272633 0.0359655 0.557717
0.398108 0.0554818 0.585351
0.55378 0.0865187 0.646769
0.712917 0.122469 0.712917
0.775418 0.106706 0.681086
0 0.0222477 0.464622
0.045594 0.045594 0.502708
0.112673 0.0690013 0.540887
0.188037 0.0892958 0.574365
0.307897 0.100801 0.592187
0.434363 0.121553 0.621408
0.597482 0.165606 0.690455
0.76318 0.213611 0.76318
0.828321 0.196857 0.733425
0.00216678 0.0893111 0.502785
0.068986 0.112657 0.540871
0.136049 0.136049 0.579034
0.222461 0.152911 0.607141
0.343282 0.166079 0.626902
0.469642 0.189639 0.65626
0.622309 0.253468 0.714153
0.776837 0.319142 0.776837
0.856229 0.287465 0.761471
0.0254978 0.156374 0.540764
0.0888075 0.187488 0.572686
0.151843 0.221012 0.603387
0.244266 0.244266 0.619577
0.358572 0.266865 0.634058
0.480674 0.299611 0.661707
0.636698 0.367071 0.726268
0.791714 0.433478 0.791714
0.872419 0.402106 0.778088
0.0353246 0.270375 0.551522
0.100252 0.305135 0.585092
0.165667 0.340002 0.618982
0.267994 0.359091 0.632776
0.38323 0.38323 0.652277
0.513268 0.424536 0.690822
0.667124 0.490181 0.755611
0.816526 0.551369 0.816526
0.902388 0.521477 0.806775
0.060853 0.414725 0.598001
0.137438 0.456321 0.639338
0.214771 0.489601 0.67187
0.327718 0.507317 0.686519
0.445472 0.534096 0.711208
0.573327 0.573327 0.74934
0.717174 0.629435 0.805051
0.850202 0.67454 0.850202
0.948196 0.648417 0.847883
0.096849 0.573938 0.664683
0.188312 0.62356 0.714275
0.286702 0.649744 0.739666
0.401312 0.669001 0.757824
0.518059 0.694621 0.782712
0.638193 0.726085 0.813764
0.762509 0.762509 0.850004
0.890028 0.802533 0.890028
1 0.787045 0.900725
0.132647 0.711772 0.711772
0.224247 0.761532 0.761532
0.332601 0.783612 0.783612
0.44802 0.803845 0.803845
0.565057 0.829587 0.829587
0.68484 0.860395 0.860395
0.808026 0.895506 0.895506
0.934279 0.934279 0.934279
1 0.933639 0.933639
0.118288 0.7608 0.669932
0.209567 0.810315 0.719448
0.29868 0.841764 0.751278
0.413535 0.860105 0.770535
0.529641 0.883787 0.794873
0.648173 0.91252 0.824063
0.769802 0.945586 0.857374
0.895262 0.983368 0.895262
1 1 0.935683
0 0 0.502113
0.0258488 0 0.5467
0.0961013 0 0.586847
0.16434 0.0229801 0.625925
0.266667 0.0366522 0.650278
0.394415 0.0524605 0.677638
0.535424 0.077409 0.722606
0.67068 0.106386 0.764096
0.808927 0.138918 0.808927
0 0.0260777 0.547112
0.0534524 0.0534524 0.591775
0.123751 0.0780346 0.631952
0.192126 0.102068 0.67126
0.308598 0.113588 0.690776
0.439078 0.134005 0.721752
0.584665 0.167041 0.77171
0.720851 0.197436 0.814237
0.859236 0.230121 0.859236
0 0.0963912 0.58732
0.0781567 0.123873 0.632166
0.148516 0.148516 0.672404
0.223758 0.170275 0.708293
0.345922 0.181811 0.727016
0.477531 0.204105 0.759869
0.619211 0.2448 0.805417
0.747723 0.284703 0.840284
0.878996 0.326452 0.878996
0.0234531 0.165499 0.627787
0.103105 0.193286 0.673152
0.170413 0.224445 0.707927
0.252705 0.252705 0.730022
0.368597 0.274846 0.742031
0.492256 0.308309 0.767773
0.628962 0.356344 0.810636
0.757839 0.39646 0.848508
0.889799 0.438819 0.889799
0.035996 0.269017 0.648936
0.115084 0.311269 0.688899
0.18381 0.348074 0.724071
0.278553 0.371405 0.74197
0.393545 0.393545 0.757504
0.516945 0.426993 0.786511
0.650584 0.472206 0.829175
0.778042 0.511376 0.867414
0.910124 0.554238 0.910109
0.054612 0.402335 0.680446
0.142794 0.449821 0.727169
0.214328 0.488243 0.765072
0.323491 0.505516 0.777844
0.43827 0.527932 0.796582
0.558053 0.558053 0.824475
0.681163 0.592813 0.85803
0.807828 0.631617 0.896437
0.93901 0.674113 0.93901
0.0818799 0.534569 0.717754
0.172976 0.58381 0.766827
0.252354 0.619379 0.801831
0.365255 0.63534 0.815229
0.479744 0.657481 0.835447
0.597391 0.685679 0.862409
0.719051 0.719051 0.89514
0.844739 0.757107 0.932967
0.974609 0.798718 0.974609
0.114351 0.668788 0.760113
0.205875 0.718441 0.80975
0.294865 0.749325 0.840177
0.40856 0.766506 0.856306
0.523568 0.789212 0.878233
0.64123 0.817243 0.90576
0.76231 0.849912 0.938125
0.886915 0.886915 0.975006
1 0.926711 1
0.150072 0.806653 0.806653
0.241428 0.85626 0.85626
0.339788 0.882719 0.882719
0.454261 0.900999 0.900999
0.569757 0.924132 0.924117
0.687419 0.951934 0.951934
0.808576 0.984421 0.984421
0.932265 1 1
1 1 1
