LUT/Custom/PSCHT_Canteen_Special_GTX_33.cube
TITLE "Generated by Resolve"
#Author: Petr Schreiber
#LUMIXPHOTOSTYLE NAT
LUT_3D_SIZE 33
0.0156863 0.0156863 0.0156863
0.0156863 0.0156863 0.0194858
0.0232853 0.0156863 0.0196078
0.0345617 0.0196078 0.0196078
0.0495155 0.0230411 0.0235294
0.0726787 0.0235294 0.0268406
0.102937 0.027451 0.0306401
0.14081 0.0344396 0.0344396
0.186267 0.0382391 0.0392157
0.235416 0.0420386 0.0392157
0.293385 0.0458381 0.0431373
0.340932 0.0496376 0.0431373
0.38088 0.0573587 0.0470588
0.417151 0.0627451 0.0509804
0.451957 0.0688792 0.053193
0.482841 0.0766003 0.054902
0.513726 0.0823529 0.0588235
0.54461 0.0881056 0.0627451
0.57377 0.0958267 0.0666667
0.602457 0.103548 0.0705882
0.631861 0.107347 0.0745098
0.660288 0.115068 0.0797742
0.691173 0.122789 0.0835737
0.718135 0.13051 0.0873732
0.74902 0.138231 0.0911727
0.775982 0.145953 0.0949722
0.806134 0.152941 0.0987716
0.833829 0.157473 0.102571
0.860792 0.165194 0.106371
0.891295 0.172915 0.109804
0.918379 0.180636 0.113725
0.945342 0.188235 0.113725
0.956863 0.188235 0.113725
0.0194858 0.0234073 0.0234073
0.0196078 0.0234073 0.0270848
0.0232853 0.0269474 0.0235142
0.0345617 0.0273289 0.026978
0.0500038 0.0307622 0.0273289
0.0726787 0.0344549 0.0306554
0.102937 0.0351568 0.0344549
0.14081 0.0421607 0.0382696
0.182345 0.0431067 0.0392157
0.235416 0.0469368 0.0431067
0.289464 0.0496681 0.0431373
0.33843 0.0534829 0.0431373
0.38088 0.0573587 0.0470588
0.417151 0.0650034 0.0509804
0.451957 0.0688792 0.053193
0.482841 0.0766003 0.054902
0.513726 0.0823529 0.0588235
0.54461 0.0881056 0.0627451
0.571572 0.0958267 0.0666667
0.602457 0.103548 0.0705882
0.631861 0.107347 0.0745098
0.660288 0.115068 0.0797742
0.689998 0.122789 0.0835737
0.718135 0.13051 0.0873732
0.748043 0.138231 0.0911727
0.775982 0.145953 0.0949722
0.806134 0.149752 0.0987716
0.833829 0.157473 0.102571
0.860792 0.165194 0.106371
0.891295 0.172915 0.109804
0.918379 0.180636 0.113725
0.945342 0.188235 0.113725
0.956863 0.188235 0.113725
0.0196078 0.0387274 0.03505
0.0196078 0.0386969 0.0350347
0.0235142 0.0387274 0.0384985
0.0349279 0.0389258 0.0350347
0.0536812 0.042649 0.03505
0.0796368 0.0459754 0.0352483
0.110536 0.0498054 0.0391699
0.148394 0.0535897 0.0428779
0.193866 0.0574197 0.0431373
0.246662 0.0583047 0.0431373
0.298207 0.0585794 0.0431373
0.344594 0.0623941 0.0455482
0.382254 0.066331 0.0470588
0.417151 0.0687419 0.0508736
0.450355 0.0726635 0.053193
0.482841 0.0783093 0.054902
0.513726 0.0823529 0.0588235
0.542885 0.0881056 0.0627451
0.571572 0.0958267 0.0666667
0.602457 0.103548 0.0705882
0.629404 0.107347 0.0745098
0.660288 0.115068 0.0797742
0.689952 0.122789 0.0835737
0.718135 0.13051 0.0873732
0.748043 0.138231 0.0911727
0.775982 0.145953 0.0949722
0.802945 0.149752 0.0987716
0.833829 0.157473 0.102571
0.860792 0.165194 0.106371
0.887739 0.172915 0.109804
0.918379 0.180636 0.113725
0.945342 0.188235 0.113725
0.956863 0.188235 0.113725
0.0235294 0.0541695 0.042771
0.0235294 0.0577249 0.042771
0.0268559 0.0576791 0.0536812
0.0345922 0.0577249 0.0509499
0.060914 0.0612039 0.0463264
0.0912947 0.0650187 0.042771
0.125048 0.0687877 0.0466773
0.163607 0.0737011 0.0506142
0.212009 0.0773327 0.0506142
0.262135 0.0773327 0.0506142
0.313451 0.0772869 0.0470588
0.353674 0.0775769 0.0470588
0.389822 0.0801404 0.0508431
0.423194 0.0818341 0.0509804
0.455497 0.0855116 0.0547341
0.486397 0.0877852 0.0567788
0.513726 0.0896468 0.0588235
0.542763 0.0937514 0.0627451
0.571572 0.0978256 0.0666667
0.602457 0.103548 0.0705882
0.629404 0.107347 0.0745098
0.660288 0.115068 0.0797742
0.687251 0.122789 0.0835737
0.718135 0.13051 0.0873732
0.745098 0.138231 0.0911727
0.775982 0.145098 0.0949722
0.802945 0.149752 0.0987716
0.833204 0.157473 0.102571
0.860792 0.165194 0.106371
0.887739 0.172915 0.109804
0.914702 0.180636 0.113725
0.941894 0.188235 0.113725
0.956863 0.188235 0.113725
0.027451 0.0808881 0.0539254
0.027451 0.0808881 0.0539254
0.027451 0.0840925 0.061738
0.0348821 0.0882277 0.0814527
0.0607767 0.0882277 0.0661173
0.102327 0.0921645 0.0618906
0.133822 0.0964828 0.0550546
0.174365 0.103059 0.0575875
0.220951 0.104417 0.0583352
0.274144 0.104417 0.0583352
0.321904 0.103914 0.0579995
0.365316 0.103914 0.0544137
0.399695 0.103914 0.0544137
0.432349 0.104417 0.0569467
0.463233 0.104417 0.0583352
0.492027 0.104906 0.0588235
0.52108 0.106615 0.0607919
0.550118 0.108827 0.0643473
0.577203 0.108827 0.0681621
0.604486 0.109026 0.0705882
0.631556 0.111086 0.0745098
0.660288 0.115068 0.0797742
0.687251 0.122789 0.0835737
0.718135 0.13051 0.0873732
0.745098 0.138231 0.0911727
0.775235 0.142412 0.0949722
0.802945 0.149752 0.0987716
0.83032 0.157473 0.102571
0.860349 0.165194 0.106371
0.887739 0.172915 0.109804
0.914702 0.180636 0.113725
0.941543 0.188235 0.113725
0.952941 0.188235 0.113725
0.0313726 0.11519 0.0693675
0.0313726 0.11519 0.0693675
0.0313726 0.115129 0.069337
0.0387884 0.122118 0.11783
0.0539254 0.122423 0.0970626
0.0994125 0.126345 0.0850538
0.148135 0.130083 0.0772869
0.1832 0.134798 0.0661631
0.22797 0.138567 0.0652323
0.281865 0.13872 0.0660563
0.329274 0.138659 0.066041
0.373037 0.13872 0.0693675
0.408957 0.138109 0.0693675
0.443381 0.138109 0.0660563
0.474235 0.134737 0.066041
0.50515 0.134798 0.0660563
0.532418 0.13315 0.0660563
0.559686 0.131502 0.0682078
0.586633 0.131456 0.0705882
0.613352 0.131502 0.0741436
0.64033 0.131502 0.0780499
0.666178 0.128191 0.0819562
0.690974 0.128359 0.0835737
0.718135 0.13051 0.0873732
0.745098 0.138231 0.0911727
0.775128 0.142031 0.0949722
0.802945 0.149752 0.0987716
0.829908 0.157473 0.102571
0.860288 0.165194 0.106371
0.887739 0.172915 0.109804
0.914702 0.180636 0.113725
0.941543 0.185031 0.113725
0.952941 0.188235 0.113725
0.0384833 0.153185 0.0879835
0.038468 0.153109 0.0879377
0.0384833 0.153185 0.0879835
0.042771 0.157412 0.136812
0.0572061 0.157839 0.12755
0.075288 0.160464 0.105608
0.147936 0.165545 0.103807
0.204807 0.168688 0.0894942
0.237125 0.172183 0.0740215
0.286397 0.172717 0.0703746
0.337011 0.173297 0.0737774
0.37731 0.177127 0.0766003
0.418906 0.180636 0.0816205
0.454032 0.180117 0.0811627
0.486519 0.176303 0.0808881
0.516991 0.174197 0.0791638
0.547555 0.17084 0.0776989
0.574472 0.168795 0.0776837
0.600076 0.16495 0.0776989
0.62681 0.1617 0.0816052
0.651926 0.157839 0.0818952
0.677317 0.156695 0.0855268
0.701976 0.153918 0.0872663
0.72752 0.150683 0.0901961
0.751232 0.150729 0.0935683
0.775982 0.148272 0.0974594
0.802945 0.152346 0.0987716
0.832578 0.157473 0.102571
0.860288 0.165194 0.106371
0.887739 0.172915 0.109804
0.914702 0.180636 0.113725
0.941543 0.184436 0.113725
0.952941 0.188235 0.113725
0.0431373 0.188724 0.108095
0.0431373 0.188724 0.108095
0.0431373 0.188663 0.108064
0.0497597 0.191501 0.13576
0.0614023 0.195712 0.148394
0.0665293 0.195712 0.120974
0.115801 0.200259 0.120531
0.21091 0.203555 0.115938
0.267369 0.203433 0.0981918
0.292287 0.210544 0.0848096
0.336797 0.213413 0.0812085
0.381491 0.21532 0.082063
0.422019 0.218097 0.0859541
0.459937 0.219745 0.0898451
0.496437 0.222599 0.0932479
0.529046 0.220218 0.0963302
0.559503 0.216419 0.0939345
0.58851 0.213016 0.090959
0.615167 0.20911 0.0889448
0.642283 0.20502 0.0893416
0.665446 0.201221 0.0893416
0.690517 0.194369 0.0906844
0.715648 0.189883 0.0932479
0.739086 0.183948 0.0941176
0.763638 0.179263 0.0971847
0.78909 0.176104 0.0980392
0.812222 0.172412 0.101961
0.836271 0.16997 0.105165
0.860685 0.168261 0.106371
0.887739 0.172915 0.109804
0.914702 0.180636 0.113725
0.941543 0.184436 0.113725
0.952941 0.188235 0.113725
0.0500038 0.226474 0.127459
0.0500038 0.226474 0.127459
0.0500038 0.226474 0.127459
0.0508888 0.223804 0.132784
0.0660563 0.23003 0.162371
0.0729229 0.230396 0.146014
0.0911116 0.234562 0.132662
0.168688 0.245441 0.135302
0.274266 0.242161 0.126955
0.320348 0.242039 0.112016
0.339834 0.251774 0.0963302
0.377203 0.255848 0.0892195
0.420706 0.257847 0.0920272
0.462623 0.260166 0.0958572
0.500679 0.261769 0.0996872
0.535393 0.26569 0.104906
0.570092 0.264698 0.107851
0.601465 0.262348 0.107851
0.628977 0.258091 0.103914
0.65597 0.251347 0.100008
0.680888 0.247547 0.0988937
0.705394 0.242771 0.0973983
0.731121 0.236027 0.100984
0.754284 0.228305 0.100984
0.777447 0.220829 0.102693
0.80061 0.214496 0.104906
0.823957 0.209247 0.105089
0.847913 0.202487 0.10634
0.871077 0.196078 0.108949
0.89424 0.192157 0.109804
0.917464 0.189273 0.113725
0.941543 0.188235 0.113725
0.952941 0.188235 0.113725
0.0538033 0.261158 0.142885
0.0538033 0.261158 0.142885
0.0537881 0.261082 0.142855
0.0547951 0.261158 0.142885
0.0720684 0.264714 0.176974
0.0806439 0.26508 0.167483
0.0894636 0.268391 0.152178
0.121447 0.277089 0.141787
0.225498 0.284688 0.147097
0.326833 0.280461 0.140078
0.36405 0.284138 0.123827
0.381598 0.292287 0.108812
0.41294 0.298207 0.0979934
0.458213 0.300374 0.0997024
0.500008 0.300298 0.104173
0.537743 0.304295 0.109285
0.573953 0.306249 0.115129
0.608667 0.308217 0.118959
0.640543 0.307012 0.119326
0.668009 0.302739 0.117769
0.69633 0.296696 0.113283
0.720836 0.290074 0.108324
0.746532 0.285069 0.10869
0.769726 0.277455 0.108705
0.792889 0.269734 0.108705
0.816052 0.263111 0.110414
0.839185 0.255299 0.112612
0.862379 0.247669 0.112627
0.885542 0.239948 0.112627
0.908705 0.232334 0.113725
0.93167 0.225544 0.113725
0.951965 0.217899 0.113725
0.959686 0.210178 0.113725
0.0588235 0.295827 0.158328
0.0588235 0.29575 0.158297
0.0588235 0.295827 0.158328
0.0588235 0.29575 0.158297
0.0793164 0.298924 0.187503
0.0883497 0.299672 0.1841
0.0901961 0.300984 0.161761
0.0985275 0.307897 0.144991
0.162814 0.318929 0.15491
0.282292 0.323201 0.16257
0.373342 0.319356 0.15172
0.405341 0.326589 0.136339
0.418906 0.334798 0.117922
0.451591 0.338888 0.109148
0.492897 0.341665 0.10927
0.535912 0.342809 0.113146
0.574517 0.343511 0.11899
0.61062 0.346731 0.12282
0.645396 0.349218 0.126665
0.67805 0.350149 0.129259
0.706615 0.348043 0.129412
0.73489 0.342901 0.125582
0.762005 0.335683 0.118273
0.785138 0.329458 0.116411
0.808331 0.323781 0.116426
0.831464 0.312993 0.116411
0.850736 0.304417 0.116655
0.873869 0.29659 0.118059
0.897063 0.288975 0.120348
0.919951 0.278462 0.120333
0.940444 0.273365 0.120348
0.959594 0.26302 0.120333
0.963485 0.251469 0.120348
0.0653239 0.331868 0.17377
0.0653239 0.331868 0.17377
0.0653086 0.331807 0.173739
0.0653239 0.330632 0.17377
0.0803998 0.33138 0.187289
0.0868849 0.332265 0.186145
0.0862745 0.331807 0.166171
0.0932631 0.338842 0.149386
0.124971 0.349508 0.151629
0.213458 0.361166 0.169375
0.337407 0.361807 0.174166
0.412894 0.361883 0.165042
0.440574 0.365682 0.148043
0.456306 0.374945 0.129595
0.486305 0.380301 0.117403
0.529412 0.381491 0.117021
0.571939 0.381491 0.120897
0.609918 0.383337 0.126696
0.646082 0.385336 0.130526
0.680888 0.387808 0.134371
0.714336 0.389334 0.138216
0.74522 0.39057 0.139376
0.773922 0.386679 0.137224
0.798764 0.379049 0.130251
0.823774 0.372305 0.12607
0.846937 0.366171 0.124147
0.869337 0.358343 0.124132
0.889342 0.350118 0.124147
0.912016 0.339086 0.124147
0.931746 0.331365 0.12549
0.95079 0.323384 0.12549
0.964782 0.313237 0.125444
0.967285 0.300374 0.124147
0.0691234 0.365194 0.189212
0.0691234 0.365194 0.189212
0.0691234 0.365194 0.189212
0.0691234 0.365194 0.189212
0.07776 0.362737 0.187869
0.0865034 0.363363 0.185763
0.0859998 0.362737 0.171817
0.0932631 0.369726 0.160174
0.115816 0.378561 0.156008
0.164813 0.390143 0.166003
0.270588 0.399725 0.18233
0.384848 0.400488 0.185794
0.447181 0.401404 0.176532
0.472908 0.407614 0.158679
0.4925 0.41593 0.139559
0.522835 0.420096 0.128313
0.564218 0.420096 0.124758
0.606744 0.420096 0.128634
0.644694 0.422644 0.131121
0.680888 0.424018 0.136385
0.715694 0.426413 0.13872
0.747921 0.428443 0.142519
0.779904 0.429725 0.145861
0.809674 0.429282 0.147143
0.836759 0.424018 0.141176
0.860456 0.416617 0.136233
0.885084 0.410056 0.129931
0.904784 0.404776 0.129412
0.927459 0.393133 0.129412
0.946807 0.385412 0.129641
0.966018 0.376074 0.131868
0.971084 0.363485 0.129412
0.975006 0.350484 0.129412
0.0745098 0.397543 0.204654
0.0745098 0.397543 0.204654
0.0745098 0.397482 0.204623
0.0745098 0.397543 0.204654
0.0802625 0.393912 0.19498
0.0882429 0.393622 0.19118
0.0898909 0.393561 0.181827
0.0955825 0.40061 0.171817
0.114702 0.408331 0.16762
0.148577 0.419318 0.169848
0.213535 0.430838 0.177935
0.325856 0.4383 0.193378
0.424826 0.439094 0.197406
0.479591 0.44004 0.186648
0.504768 0.446754 0.167346
0.526223 0.453696 0.147921
0.557656 0.457542 0.134859
0.599023 0.458701 0.131746
0.641566 0.458625 0.133333
0.678553 0.459342 0.137255
0.715694 0.460288 0.141176
0.747921 0.463172 0.145098
0.781369 0.464149 0.14902
0.812253 0.466545 0.150118
0.842741 0.466545 0.152544
0.871565 0.464958 0.151003
0.89514 0.460197 0.145068
0.920226 0.452567 0.137621
0.940856 0.448569 0.135378
0.962249 0.43946 0.133547
0.974868 0.427573 0.133333
0.978805 0.416052 0.133333
0.980392 0.40061 0.133333
0.0806439 0.432349 0.216175
0.0806287 0.432288 0.216144
0.0806439 0.432349 0.216175
0.0806287 0.432288 0.216144
0.0857862 0.426932 0.20882
0.0920424 0.424781 0.201068
0.0941176 0.427695 0.193378
0.0997482 0.431434 0.185626
0.115251 0.439216 0.179232
0.14461 0.446876 0.178668
0.189853 0.457893 0.179858
0.267521 0.467964 0.187427
0.373526 0.474662 0.201617
0.459632 0.476738 0.205783
0.507607 0.47866 0.194369
0.534737 0.484184 0.175067
0.557961 0.489219 0.155642
0.592477 0.492958 0.140963
0.633829 0.495094 0.136294
0.673335 0.495033 0.137255
0.712413 0.495094 0.141176
0.747921 0.495781 0.145098
0.781369 0.497841 0.14902
0.812863 0.499565 0.151705
0.847059 0.502937 0.153918
0.874022 0.503349 0.156863
0.903181 0.504829 0.15874
0.929519 0.500877 0.154849
0.952697 0.495094 0.14902
0.971359 0.489021 0.141436
0.980529 0.481621 0.137255
0.984314 0.466133 0.137255
0.986526 0.454658 0.137255
0.0862745 0.463233 0.229541
0.0862745 0.463233 0.229541
0.0862745 0.463172 0.229526
0.0862745 0.463233 0.227863
0.091783 0.459312 0.220569
0.0962081 0.457557 0.212619
0.0997177 0.458869 0.202808
0.105028 0.460761 0.195102
0.117769 0.466178 0.188937
0.14461 0.477241 0.1879
0.184802 0.485481 0.188449
0.240528 0.495094 0.18761
0.319753 0.504128 0.194293
0.414939 0.510292 0.209323
0.491493 0.512306 0.21059
0.536767 0.514214 0.2
0.565744 0.520104 0.180758
0.591669 0.523903 0.161517
0.627283 0.527642 0.147524
0.6663 0.5299 0.142412
0.707225 0.5299 0.141176
0.745205 0.5299 0.145098
0.781369 0.529839 0.14902
0.813352 0.532509 0.152941
0.847059 0.533822 0.153918
0.877943 0.536309 0.156863
0.904906 0.537682 0.160784
0.935164 0.539834 0.162875
0.960418 0.539605 0.162631
0.977035 0.5337 0.156741
0.984314 0.525887 0.148989
0.988235 0.516121 0.14136
0.988235 0.504784 0.137255
0.0901961 0.494118 0.239216
0.0901961 0.494118 0.239216
0.0901961 0.494118 0.239216
0.0901961 0.494118 0.239216
0.0955825 0.490196 0.232105
0.101656 0.48658 0.222187
0.103914 0.486275 0.214466
0.109377 0.489769 0.206744
0.121569 0.495583 0.199023
0.147982 0.504784 0.198032
0.182101 0.512505 0.198032
0.231067 0.521508 0.194797
0.296574 0.5299 0.19411
0.367224 0.53959 0.199573
0.453925 0.545098 0.214221
0.521385 0.548104 0.215564
0.564706 0.54902 0.203922
0.594675 0.553857 0.18468
0.624506 0.558572 0.166293
0.659739 0.562371 0.152514
0.699504 0.564706 0.146319
0.738109 0.564706 0.145098
0.776715 0.564706 0.147677
0.812802 0.564706 0.151537
0.847059 0.564706 0.153918
0.877943 0.568627 0.157717
0.904906 0.56936 0.160784
0.93579 0.572549 0.164706
0.962249 0.573037 0.168627
0.980758 0.574319 0.168444
0.984558 0.570336 0.164584
0.988235 0.560662 0.158633
0.988235 0.552941 0.14902
0.0941176 0.52108 0.24889
0.0941176 0.52108 0.24889
0.0941176 0.521019 0.248875
0.0941176 0.52108 0.24889
0.099382 0.519463 0.24155
0.107103 0.517159 0.230198
0.109407 0.517098 0.222171
0.113268 0.518776 0.214466
0.123522 0.524025 0.206744
0.148531 0.531746 0.205753
0.186023 0.539406 0.205737
0.228565 0.547189 0.202564
0.284443 0.556207 0.19791
0.344366 0.564706 0.199161
0.408637 0.575387 0.204303
0.489342 0.579904 0.218021
0.549386 0.582788 0.217517
0.591669 0.583825 0.205753
0.623728 0.587686 0.187533
0.657359 0.592508 0.169116
0.692943 0.59559 0.155154
0.731746 0.598154 0.149508
0.77084 0.597345 0.147585
0.807599 0.597421 0.149599
0.843656 0.59794 0.15346
0.877943 0.599512 0.157321
0.908431 0.599847 0.160784
0.93579 0.603433 0.164706
0.962249 0.603922 0.168627
0.980758 0.607355 0.168994
0.988235 0.603372 0.172549
0.988235 0.601221 0.170397
0.988235 0.595346 0.166537
0.0980392 0.551965 0.256611
0.0980392 0.551904 0.256596
0.0980392 0.551965 0.256611
0.0980392 0.551904 0.256596
0.105119 0.548043 0.249271
0.111238 0.546273 0.240085
0.113725 0.544533 0.229908
0.116793 0.546273 0.222171
0.127459 0.550973 0.214466
0.150225 0.558633 0.213458
0.187213 0.566415 0.213474
0.22855 0.572381 0.209537
0.277363 0.580148 0.205631
0.33225 0.590143 0.200687
0.385306 0.599512 0.2
0.448035 0.608881 0.208225
0.520836 0.613855 0.219852
0.576532 0.614649 0.217517
0.619593 0.618631 0.206882
0.65565 0.620157 0.188449
0.689067 0.625391 0.173037
0.726604 0.627756 0.158328
0.765194 0.630396 0.150729
0.803189 0.630335 0.14902
0.838483 0.630396 0.149996
0.87451 0.630335 0.153796
0.907103 0.630396 0.159396
0.93579 0.634256 0.163272
0.965896 0.634592 0.168627
0.980758 0.636469 0.168994
0.988235 0.634318 0.172549
0.988235 0.634256 0.172671
0.988235 0.634318 0.176471
0.101961 0.578927 0.264332
0.101961 0.578927 0.264332
0.101961 0.578866 0.264317
0.101961 0.578927 0.264332
0.109026 0.575296 0.253559
0.113359 0.573648 0.24535
0.115297 0.573358 0.236027
0.118883 0.573404 0.225986
0.131365 0.577935 0.22179
0.152453 0.58407 0.217945
0.189944 0.592233 0.218006
0.231678 0.599512 0.217273
0.276463 0.603906 0.21091
0.325154 0.613352 0.207111
0.376364 0.624826 0.202609
0.424994 0.634318 0.203922
0.48658 0.642039 0.209369
0.551354 0.645594 0.219852
0.604532 0.649454 0.214664
0.648554 0.649516 0.206256
0.685191 0.653437 0.188479
0.72047 0.657359 0.173037
0.757488 0.660121 0.161135
0.796078 0.662379 0.154086
0.834104 0.665202 0.151202
0.868864 0.662867 0.152941
0.903609 0.663233 0.155581
0.93579 0.665202 0.161151
0.966171 0.665202 0.165194
0.980758 0.665202 0.168994
0.988235 0.665141 0.172549
0.988235 0.665202 0.176471
0.988235 0.6636 0.176471
0.103426 0.605875 0.270588
0.103426 0.605875 0.270588
0.103426 0.605875 0.270588
0.103426 0.605875 0.270588
0.11078 0.602274 0.259495
0.117266 0.600488 0.249531
0.118837 0.600488 0.240223
0.122179 0.599954 0.232227
0.133455 0.6038 0.228916
0.156374 0.611154 0.224994
0.193103 0.618875 0.224994
0.235554 0.624018 0.222431
0.278004 0.630396 0.218631
0.321309 0.638117 0.21323
0.368627 0.648035 0.208484
0.414954 0.658259 0.204608
0.463722 0.669123 0.203922
0.523323 0.675685 0.210147
0.581857 0.679561 0.21593
0.633188 0.6804 0.213092
0.679469 0.681315 0.203922
0.716045 0.685161 0.188479
0.753674 0.689006 0.173037
0.78941 0.692164 0.161151
0.826963 0.694972 0.15404
0.862791 0.696071 0.152941
0.899504 0.696071 0.153674
0.931868 0.696071 0.157244
0.962737 0.696071 0.163424
0.980758 0.696071 0.168856
0.988235 0.695827 0.172793
0.988235 0.692164 0.176471
0.988235 0.692164 0.176471
0.107225 0.632837 0.275853
0.107225 0.632792 0.275853
0.10721 0.632776 0.275837
0.107225 0.631617 0.274632
0.11458 0.627741 0.263722
0.118776 0.627573 0.253346
0.121569 0.624933 0.245212
0.125978 0.627008 0.237507
0.136645 0.630518 0.233371
0.160296 0.637522 0.232715
0.196979 0.644129 0.231785
0.239429 0.64976 0.228794
0.280262 0.654063 0.224872
0.320409 0.66128 0.220157
0.362249 0.671153 0.214817
0.407233 0.682719 0.208469
0.453559 0.692287 0.204593
0.502449 0.700633 0.203922
0.55761 0.707668 0.208972
0.614954 0.711269 0.211765
0.664103 0.711269 0.2103
0.710384 0.714305 0.201678
0.749081 0.715953 0.187533
0.784558 0.719844 0.173037
0.820584 0.723033 0.161151
0.857282 0.726955 0.156298
0.892546 0.726894 0.154757
0.926589 0.726955 0.156863
0.958831 0.726955 0.160784
0.980758 0.726955 0.16495
0.984558 0.72665 0.171298
0.988235 0.723033 0.176471
0.988235 0.721691 0.180392
0.109804 0.658579 0.279652
0.109804 0.658534 0.279637
0.109804 0.658579 0.279652
0.110903 0.658534 0.278538
0.118379 0.654658 0.267308
0.122591 0.650874 0.25716
0.12549 0.650736 0.249012
0.129763 0.651637 0.243397
0.142458 0.655573 0.239521
0.165423 0.661357 0.239216
0.20087 0.669123 0.236515
0.244099 0.67422 0.235706
0.286763 0.680644 0.23183
0.321935 0.685603 0.226337
0.360052 0.696086 0.222553
0.402014 0.705837 0.214817
0.445838 0.715434 0.208453
0.492164 0.727031 0.204562
0.539666 0.734798 0.203922
0.593042 0.739284 0.207126
0.646601 0.742153 0.207843
0.695857 0.742092 0.2065
0.741314 0.745235 0.197925
0.780011 0.746777 0.184527
0.816358 0.750668 0.172122
0.851087 0.754452 0.161135
0.885801 0.757839 0.156863
0.920531 0.760678 0.156863
0.953674 0.761761 0.160784
0.980758 0.758892 0.161151
0.984558 0.757595 0.167651
0.988235 0.753857 0.172671
0.988235 0.749996 0.179171
0.113725 0.682841 0.283452
0.113725 0.682841 0.283452
0.113725 0.68278 0.283436
0.114717 0.681849 0.28246
0.12253 0.678309 0.271077
0.12549 0.677821 0.260533
0.129412 0.677775 0.252796
0.133577 0.677821 0.247303
0.146349 0.680766 0.244236
0.169238 0.688487 0.244236
0.206394 0.694209 0.244221
0.248875 0.700008 0.241291
0.291783 0.704219 0.237873
0.327626 0.711513 0.234073
0.358938 0.719188 0.230259
0.398657 0.729046 0.221042
0.44062 0.739147 0.214282
0.483116 0.75024 0.208423
0.526848 0.757916 0.204532
0.577127 0.765682 0.203922
0.627695 0.770169 0.206744
0.6804 0.773037 0.203922
0.726741 0.773861 0.201953
0.773037 0.776165 0.194171
0.811643 0.777661 0.183459
0.847181 0.781491 0.168872
0.88191 0.785275 0.161135
0.916182 0.788724 0.156863
0.949874 0.791684 0.159823
0.977096 0.792645 0.161151
0.984558 0.788663 0.16495
0.988235 0.784802 0.171572
0.988235 0.784802 0.176471
0.114702 0.708827 0.287251
0.114702 0.708827 0.287251
0.114702 0.708827 0.287251
0.121202 0.706157 0.282719
0.126345 0.704906 0.274998
0.129412 0.701137 0.263508
0.132784 0.700984 0.256428
0.137377 0.701747 0.251957
0.151965 0.705638 0.25098
0.176257 0.711925 0.25098
0.210544 0.719356 0.248951
0.254994 0.724514 0.248035
0.297429 0.729046 0.244114
0.331868 0.735073 0.241398
0.362737 0.742397 0.237995
0.396567 0.752209 0.230274
0.436271 0.763729 0.220584
0.477241 0.773404 0.212284
0.519112 0.782849 0.208392
0.561517 0.792767 0.204501
0.612253 0.797177 0.203922
0.66302 0.801007 0.203586
0.712505 0.803922 0.2
0.761517 0.803922 0.196078
0.804654 0.807111 0.19118
0.842527 0.808484 0.17966
0.878004 0.812314 0.168872
0.911421 0.816144 0.160327
0.94313 0.818753 0.156863
0.973281 0.822644 0.160174
0.984558 0.823285 0.16495
0.988235 0.819486 0.16875
0.988235 0.815686 0.175494
0.118502 0.732845 0.291051
0.118502 0.732845 0.291051
0.118486 0.732784 0.291035
0.125124 0.731991 0.286641
0.130159 0.728176 0.275105
0.13286 0.728069 0.267277
0.136675 0.724941 0.260243
0.144244 0.727382 0.255756
0.158694 0.731212 0.255756
0.181857 0.73872 0.255756
0.21825 0.743328 0.255741
0.259434 0.75024 0.253193
0.302449 0.75404 0.251835
0.335668 0.761761 0.247913
0.366522 0.767712 0.245335
0.396963 0.777203 0.238453
0.433326 0.784924 0.228733
0.473381 0.796567 0.218631
0.513619 0.805966 0.210895
0.554299 0.81593 0.207111
0.599802 0.823651 0.203922
0.649516 0.828016 0.200855
0.697673 0.830823 0.2
0.746075 0.834195 0.196689
0.792401 0.834806 0.192798
0.837186 0.835477 0.188235
0.872847 0.83856 0.177417
0.907469 0.841932 0.168399
0.939223 0.845823 0.158465
0.96965 0.849714 0.156863
0.984558 0.850431 0.160983
0.988235 0.85037 0.163943
0.988235 0.846571 0.167773
0.121569 0.759075 0.29485
0.121569 0.75903 0.294835
0.122255 0.759075 0.29485
0.129763 0.755108 0.287297
0.133974 0.752361 0.27892
0.136751 0.751186 0.271199
0.141176 0.751232 0.264073
0.148882 0.751751 0.263462
0.166415 0.755703 0.263478
0.189563 0.761837 0.263462
0.222065 0.769604 0.263478
0.26714 0.773602 0.259541
0.307103 0.779141 0.257115
0.341344 0.784878 0.255619
0.37174 0.792645 0.251713
0.400824 0.80032 0.247776
0.431739 0.808087 0.240314
0.468009 0.819684 0.228748
0.509804 0.82916 0.218631
0.548424 0.839048 0.212482
0.588937 0.846815 0.208301
0.634821 0.85449 0.204639
