LUT/Custom/Pscht Blue Skies.cube
TITLE "Generated by Resolve"
#LUMIXPHOTOSTYLE NAT
LUT_3D_SIZE 33
0 0 0
0.0256809 0 0
0.0551766 0 0
0.0860151 0 0
0.117739 0 0
0.150698 0 0
0.184131 0 0
0.21796 0 0
0.252201 0 0
0.286976 0 0
0.32192 0 0
0.356939 0 0
0.392752 0 0
0.430747 0 0
0.470848 0 0
0.513039 0 0
0.555901 0 0
0.597482 0 0
0.636713 0 0
0.673793 0 0
0.709407 0 0
0.744228 0 0
0.779217 0 0
0.815198 0 0
0.86479 0 0
0.918578 0 0
0.972152 0 0
1 0 0
1 0 0
1 0 0
1 0 0
1 0 0
1 0 0
0 0.0106355 0
0.0175631 0.0175631 0.0034638
0.0568093 0.0294041 0.00593576
0.0924697 0.0339971 0.0087129
0.124147 0.0337835 0.00817884
0.156344 0.0327306 0.00694286
0.18912 0.0319219 0.00598154
0.22237 0.0311131 0.00509651
0.256123 0.030457 0.00440986
0.290501 0.0298772 0.00384527
0.325078 0.029572 0.0034638
0.359899 0.0293431 0.00320439
0.395712 0.0292973 0.00292973
0.433722 0.0298314 0.00277714
0.473793 0.0310216 0.00277714
0.516121 0.0328527 0.00285344
0.559075 0.0348821 0.00308232
0.600687 0.0365759 0.00317388
0.63978 0.0376287 0.0031281
0.676829 0.038056 0.00308232
0.712047 0.0377203 0.00282292
0.746746 0.0373388 0.00263981
0.781628 0.0370489 0.00247196
0.817548 0.0370794 0.00236515
0.867536 0.0418555 0.00283818
0.921828 0.0483864 0.00354009
0.976242 0.0557259 0.0043946
1 0.0630503 0.0053254
1 0.0637522 0.0052491
1 0.0635691 0.005066
1 0.0633249 0.00488289
1 0.0630503 0.00463874
1 0.0630655 0.00457771
0 0.0228122 0
0.010544 0.0293889 0.00169375
0.0374456 0.0374456 0.00740063
0.0724041 0.0476234 0.00877394
0.120775 0.0624247 0.0125429
0.161807 0.0696269 0.0161135
0.197192 0.0722972 0.0184939
0.231571 0.0728161 0.018555
0.26537 0.0720684 0.0174868
0.299428 0.0709239 0.0161135
0.333425 0.0697795 0.0148013
0.36762 0.0687114 0.0135958
0.403403 0.0684977 0.0127565
0.441276 0.0692454 0.0122225
0.481193 0.071046 0.0120089
0.523735 0.0740978 0.0121767
0.566644 0.0777752 0.0124971
0.608179 0.0805066 0.0126192
0.647196 0.082063 0.0125429
0.683925 0.082414 0.0121004
0.718791 0.0815595 0.0113832
0.75317 0.0806592 0.0107576
0.787762 0.0798962 0.0102083
0.823758 0.0800488 0.0100099
0.874235 0.0881361 0.0112001
0.92958 0.0995651 0.0132753
0.985229 0.111803 0.015671
1 0.123156 0.0178378
1 0.124025 0.0175631
1 0.123491 0.0169833
1 0.123033 0.0164645
1 0.122454 0.0159304
1 0.122072 0.0154879
0 0.0353246 0
0.00848402 0.0423285 0.000442512
0.0294194 0.0489967 0.00486763
0.05832 0.05832 0.0115358
0.0879225 0.0647288 0.0116579
0.138857 0.083238 0.0156558
0.18854 0.0972457 0.0195163
0.232227 0.105699 0.0232548
0.270802 0.110414 0.0268864
0.307469 0.112795 0.0289158
0.342733 0.113329 0.0290684
0.377646 0.113024 0.028336
0.413916 0.113115 0.0274662
0.452125 0.114397 0.0268711
0.492287 0.117235 0.0267338
0.53489 0.121477 0.0270085
0.577661 0.125856 0.0273289
0.619074 0.129442 0.027451
0.657923 0.131273 0.0271305
0.694423 0.131426 0.0263066
0.728923 0.130022 0.0250248
0.763073 0.128649 0.0238956
0.797467 0.12752 0.0229191
0.833021 0.127153 0.0221256
0.88426 0.13817 0.0243381
0.940673 0.153201 0.0278019
0.997208 0.16936 0.0316014
1 0.183688 0.0348821
1 0.184665 0.0344396
1 0.183734 0.0334325
1 0.182834 0.0324712
1 0.181842 0.0314641
1 0.180987 0.0305638
0 0.0486458 0
0.00704967 0.0553902 0
0.0224765 0.0625772 0.00361639
0.0499733 0.0700389 0.0087892
0.0800183 0.0800183 0.0159457
0.10631 0.0833906 0.0149844
0.154742 0.101579 0.018677
0.20824 0.119738 0.0229191
0.258473 0.133272 0.0268406
0.304158 0.142473 0.0306554
0.345159 0.14844 0.0344244
0.383429 0.152468 0.0378729
0.421973 0.155901 0.0398871
0.461555 0.159457 0.041001
0.5028 0.163897 0.0419623
0.546014 0.169741 0.0430304
0.589197 0.175463 0.044007
0.63061 0.179797 0.0443732
0.66949 0.182361 0.0442206
0.70605 0.182559 0.0433051
0.740505 0.181048 0.0417945
0.774639 0.179599 0.0403754
0.808759 0.178012 0.0388952
0.844236 0.177478 0.0377813
0.896178 0.190509 0.0408026
0.953246 0.208286 0.0453346
1 0.226673 0.0501106
1 0.243 0.0541695
1 0.2439 0.0534676
1 0.242954 0.0522774
1 0.241901 0.0510414
1 0.240604 0.0496529
1 0.239475 0.0484169
0 0.0619974 0
0.00563058 0.0690013 0
0.019501 0.0764935 0.00236515
0.0420233 0.0830854 0.00672923
0.0707713 0.0915389 0.0126802
0.102266 0.102266 0.0203708
0.125872 0.103349 0.0187076
0.170657 0.119585 0.0216526
0.224323 0.139239 0.0259098
0.278782 0.156695 0.0301671
0.329488 0.170092 0.0341955
0.376883 0.180423 0.0382086
0.421744 0.188983 0.0422827
0.465293 0.196857 0.0464332
0.508461 0.204761 0.0504311
0.55314 0.213046 0.0538186
0.59733 0.220935 0.056611
0.639521 0.226917 0.0583963
0.679088 0.230793 0.0593729
0.716289 0.232227 0.0594186
0.751385 0.231434 0.0585489
0.785748 0.230121 0.0573434
0.820142 0.228779 0.0560159
0.855879 0.228595 0.0549783
0.908248 0.243214 0.0585641
0.965667 0.262745 0.0637064
1 0.282567 0.068925
1 0.300221 0.0734875
1 0.301381 0.0728771
1 0.300343 0.0715648
1 0.299519 0.0703593
1 0.298207 0.068864
1 0.297017 0.0674754
0 0.0759442 0
0.00411994 0.0827039 0
0.0179904 0.0901961 0.000854505
0.0350805 0.0977798 0.00572213
0.0627604 0.104707 0.0104829
0.0929122 0.113954 0.0170443
0.124743 0.124743 0.0248112
0.146685 0.124224 0.0226749
0.188235 0.138445 0.024979
0.240787 0.158251 0.0290837
0.296223 0.177783 0.0334478
0.350912 0.195026 0.0377203
0.403571 0.209873 0.0419623
0.4542 0.22298 0.0463417
0.503502 0.235233 0.0507668
0.552026 0.24683 0.0552529
0.598596 0.257618 0.0597391
0.642878 0.266224 0.0641489
0.683879 0.27248 0.0677195
0.722393 0.27599 0.0699931
0.75877 0.277012 0.0710613
0.794232 0.277211 0.0713512
0.829511 0.277043 0.0711376
0.866041 0.277897 0.0709239
0.91873 0.293828 0.0749523
0.976257 0.314336 0.0803082
1 0.335042 0.0856794
1 0.353384 0.0904097
1 0.355001 0.0903487
1 0.354528 0.0894942
1 0.353994 0.0885481
1 0.35317 0.0873884
1 0.352255 0.0861524
0 0.0898604 0
0.00259403 0.0966201 0
0.0166323 0.104372 0
0.0312047 0.112245 0.00453193
0.0551003 0.118776 0.00885023
0.0843824 0.126864 0.0144808
0.115465 0.136828 0.021561
0.14786 0.14786 0.0295109
0.168444 0.145983 0.0269322
0.207202 0.158175 0.0284428
0.25774 0.177523 0.0322728
0.313542 0.198627 0.0367895
0.370428 0.218814 0.0413519
0.427008 0.237507 0.0459907
0.482078 0.254688 0.0505379
0.535576 0.270466 0.0551614
0.586755 0.284367 0.0595865
0.635493 0.29604 0.0640421
0.68043 0.305104 0.0682078
0.722179 0.311406 0.0721294
0.760998 0.315251 0.0758526
0.798276 0.318029 0.0789502
0.835294 0.320226 0.0811475
0.873182 0.322957 0.0826886
0.926253 0.340093 0.0871901
0.983581 0.360983 0.0925154
1 0.382406 0.098024
1 0.4009 0.102831
1 0.403861 0.103914
1 0.404471 0.104143
1 0.40502 0.104219
1 0.404883 0.103685
1 0.404608 0.103029
0 0.103944 0
0.00120546 0.110979 0
0.0151064 0.118486 0
0.0296788 0.126375 0.00297551
0.0479438 0.133928 0.00781262
0.0765545 0.140963 0.0125887
0.106767 0.149813 0.0187686
0.138582 0.16022 0.0260777
0.171771 0.171771 0.0342412
0.191745 0.169223 0.0314336
0.228031 0.179797 0.0323644
0.276478 0.198444 0.0359197
0.331304 0.219974 0.0402838
0.389715 0.242359 0.045182
0.448173 0.263752 0.0499733
0.505806 0.283711 0.0547951
0.56109 0.301183 0.0592203
0.614221 0.316426 0.0637217
0.663935 0.328878 0.0679179
0.71046 0.33843 0.0719005
0.754147 0.345434 0.0757305
0.795758 0.351308 0.0796674
0.835538 0.355947 0.0834211
0.875517 0.361242 0.0873121
0.929229 0.379675 0.0925612
0.986618 0.40116 0.098146
1 0.423178 0.103883
1 0.442145 0.109041
1 0.446662 0.111864
1 0.449119 0.11397
1 0.450858 0.115328
1 0.451987 0.116106
1 0.452811 0.116548
0 0.118746 0
0 0.125841 0
0.0137789 0.133455 0
0.0284428 0.141482 0.00151064
0.0437934 0.150027 0.0069276
0.0696117 0.156649 0.0112306
0.0994736 0.16466 0.0166781
0.130755 0.174334 0.023331
0.163485 0.185367 0.0309758
0.197452 0.197452 0.0393378
0.217029 0.194461 0.0363775
0.251301 0.203555 0.0367285
0.297429 0.220935 0.0397345
0.351339 0.24271 0.0441444
0.408377 0.265614 0.0489509
0.467552 0.28838 0.0539406
0.525368 0.309071 0.0585336
0.581796 0.327764 0.0631266
0.635782 0.343801 0.0674144
0.686931 0.357015 0.0715038
0.735729 0.367864 0.0755169
0.781842 0.376822 0.0793927
0.826093 0.384436 0.083238
0.870222 0.392538 0.0872663
0.925399 0.412345 0.092668
0.983368 0.434531 0.0983291
1 0.457145 0.104158
1 0.476753 0.109529
1 0.48304 0.113497
1 0.487419 0.117433
1 0.490929 0.120775
1 0.493736 0.123369
1 0.496056 0.125414
0 0.134585 0
0 0.141848 0
0.0127871 0.149645 0
0.0276493 0.157809 0.000106813
0.0432746 0.166522 0.00561532
0.06392 0.174105 0.0104067
0.0932937 0.181323 0.0151827
0.124285 0.190265 0.0212253
0.156634 0.200656 0.0283207
0.190158 0.212238 0.0362249
0.224826 0.224826 0.0447547
0.244083 0.221408 0.0416419
0.276921 0.229374 0.0416571
0.320317 0.245243 0.0441291
0.371893 0.265965 0.0481422
0.427634 0.288426 0.052781
0.484916 0.310765 0.0575265
0.542702 0.331884 0.0621958
0.599222 0.351003 0.0666514
0.653986 0.367773 0.0709392
0.706844 0.382162 0.0749828
0.757382 0.394675 0.0789502
0.806058 0.405631 0.0828717
0.85452 0.416968 0.0870069
0.911543 0.438392 0.0924544
0.970474 0.461479 0.0981308
1 0.484886 0.103944
1 0.505516 0.109453
1 0.513695 0.113466
1 0.519814 0.117327
1 0.525154 0.121141
1 0.529778 0.124941
1 0.533837 0.128695
0 0.151217 0
0 0.158968 0
0.0120241 0.167041 0
0.0273899 0.175433 0
0.043061 0.184039 0.00424201
0.0592966 0.193149 0.00994888
0.0885328 0.199741 0.0142214
0.119142 0.20798 0.0196994
0.151034 0.2177 0.0262455
0.184344 0.228748 0.0337835
0.21857 0.240787 0.0419318
0.253697 0.253697 0.0505989
0.272404 0.24976 0.0473182
0.303044 0.256016 0.0467536
0.344213 0.270039 0.0486763
0.392386 0.288731 0.0520943
0.445441 0.309789 0.0563363
0.501579 0.331579 0.0609598
0.558419 0.352529 0.0655375
0.614664 0.371771 0.0699168
0.670359 0.38941 0.0741588
0.724193 0.405295 0.078233
0.776822 0.419867 0.0823987
0.829496 0.434607 0.086656
0.888457 0.457771 0.0921187
0.94876 0.482261 0.0979324
1 0.506432 0.103624
1 0.528038 0.109117
1 0.538338 0.113161
1 0.546639 0.117067
1 0.554025 0.120943
1 0.560586 0.124819
1 0.5664 0.128649
0 0.168872 0
0 0.176867 0
0.0117189 0.185412 0
0.0275731 0.194171 0
0.0437171 0.202991 0.00331121
0.0599832 0.211963 0.00895705
0.0845197 0.219287 0.013611
0.114916 0.226841 0.0186007
0.146471 0.235859 0.0246738
0.179187 0.246235 0.031693
0.212833 0.257557 0.0393683
0.247196 0.269642 0.0475929
0.28249 0.28249 0.0563973
0.300313 0.277668 0.0529335
0.328878 0.282155 0.0518807
0.366949 0.293919 0.0530861
0.412451 0.310658 0.0559396
0.463249 0.330251 0.0597848
0.517311 0.350927 0.0641184
0.572641 0.371283 0.0684825
0.629068 0.391119 0.0728618
0.685313 0.410056 0.0773327
0.740505 0.42742 0.0815595
0.796933 0.445899 0.086183
0.857618 0.470832 0.0916457
0.919234 0.49662 0.0974746
0.980606 0.522026 0.103166
1 0.544762 0.108644
1 0.55729 0.112734
1 0.567926 0.116686
1 0.577539 0.120607
1 0.586404 0.12462
1 0.594247 0.128557
0 0.186404 0
0 0.194873 0
0.0112764 0.203616 0
0.0274968 0.212467 0
0.0439155 0.221469 0.00207523
0.0605783 0.230732 0.00794995
0.0805371 0.239078 0.0132601
0.110903 0.245945 0.0178225
0.142092 0.254185 0.0234226
0.17409 0.263584 0.0298466
0.206928 0.274006 0.0370184
0.240696 0.285405 0.0448768
0.27509 0.297459 0.0532082
0.309926 0.309926 0.0618601
0.326848 0.304219 0.0581674
0.353552 0.307073 0.0567025
0.389181 0.316899 0.0573587
0.432074 0.331731 0.059678
0.480369 0.349645 0.0630808
0.532601 0.36936 0.0671092
0.587869 0.390127 0.0716106
0.643824 0.410391 0.0760357
0.700114 0.429938 0.0804303
0.758816 0.451652 0.085359
0.821042 0.47837 0.0909285
0.883864 0.505516 0.0968032
0.946166 0.532143 0.102541
1 0.556039 0.107958
1 0.570871 0.112169
1 0.583902 0.116197
1 0.595911 0.120226
1 0.607019 0.124285
1 0.616892 0.128206
0 0.203037 0
0 0.212024 0
0.0106203 0.220981 0
0.0272679 0.230015 0
0.0438849 0.239063 0.0009308
0.0605325 0.248142 0.00671397
0.0773938 0.257481 0.0126497
0.10576 0.26421 0.0170596
0.136492 0.271733 0.0221408
0.167987 0.280385 0.0280919
0.200336 0.290044 0.0347906
0.233402 0.300542 0.0421302
0.26717 0.311925 0.0500954
0.30132 0.323705 0.0583963
0.335821 0.335821 0.0669871
0.351919 0.329305 0.0631266
0.377005 0.330739 0.0612955
0.410452 0.338781 0.0614786
0.451179 0.351995 0.0633249
0.498085 0.369162 0.0665599
0.549203 0.388388 0.0703899
0.603006 0.408682 0.0746471
0.658534 0.429236 0.0790723
0.718227 0.453635 0.0843061
0.781445 0.481758 0.090013
0.844648 0.509941 0.0958877
0.907774 0.537743 0.101686
0.968658 0.562585 0.107073
1 0.579477 0.111345
1 0.595102 0.115618
1 0.609308 0.119692
1 0.622568 0.12372
1 0.634623 0.127718
0 0.218906 0
0 0.228031 0
0.00953689 0.237125 0
0.026276 0.24622 0
0.0430762 0.255314 0
0.0598611 0.264424 0.00534066
0.0767529 0.273762 0.0113069
0.0997177 0.281468 0.0162814
0.130114 0.28835 0.0209201
0.161181 0.29633 0.0264134
0.19292 0.305287 0.0326543
0.225284 0.315099 0.0395361
0.258534 0.32578 0.0471046
0.292165 0.336934 0.0550393
0.326009 0.348394 0.0632792
0.360159 0.360159 0.071809
0.375555 0.352972 0.0678111
0.399435 0.353353 0.0657054
0.431708 0.360525 0.0657054
0.471031 0.372717 0.067216
0.516243 0.388769 0.0699779
0.56582 0.407355 0.0736095
0.618997 0.427832 0.0778058
0.678523 0.453986 0.0832074
0.74078 0.48246 0.0889296
0.803845 0.511284 0.0947585
0.867124 0.539925 0.100603
0.928161 0.565347 0.105974
0.984466 0.584207 0.11046
1 0.601633 0.114717
1 0.618006 0.118898
1 0.633478 0.123018
1 0.6477 0.127077
0 0.233845 0
0 0.242924 0
0.0080415 0.252033 0
0.0248264 0.261143 0
0.0416266 0.270253 0
0.0586099 0.279622 0.00396735
0.0753643 0.288716 0.00978103
0.0926375 0.297658 0.0155184
0.122713 0.303975 0.0197299
0.153368 0.31133 0.0247654
0.184756 0.319768 0.0306401
0.2168 0.329107 0.0372015
0.249378 0.33904 0.0442512
0.282399 0.349554 0.0517739
0.315785 0.360555 0.0596933
0.349569 0.371954 0.0679332
0.383932 0.383932 0.0766308
0.399069 0.376516 0.0725719
0.422187 0.376226 0.0702831
0.453193 0.382284 0.0698253
0.491096 0.39353 0.0710307
0.534981 0.408927 0.0736553
0.584741 0.428504 0.0772412
0.641764 0.454444 0.0823224
0.702174 0.48249 0.087892
0.764202 0.511315 0.0937209
0.826276 0.540032 0.099382
0.886687 0.565591 0.104799
0.94316 0.585504 0.109239
0.999435 0.604608 0.113619
1 0.622812 0.117922
1 0.640299 0.122164
1 0.656733 0.126452
0 0.248173 0
0 0.257206 0
0.00633249 0.266285 0
0.0231632 0.275517 0
0.0400549 0.284733 0
0.0568093 0.293828 0.00231937
0.0735485 0.302907 0.0081178
0.0902876 0.311986 0.0139467
0.11487 0.319249 0.0186618
0.145434 0.326284 0.0234073
0.176394 0.334127 0.0288396
0.207919 0.342794 0.0348974
0.240177 0.352255 0.0415808
0.272755 0.362341 0.0487526
0.305806 0.372961 0.0563363
0.339529 0.384298 0.0644846
0.373358 0.395743 0.0727703
0.407492 0.407492 0.0813001
0.422431 0.399893 0.0771954
0.445045 0.399039 0.0747082
0.475135 0.404517 0.0741588
0.512551 0.415732 0.0752728
0.55877 0.434195 0.0782025
0.611582 0.457893 0.082475
0.667887 0.483848 0.0873732
0.726864 0.511421 0.0928359
0.787243 0.539574 0.0982681
0.845472 0.56405 0.103395
0.901396 0.584649 0.107851
0.957763 0.604883 0.112306
1 0.624506 0.116732
1 0.643809 0.121187
1 0.661952 0.125536
0 0.262516 0
0 0.271504 0
0.00479133 0.280797 0
0.0215152 0.289906 0
0.0383154 0.298985 0
0.0550393 0.308064 0.000656138
0.0717632 0.317143 0.00646983
0.0884871 0.326223 0.0122835
0.107469 0.335042 0.0179446
0.137545 0.34139 0.0221866
0.168154 0.348684 0.0271763
0.199405 0.356878 0.0328527
0.231235 0.36585 0.0391546
0.263722 0.375769 0.0461433
0.296437 0.386007 0.0534371
0.329595 0.39675 0.0611124
0.363119 0.407889 0.0691386
0.397009 0.419394 0.0774395
0.431312 0.431312 0.0860761
0.446357 0.423651 0.0819715
0.469398 0.423575 0.0796674
0.501381 0.431327 0.0792706
0.542153 0.446418 0.0810254
0.588556 0.465751 0.0839857
0.640009 0.488533 0.0879988
0.694499 0.51342 0.0924697
0.751751 0.539956 0.0976577
0.806424 0.56228 0.102159
0.860761 0.582849 0.106477
0.916335 0.603632 0.110964
0.972656 0.624277 0.115526
1 0.644617 0.119982
1 0.664057 0.124376
0 0.277073 0
0 0.286122 0
0.00302129 0.295155 0
0.0196994 0.304219 0
0.0364843 0.313298 0
0.053193 0.322362 0
0.0700847 0.331701 0.00488289
0.0867933 0.34078 0.0106813
0.103532 0.349859 0.016495
0.12961 0.356771 0.0210117
0.159945 0.363607 0.0256199
0.190997 0.371344 0.0309606
0.222644 0.380072 0.0370336
0.254551 0.389288 0.0435187
0.286946 0.39913 0.0504768
0.319814 0.409552 0.0578622
0.353353 0.42063 0.0657054
0.387701 0.432471 0.0739757
0.422751 0.445151 0.082536
0.459083 0.459083 0.0915236
0.477302 0.454749 0.0881666
0.502663 0.457038 0.0861524
0.535485 0.465782 0.0860609
0.574533 0.479545 0.0873121
0.619226 0.497673 0.0898604
0.669017 0.519417 0.0935378
0.720821 0.542153 0.097612
0.770977 0.561608 0.101366
0.822782 0.581369 0.105379
0.876616 0.601938 0.109743
0.931579 0.622614 0.114122
0.988571 0.643565 0.118578
1 0.663951 0.123049
0 0.293721 0
0 0.303243 0
0.00251774 0.312688 0
0.0195468 0.32195 0
0.0365148 0.331182 0
0.0534371 0.340398 0
0.0703288 0.349584 0.00375372
0.0872053 0.358785 0.00961318
0.104311 0.368292 0.0156405
0.126009 0.376349 0.0207828
0.15639 0.383001 0.0251469
0.187289 0.390555 0.0301976
0.218784 0.398993 0.0358892
0.250874 0.40827 0.0421454
0.283619 0.418357 0.0489509
0.317037 0.429252 0.0562448
0.35137 0.440955 0.0640879
0.38616 0.45333 0.0722057
0.421714 0.466499 0.0806897
0.457984 0.480491 0.0895705
0.495415 0.495415 0.0988327
0.513268 0.49073 0.095201
0.538231 0.492714 0.0932784
0.56968 0.500267 0.0927596
0.607614 0.513252 0.0938582
0.650614 0.530144 0.096025
0.695216 0.547066 0.098558
0.740566 0.56347 0.101503
0.7888 0.581415 0.104891
0.839643 0.600702 0.108736
0.892531 0.620844 0.112871
0.948043 0.641733 0.117205
1 0.662516 0.121645
0 0.31577 0
0 0.326604 0
0.00424201 0.336797 0
0.0224613 0.3467 0
0.0402686 0.35639 0
0.0579843 0.366201 0
0.0753338 0.375662 0.00401312
0.0925307 0.385031 0.0099794
0.109636 0.394385 0.0159152
0.129091 0.403098 0.0214542
0.159579 0.409583 0.0256962
0.1906 0.416999 0.0306401
0.222156 0.425315 0.0362402
0.254078 0.434241 0.0422827
0.286534 0.443931 0.0488441
0.319539 0.454322 0.0558633
0.353155 0.4654 0.0633097
0.387381 0.47718 0.0711376
0.422553 0.489754 0.0794842
0.458167 0.502968 0.088014
0.494591 0.516991 0.0968795
0.531655 0.531655 0.10602
0.549538 0.527047 0.102495
0.573877 0.528435 0.100435
0.604349 0.535195 0.0996872
0.639017 0.545007 0.0999924
0.675471 0.555505 0.100862
0.715541 0.568353 0.102571
0.759487 0.583749 0.105119
0.806729 0.601144 0.108324
0.856672 0.619989 0.112016
0.90985 0.640131 0.116045
0.964141 0.660899 0.12047
0 0.337987 0
0 0.350469 0
0.00656138 0.361578 0
0.0259251 0.372107 0
0.0444648 0.382223 0
0.0625772 0.392081 0
0.0803388 0.40174 0.00416571
0.0978408 0.411276 0.0102388
0.11516 0.420722 0.0162509
0.132723 0.43032 0.0223545
0.163302 0.436652 0.0264897
0.194232 0.443763 0.0312352
0.225528 0.451637 0.0365454
0.257267 0.460243 0.0423896
0.289464 0.469535 0.0487221
0.322148 0.4795 0.0554971
0.355383 0.490135 0.0626993
0.389181 0.501427 0.0702983
0.423728 0.513527 0.0783551
0.458808 0.52604 0.086656
0.494377 0.539178 0.0951553
0.530831 0.553231 0.104051
0.568185 0.568185 0.113375
0.58526 0.562783 0.109697
0.606622 0.561227 0.106859
0.632074 0.562951 0.105165
0.661936 0.568246 0.104479
0.696635 0.577249 0.104952
0.735714 0.589426 0.106447
0.778668 0.604196 0.108782
0.825177 0.621271 0.111955
0.875273 0.639948 0.115496
0.926863 0.659541 0.119417
0 0.360159 0
0 0.374258 0
0.0089723 0.386236 0
0.0293736 0.39736 0
0.0488136 0.407965 0
0.0674754 0.418204 0
0.0856336 0.428168 0.00450141
0.103395 0.437842 0.0106813
0.120912 0.447379 0.0167697
0.138247 0.456825 0.022797
0.166903 0.463569 0.0271763
0.197833 0.470481 0.0317845
0.229053 0.478111 0.0369268
0.260884 0.486686 0.0427558
0.292866 0.495644 0.0488899
0.325261 0.505226 0.055436
0.358129 0.515373 0.0623941
0.39144 0.526085 0.0697185
0.425162 0.537285 0.0773632
0.459251 0.548943 0.0852979
0.49369 0.560998 0.093492
0.528359 0.573281 0.101884
0.563134 0.585626 0.11046
0.59791 0.59791 0.119234
0.611826 0.589349 0.114961
0.630777 0.585458 0.111696
0.654887 0.586053 0.109636
0.683986 0.590753 0.108766
0.7178 0.5991 0.109026
0.756146 0.610819 0.110445
0.798138 0.624979 0.112596
0.844358 0.641459 0.115389
0.89276 0.659434 0.118776
0 0.378347 0
0 0.393622 0
0.00955215 0.406119 0
0.0305791 0.417548 0
0.0502327 0.428244 0
0.0691234 0.438499 0
0.0873121 0.448417 0.00370794
0.10518 0.458122 0.00991836
0.122744 0.467658 0.016022
0.140093 0.477073 0.0220493
0.164721 0.48481 0.0270542
0.195529 0.491463 0.0314946
0.226474 0.49868 0.036408
0.257725 0.506508 0.0418097
0.289387 0.514946 0.0476692
0.321324 0.523903 0.0539406
0.353658 0.533486 0.0606851
0.386297 0.543496 0.0677653
0.419104 0.55378 0.0750591
0.452201 0.564416 0.0826429
0.485588 0.575357 0.0904707
0.519219 0.586587 0.0985275
0.553307 0.59823 0.106905
0.587655 0.610056 0.115419
0.621942 0.621942 0.124025
0.635691 0.613214 0.119677
0.654337 0.609049 0.116365
0.677943 0.609216 0.114168
0.706645 0.613657 0.113313
0.739666 0.621408 0.11339
0.776913 0.632273 0.114458
0.818784 0.645975 0.116335
0.863432 0.661738 0.11899
0 0.393011 0
0 0.408209 0
0.00796521 0.420706 0
0.0289769 0.432135 0
0.0486458 0.442847 0
0.0675364 0.453101 0
0.0857252 0.46302 0.00210575
0.103578 0.472724 0.00831617
0.121157 0.482261 0.0144198
0.138628 0.491875 0.0205844
0.157488 0.500862 0.0263371
0.188052 0.507103 0.0304723
0.218814 0.514 0.0351263
0.249851 0.521508 0.0402686
0.281285 0.529595 0.0458686
0.313252 0.538491 0.0520485
0.34522 0.547616 0.0584573
0.377478 0.557198 0.0652171
0.410056 0.567193 0.0722972
0.442924 0.577554 0.0796674
0.476173 0.588357 0.0873579
0.509758 0.599512 0.0953384
0.54345 0.610773 0.103426
0.577508 0.622293 0.111711
0.611612 0.633997 0.120165
0.645899 0.645884 0.128771
0.659693 0.637232 0.124498
0.678187 0.632944 0.121202
0.701335 0.632715 0.118914
0.729152 0.636393 0.117723
0.761425 0.64358 0.117632
0.798566 0.653956 0.118425
0.83917 0.66714 0.120272
0 0.407797 0
0 0.422797 0
0.00636301 0.435309 0
0.0273899 0.446738 0
0.0470588 0.45745 0
0.0659495 0.467704 0
0.084123 0.477607 0.000503548
0.102159 0.487587 0.00688182
0.119738 0.497124 0.0129854
0.137072 0.506539 0.0190127
0.154269 0.515862 0.0249943
0.180652 0.522911 0.0295567
0.211246 0.529488 0.0339666
0.242145 0.536721 0.0388952
0.273564 0.544686 0.0443732
0.305074 0.553002 0.0501411
0.336797 0.561822 0.0563058
0.368841 0.571099 0.0628367
0.401175 0.580804 0.069688
0.43389 0.590982 0.0768902
0.467018 0.601617 0.0844434
0.500206 0.612375 0.092134
0.533684 0.623407 0.100038
0.567559 0.63473 0.108171
0.60145 0.646235 0.116457
0.635676 0.658076 0.124987
0.670115 0.670115 0.133684
0.68368 0.661219 0.129305
0.701793 0.65658 0.125872
0.724498 0.655985 0.123476
0.751751 0.65919 0.122164
0.784222 0.666133 0.121965
0.820096 0.675929 0.122652
0 0.422385 0
0 0.437659 0
0.00477607 0.449897 0
0.0257877 0.461326 0
0.0455329 0.47216 0
0.0644846 0.482506 0
0.0827039 0.49247 0
0.100572 0.502174 0.00529488
0.118135 0.511711 0.0113985
