LUT/Custom/Pscht Blue Skies.cube
TITLE "Generated by Resolve"
#LUMIXPHOTOSTYLE NAT
LUT_3D_SIZE 5
0 0 0
0.252201 0 0
0.555901 0 0
0.86479 0 0
1 0 0
0 0.103944 0
0.171771 0.171771 0.0342412
0.56109 0.301183 0.0592203
0.929229 0.379675 0.0925612
1 0.452811 0.116548
0 0.233845 0
0.122713 0.303975 0.0197299
0.383932 0.383932 0.0766308
0.702174 0.48249 0.087892
1 0.656733 0.126452
0 0.378347 0
0.122744 0.467658 0.016022
0.353658 0.533486 0.0606851
0.621942 0.621942 0.124025
0.863432 0.661738 0.11899
0 0.495033 0
0.10959 0.584222 0.00300603
0.287816 0.650355 0.0459297
0.543145 0.722988 0.0968185
0.813611 0.813611 0.161929
0 0 0.102632
0.169406 0.0289616 0.169406
0.435309 0.018555 0.200275
0.766979 0.01561 0.245762
1 0.0153964 0.29958
0.0315251 0.169436 0.169436
0.223743 0.223743 0.223743
0.527794 0.244358 0.244358
0.830625 0.261585 0.261585
1 0.30486 0.304845
0.0191043 0.303685 0.122103
0.186206 0.364706 0.186206
0.438132 0.438132 0.261448
0.831083 0.574044 0.315267
1 0.66775 0.391135
0.0160067 0.467643 0.122728
0.186313 0.552758 0.186313
0.433097 0.611643 0.252003
0.692622 0.692622 0.334173
0.995666 0.775128 0.331441
0.0028687 0.584039 0.109483
0.166552 0.673259 0.166567
0.374777 0.736263 0.208225
0.629679 0.809232 0.268482
0.892424 0.892424 0.353124
0 0 0.217594
0.0743267 0 0.287953
0.375494 0.0644694 0.375494
0.584451 0.0460975 0.377646
0.912016 0.0447547 0.45182
0 0.0758526 0.288594
0.112642 0.112642 0.339712
0.422507 0.244648 0.422507
0.693706 0.231556 0.463004
1 0.277852 0.540902
0.0708629 0.380652 0.380652
0.256458 0.433555 0.433555
0.49929 0.49929 0.49929
0.808499 0.5243 0.5243
1 0.55874 0.55874
0.0564126 0.531044 0.350301
0.247242 0.608042 0.428916
0.487739 0.66389 0.487739
0.742733 0.742733 0.566888
1 0.855497 0.598871
0.0442817 0.64979 0.286381
0.205158 0.734874 0.372183
0.428122 0.784787 0.428122
0.675044 0.85214 0.498192
0.935286 0.935286 0.581567
0 0 0.345403
0.0205539 0 0.424048
0.293629 0.0138705 0.492119
0.58616 0.100664 0.58616
0.7794 0.0799878 0.583047
0 0.0212711 0.425086
0.038117 0.038117 0.491081
0.345678 0.137301 0.55404
0.640864 0.277104 0.640864
0.88249 0.263203 0.67686
0.0144808 0.291096 0.486366
0.137881 0.343938 0.550027
0.378576 0.378576 0.604425
0.69752 0.521462 0.69752
0.979706 0.521706 0.750561
0.114778 0.616342 0.616342
0.324453 0.68452 0.68452
0.560372 0.736294 0.736294
0.809247 0.809247 0.809247
1 0.80914 0.80914
0.0895399 0.718685 0.537758
0.260121 0.803983 0.623392
0.492454 0.846784 0.669505
0.73489 0.910826 0.73489
0.991089 0.991089 0.815274
0 0 0.477195
0 0 0.563577
0.217563 0 0.642344
0.529549 0.0580911 0.721996
0.808927 0.138918 0.808927
0 0 0.56405
0.00349432 0.00349432 0.639033
0.265904 0.0723735 0.712764
0.607477 0.211688 0.804318
0.878996 0.326452 0.878996
0 0.220859 0.642344
0.0744793 0.269184 0.712917
0.307301 0.307301 0.764431
0.634974 0.432151 0.838056
0.910124 0.554238 0.910109
0.0622416 0.528603 0.717174
0.218265 0.607263 0.800626
0.437095 0.639414 0.841993
0.686473 0.686473 0.912383
0.974609 0.798718 0.974609
0.150072 0.806653 0.806653
0.339788 0.882719 0.882719
0.569757 0.924132 0.924117
0.808576 0.984421 0.984421
1 1 1
